/* XPM */
static char * enemy2_xpm[] = {
"64 64 2060 2",
"  	c #6FC0A0",
". 	c #70C0A0",
"+ 	c #73C1A2",
"@ 	c #77C3A6",
"# 	c #7AC3A7",
"$ 	c #78C3A6",
"% 	c #73C1A3",
"& 	c #70C0A1",
"* 	c #78C2A6",
"= 	c #77C3A5",
"- 	c #72C1A2",
"; 	c #75C1A3",
"> 	c #79C3A7",
", 	c #75C2A4",
"' 	c #71C0A2",
") 	c #6EBF9F",
"! 	c #6BBE9C",
"~ 	c #69BE9A",
"{ 	c #6ABE9A",
"] 	c #6DBF9E",
"^ 	c #71C0A1",
"/ 	c #77C2A5",
"( 	c #80C6AB",
"_ 	c #85C7AE",
": 	c #81C6AB",
"< 	c #71C1A1",
"[ 	c #81C5AB",
"} 	c #80C5AA",
"| 	c #76C2A5",
"1 	c #7CC4A8",
"2 	c #84C7AD",
"3 	c #7BC4A7",
"4 	c #6CBE9D",
"5 	c #64BC97",
"6 	c #5DB993",
"7 	c #61BB95",
"8 	c #69BD9A",
"9 	c #79C3A6",
"0 	c #8BC9B2",
"a 	c #86C7AE",
"b 	c #6EBF9E",
"c 	c #69BD9B",
"d 	c #6ABE9B",
"e 	c #6CBF9D",
"f 	c #6EC09F",
"g 	c #71C1A2",
"h 	c #86C7AF",
"i 	c #8BC9B1",
"j 	c #85C7AD",
"k 	c #75C2A3",
"l 	c #80C5AB",
"m 	c #8AC8B1",
"n 	c #89C8B1",
"o 	c #7EC5AA",
"p 	c #74C2A3",
"q 	c #6FBF9F",
"r 	c #5FBA94",
"s 	c #56B78E",
"t 	c #5CB992",
"u 	c #68BD99",
"v 	c #6CBE9B",
"w 	c #6ABD9B",
"x 	c #81C6AC",
"y 	c #61BA95",
"z 	c #5BB790",
"A 	c #5DB892",
"B 	c #65BC98",
"C 	c #6CBF9E",
"D 	c #82C6AC",
"E 	c #6EC1A1",
"F 	c #74C1A3",
"G 	c #7DC4A9",
"H 	c #6BBE9B",
"I 	c #63BB96",
"J 	c #68BC99",
"K 	c #61B995",
"L 	c #5AB790",
"M 	c #5AB78F",
"N 	c #66BC99",
"O 	c #56B58D",
"P 	c #49B185",
"Q 	c #51B086",
"R 	c #65B38D",
"S 	c #71B795",
"T 	c #72BC9C",
"U 	c #72C1A1",
"V 	c #77C2A4",
"W 	c #78C3A5",
"X 	c #74B998",
"Y 	c #73BA99",
"Z 	c #71BE9E",
"` 	c #6CBF9C",
" .	c #68BE9A",
"..	c #64BB96",
"+.	c #49B084",
"@.	c #48B083",
"#.	c #54B58C",
"$.	c #47B083",
"%.	c #57A87C",
"&.	c #739C74",
"*.	c #7F9B77",
"=.	c #78AD8A",
"-.	c #6BBB98",
";.	c #68BD9A",
">.	c #6FC0A1",
",.	c #70BE9E",
"'.	c #7AAE8C",
").	c #809C79",
"!.	c #7DA280",
"~.	c #76B594",
"{.	c #71BF9F",
"].	c #64BB97",
"^.	c #45AF82",
"/.	c #70BF9F",
"(.	c #71BF9E",
"_.	c #6ABD9A",
":.	c #5EB892",
"<.	c #61B28A",
"[.	c #6C9F78",
"}.	c #757D59",
"|.	c #78734E",
"1.	c #719873",
"2.	c #61B58F",
"3.	c #5EBA93",
"4.	c #67BC98",
"5.	c #70BB9B",
"6.	c #769B7A",
"7.	c #79734F",
"8.	c #79805E",
"9.	c #7AA685",
"0.	c #75BB9A",
"a.	c #6ABE9C",
"b.	c #5FB994",
"c.	c #56B68D",
"d.	c #55B58D",
"e.	c #6EBD9C",
"f.	c #6FAF8D",
"g.	c #789F7A",
"h.	c #818964",
"i.	c #846843",
"j.	c #835D35",
"k.	c #797E59",
"l.	c #6A9E77",
"m.	c #6AAE87",
"n.	c #69B993",
"o.	c #6BBF9C",
"p.	c #73BC9C",
"q.	c #76B392",
"r.	c #76A484",
"s.	c #7D8261",
"t.	c #835D36",
"u.	c #828A67",
"v.	c #7CA280",
"w.	c #73B393",
"x.	c #6FBD9D",
"y.	c #759E7D",
"z.	c #7C7854",
"A.	c #8E683F",
"B.	c #A46538",
"C.	c #A66335",
"D.	c #8E653D",
"E.	c #777954",
"F.	c #799974",
"G.	c #70B38F",
"H.	c #6BBE9D",
"I.	c #78B696",
"J.	c #7D9C79",
"K.	c #7A7A58",
"L.	c #8F663F",
"M.	c #A46438",
"N.	c #8D683F",
"O.	c #7A7956",
"P.	c #749E7E",
"Q.	c #6FBE9E",
"R.	c #7DC4A8",
"S.	c #74C2A4",
"T.	c #6D9275",
"U.	c #6B5A3A",
"V.	c #8F5226",
"W.	c #BA6838",
"X.	c #BF6A3B",
"Y.	c #99582F",
"Z.	c #765B37",
"`.	c #7B8865",
" +	c #74AF8C",
".+	c #6BBF9E",
"++	c #6FC09F",
"@+	c #73C2A3",
"#+	c #7CB293",
"$+	c #7D8967",
"%+	c #755B36",
"&+	c #9A592D",
"*+	c #BF6B3A",
"=+	c #6A5A39",
"-+	c #6C9174",
";+	c #70C1A1",
">+	c #88C7B0",
",+	c #84C6AD",
"'+	c #76C2A4",
")+	c #6FBD9E",
"!+	c #5E8D73",
"~+	c #4C4934",
"{+	c #824521",
"]+	c #BC6739",
"^+	c #C56C3C",
"/+	c #9C552C",
"(+	c #72522F",
"_+	c #79815E",
":+	c #71AB88",
"<+	c #65BC99",
"[+	c #67BD9A",
"}+	c #6EC0A0",
"|+	c #6FC1A1",
"1+	c #73C2A4",
"2+	c #7CB192",
"3+	c #7C8362",
"4+	c #72522E",
"5+	c #9C562B",
"6+	c #C66D3C",
"7+	c #BC673A",
"8+	c #824622",
"9+	c #4C4832",
"0+	c #5F8B71",
"a+	c #70BC9C",
"b+	c #7AC4A7",
"c+	c #71BEA0",
"d+	c #568B75",
"e+	c #2D3F33",
"f+	c #723C1E",
"g+	c #B56437",
"h+	c #C36B3A",
"i+	c #767F5A",
"j+	c #68A47D",
"k+	c #56B38B",
"l+	c #5CB68F",
"m+	c #67BB98",
"n+	c #6EBD9D",
"o+	c #73C0A1",
"p+	c #7BAE90",
"q+	c #7B8261",
"r+	c #71522E",
"s+	c #C36C3B",
"t+	c #B66439",
"u+	c #733C1F",
"v+	c #2D3E31",
"w+	c #578A72",
"x+	c #72BC9E",
"y+	c #7EC4AA",
"z+	c #83C6AD",
"A+	c #82C6AB",
"B+	c #82C5AC",
"C+	c #89C8B0",
"D+	c #73BFA1",
"E+	c #568C76",
"F+	c #293E33",
"G+	c #6F391B",
"H+	c #B26235",
"I+	c #C26B3A",
"J+	c #704D2A",
"K+	c #74704B",
"L+	c #6B8D65",
"M+	c #5F9970",
"N+	c #649C76",
"O+	c #6FA281",
"P+	c #75A687",
"Q+	c #76A78A",
"R+	c #78A88B",
"S+	c #7C997B",
"T+	c #787453",
"U+	c #704C29",
"V+	c #C36B3B",
"W+	c #B46338",
"X+	c #70391D",
"Y+	c #283D33",
"Z+	c #73BEA1",
"`+	c #72C0A2",
" @	c #88C8AF",
".@	c #72BFA1",
"+@	c #713A1C",
"@@	c #B46337",
"#@	c #C36A3C",
"$@	c #9E562D",
"%@	c #6F401D",
"&@	c #734929",
"*@	c #7E5636",
"=@	c #825B3C",
"-@	c #845D3F",
";@	c #876043",
">@	c #856046",
",@	c #856047",
"'@	c #80593F",
")@	c #744A2C",
"!@	c #6F401C",
"~@	c #9E562B",
"{@	c #273D33",
"]@	c #7BC4A8",
"^@	c #70BD9F",
"/@	c #538A74",
"(@	c #273D32",
"_@	c #70391C",
":@	c #B56338",
"<@	c #C96D3E",
"[@	c #AC5D32",
"}@	c #844821",
"|@	c #7B4120",
"1@	c #7F4123",
"2@	c #8B4727",
"3@	c #984F2C",
"4@	c #9D522D",
"5@	c #9A502D",
"6@	c #964D2C",
"7@	c #8A4627",
"8@	c #7E4122",
"9@	c #7A4120",
"0@	c #844822",
"a@	c #AC5E32",
"b@	c #C96E3E",
"c@	c #263D32",
"d@	c #548A74",
"e@	c #72C1A3",
"f@	c #7DC5A8",
"g@	c #6EC09E",
"h@	c #6DBF9D",
"i@	c #6CBE9C",
"j@	c #6EBD9E",
"k@	c #518A72",
"l@	c #253C31",
"m@	c #6E381C",
"n@	c #B76539",
"o@	c #D57542",
"p@	c #CF713F",
"q@	c #B66435",
"r@	c #904E27",
"s@	c #7B421F",
"t@	c #98522A",
"u@	c #BC6638",
"v@	c #C96D3D",
"w@	c #C86C3D",
"x@	c #BB6438",
"y@	c #97502A",
"z@	c #8F4E27",
"A@	c #B46336",
"B@	c #CE7344",
"C@	c #D47746",
"D@	c #B56438",
"E@	c #6E381A",
"F@	c #263C32",
"G@	c #528A73",
"H@	c #69BD99",
"I@	c #60BA94",
"J@	c #66BC98",
"K@	c #6DBD9D",
"L@	c #263C31",
"M@	c #6A351B",
"N@	c #B26237",
"O@	c #D77743",
"P@	c #E17C46",
"Q@	c #D27340",
"R@	c #A0572D",
"S@	c #7E451F",
"T@	c #A3592E",
"U@	c #D27440",
"V@	c #E27D47",
"W@	c #D27240",
"X@	c #A3582E",
"Y@	c #7E451E",
"Z@	c #9F582E",
"`@	c #CF7445",
" #	c #DD7E4C",
".#	c #D47747",
"+#	c #B26136",
"@#	c #6B3419",
"##	c #6ABD9C",
"$#	c #65BC97",
"%#	c #59B891",
"&#	c #58B890",
"*#	c #63BC96",
"=#	c #612F17",
"-#	c #A55932",
";#	c #CC6F3F",
">#	c #DD7944",
",#	c #D47441",
"'#	c #A85A31",
")#	c #894925",
"!#	c #AA5D32",
"~#	c #D57541",
"{#	c #E47E48",
"]#	c #D57641",
"^#	c #AB5D31",
"/#	c #8B4A24",
"(#	c #A95C33",
"_#	c #D37748",
":#	c #D77948",
"<#	c #A75831",
"[#	c #642F16",
"}#	c #5BB892",
"|#	c #57B88F",
"1#	c #5CB790",
"2#	c #5BB28A",
"3#	c #66B48F",
"4#	c #6CB693",
"5#	c #6EB896",
"6#	c #71BB9B",
"7#	c #6FBC9C",
"8#	c #538A72",
"9#	c #5B2B13",
"0#	c #99502D",
"a#	c #BF663A",
"b#	c #D67442",
"c#	c #D67542",
"d#	c #B25F35",
"e#	c #99512D",
"f#	c #B66237",
"g#	c #DB7844",
"h#	c #DA7843",
"i#	c #9D512D",
"j#	c #B56136",
"k#	c #D67644",
"l#	c #D57543",
"m#	c #C06639",
"n#	c #9A502B",
"o#	c #5C2B12",
"p#	c #528A72",
"q#	c #6EBC9C",
"r#	c #71B999",
"s#	c #70B898",
"t#	c #6FB796",
"u#	c #6DB896",
"v#	c #69BB98",
"w#	c #5EB993",
"x#	c #6DBD99",
"y#	c #70B28E",
"z#	c #6F936F",
"A#	c #708562",
"B#	c #728665",
"C#	c #76906E",
"D#	c #7CA684",
"E#	c #74B696",
"F#	c #5C8C73",
"G#	c #454734",
"H#	c #673315",
"I#	c #9C512C",
"J#	c #BE6438",
"K#	c #D47341",
"L#	c #D87643",
"M#	c #BD663A",
"N#	c #AA5A32",
"O#	c #BF6739",
"P#	c #DC7944",
"Q#	c #E47F48",
"R#	c #D77642",
"S#	c #BA6537",
"T#	c #AC5A32",
"U#	c #C1663A",
"V#	c #DA7743",
"W#	c #D57341",
"X#	c #BE6538",
"Y#	c #454633",
"Z#	c #5B8B72",
"`#	c #73B695",
" $	c #7CA784",
".$	c #77916F",
"+$	c #738767",
"@$	c #738766",
"#$	c #749675",
"$$	c #74B391",
"%$	c #6BBC98",
"&$	c #67BD99",
"*$	c #77BC9B",
"=$	c #7BA886",
"-$	c #6E7354",
";$	c #675230",
">$	c #685230",
",$	c #706543",
"'$	c #7E8E6B",
")$	c #76B08F",
"!$	c #668E72",
"~$	c #5C5036",
"{$	c #763C19",
"]$	c #A1532D",
"^$	c #BF6538",
"/$	c #DB7945",
"($	c #C86D3E",
"_$	c #B76236",
":$	c #C56A3B",
"<$	c #C4693A",
"[$	c #BA6237",
"}$	c #CA6D3E",
"|$	c #DC7945",
"1$	c #C06539",
"2$	c #A2542E",
"3$	c #773D1A",
"4$	c #7E8F6A",
"5$	c #6F7355",
"6$	c #7AA886",
"7$	c #74BB9A",
"8$	c #71BA9A",
"9$	c #73AC8E",
"0$	c #73A487",
"a$	c #72A386",
"b$	c #769D80",
"c$	c #7D8A6A",
"d$	c #7D5E3F",
"e$	c #733F1C",
"f$	c #673A15",
"g$	c #6A502E",
"h$	c #7D825E",
"i$	c #76AC8B",
"j$	c #6B8F71",
"k$	c #665436",
"l$	c #773E19",
"m$	c #984F2B",
"n$	c #B55F35",
"o$	c #D0703F",
"p$	c #DF7B46",
"q$	c #D07140",
"r$	c #E07C46",
"s$	c #E57F48",
"t$	c #D37341",
"u$	c #CC6E3E",
"v$	c #D47442",
"w$	c #DD7A45",
"x$	c #CF703F",
"y$	c #B65F36",
"z$	c #783E19",
"A$	c #76AC8C",
"B$	c #733F1B",
"C$	c #7D8A69",
"D$	c #749D7E",
"E$	c #6EA183",
"F$	c #70A284",
"G$	c #71AC8C",
"H$	c #70BA9A",
"I$	c #6FC2A2",
"J$	c #71B292",
"K$	c #728B6C",
"L$	c #6C6B4D",
"M$	c #66654A",
"N$	c #6B6447",
"O$	c #7C5E3D",
"P$	c #955530",
"Q$	c #8F4A25",
"R$	c #753D1A",
"S$	c #6A4E2D",
"T$	c #7D805D",
"U$	c #77AD8C",
"V$	c #6D9072",
"W$	c #665536",
"X$	c #6D3914",
"Y$	c #854525",
"Z$	c #A45530",
"`$	c #E07B46",
" %	c #DE7A45",
".%	c #E67F48",
"+%	c #E57E48",
"@%	c #DF7A45",
"#%	c #C76B3C",
"$%	c #864525",
"%%	c #6E3914",
"&%	c #6C9071",
"*%	c #7D805C",
"=%	c #6A4E2C",
"-%	c #7C5D3C",
";%	c #6B6345",
">%	c #656448",
",%	c #6B6A4B",
"'%	c #63BB97",
")%	c #6EBC9B",
"!%	c #6FB99A",
"~%	c #71A586",
"{%	c #747455",
"]%	c #704318",
"^%	c #68380C",
"/%	c #69390F",
"(%	c #80441D",
"_%	c #A4542D",
":%	c #9F522C",
"<%	c #7F421F",
"[%	c #694C2B",
"}%	c #767957",
"|%	c #70A384",
"1%	c #69886B",
"2%	c #685234",
"3%	c #733D17",
"4%	c #8A4825",
"5%	c #A65730",
"6%	c #E47E47",
"7%	c #E57E47",
"8%	c #A65731",
"9%	c #8A4826",
"0%	c #695234",
"a%	c #688769",
"b%	c #6EA281",
"c%	c #767956",
"d%	c #693910",
"e%	c #69380E",
"f%	c #714319",
"g%	c #70B99A",
"h%	c #71BC9C",
"i%	c #5CB791",
"j%	c #52B38A",
"k%	c #63B791",
"l%	c #73AA87",
"m%	c #729576",
"n%	c #727D61",
"o%	c #856141",
"p%	c #904F28",
"q%	c #884826",
"r%	c #7B4223",
"s%	c #8B4927",
"t%	c #A95730",
"u%	c #A3542D",
"v%	c #81441F",
"w%	c #603E1F",
"x%	c #59563C",
"y%	c #50725C",
"z%	c #5D634C",
"A%	c #73492C",
"B%	c #924E28",
"C%	c #B36136",
"D%	c #C96E3F",
"E%	c #D97744",
"F%	c #924F28",
"G%	c #74492C",
"H%	c #5D624A",
"I%	c #4F7259",
"J%	c #59563B",
"K%	c #AA5730",
"L%	c #8C4927",
"M%	c #7C4222",
"N%	c #884825",
"O%	c #904F29",
"P%	c #729677",
"Q%	c #77AC8C",
"R%	c #71BD9D",
"S%	c #65BB97",
"T%	c #54B48C",
"U%	c #4CAF82",
"V%	c #67AD85",
"W%	c #7B946F",
"X%	c #766946",
"Y%	c #774B29",
"Z%	c #91512C",
"`%	c #A35D38",
" &	c #9A5B3C",
".&	c #835037",
"+&	c #8C502E",
"@&	c #9F532B",
"#&	c #7F441E",
"$&	c #57300F",
"%&	c #321E0B",
"&&	c #20190F",
"*&	c #542D1A",
"=&	c #7D4227",
"-&	c #A75E3B",
";&	c #CE784E",
">&	c #E18457",
",&	c #E58353",
"'&	c #E6804A",
")&	c #E67F49",
"!&	c #E5824F",
"~&	c #E18354",
"{&	c #CE784D",
"]&	c #7D4327",
"^&	c #552D1A",
"/&	c #321E0C",
"(&	c #563010",
"_&	c #7E431E",
":&	c #A85831",
"<&	c #925030",
"[&	c #894E30",
"}&	c #985839",
"|&	c #9F5C3B",
"1&	c #915130",
"2&	c #784B2A",
"3&	c #776A47",
"4&	c #7F9774",
"5&	c #78B594",
"6&	c #72BE9D",
"7&	c #70C09F",
"8&	c #59B68E",
"9&	c #50B287",
"0&	c #5BAD83",
"a&	c #6D9A74",
"b&	c #7C7C58",
"c&	c #845E3A",
"d&	c #875130",
"e&	c #8D5D42",
"f&	c #916852",
"g&	c #896B58",
"h&	c #766552",
"i&	c #7B5C45",
"j&	c #975536",
"k&	c #924D28",
"l&	c #77401B",
"m&	c #542E0E",
"n&	c #2F1905",
"o&	c #1F0C03",
"p&	c #5E2F19",
"q&	c #8A4B2A",
"r&	c #AF705B",
"s&	c #CF9384",
"t&	c #DF9F8D",
"u&	c #E49272",
"v&	c #E6824E",
"w&	c #E67F47",
"x&	c #E6814E",
"y&	c #E4906F",
"z&	c #E09D8B",
"A&	c #D09284",
"B&	c #AF705A",
"C&	c #5F2F19",
"D&	c #1F0C05",
"E&	c #301909",
"F&	c #542E0F",
"G&	c #763F1C",
"H&	c #995636",
"I&	c #855C46",
"J&	c #7C604F",
"K&	c #816859",
"L&	c #896957",
"M&	c #8C5E47",
"N&	c #895132",
"O&	c #855E3A",
"P&	c #807E5C",
"Q&	c #7A9E7D",
"R&	c #77B493",
"S&	c #67B690",
"T&	c #6AAF88",
"U&	c #70A37F",
"V&	c #6E7859",
"W&	c #775433",
"X&	c #925430",
"Y&	c #996045",
"Z&	c #826D5E",
"`&	c #6C756E",
" *	c #6A7A71",
".*	c #6A796D",
"+*	c #686B62",
"@*	c #7D5341",
"#*	c #7D4325",
"$*	c #6D3B1A",
"%*	c #552F0F",
"&*	c #311A07",
"**	c #241005",
"=*	c #6D371E",
"-*	c #9F572E",
";*	c #BF877B",
">*	c #D2B2B9",
",*	c #DABBC2",
"'*	c #DCA295",
")*	c #DF8459",
"!*	c #E27E48",
"~*	c #DABBC1",
"{*	c #BF877C",
"]*	c #9E5731",
"^*	c #6B371F",
"/*	c #231007",
"(*	c #321A0B",
"_*	c #542E11",
":*	c #6B381B",
"<*	c #7D4225",
"[*	c #80533F",
"}*	c #6C6A60",
"|*	c #607571",
"1*	c #607A77",
"2*	c #687872",
"3*	c #836F60",
"4*	c #945430",
"5*	c #7A5534",
"6*	c #737555",
"7*	c #7C9F7C",
"8*	c #78B390",
"9*	c #70BC9B",
"0*	c #70BF9E",
"a*	c #74AA87",
"b*	c #7A936F",
"c*	c #7F8260",
"d*	c #7F5E3F",
"e*	c #824A2A",
"f*	c #8E5A3F",
"g*	c #8D6B58",
"h*	c #73766D",
"i*	c #587C7A",
"j*	c #567F7D",
"k*	c #5C7D79",
"l*	c #5A706C",
"m*	c #635149",
"n*	c #68412E",
"o*	c #693E23",
"p*	c #5E3316",
"q*	c #391D0B",
"r*	c #281308",
"s*	c #784025",
"t*	c #AD6237",
"u*	c #CA9286",
"v*	c #D4BCC8",
"w*	c #D1C4D3",
"x*	c #C7A8A5",
"y*	c #C48566",
"z*	c #D37E4F",
"A*	c #E17F4A",
"B*	c #D4BCC9",
"C*	c #C9928A",
"D*	c #AB633E",
"E*	c #733F26",
"F*	c #271309",
"G*	c #391E0F",
"H*	c #5C3019",
"I*	c #693821",
"J*	c #6C3E2D",
"K*	c #695349",
"L*	c #5B6F6B",
"M*	c #537C7B",
"N*	c #517F7F",
"O*	c #587D7B",
"P*	c #74776D",
"Q*	c #8E6B57",
"R*	c #8F5A3C",
"S*	c #814A25",
"T*	c #7D5A37",
"U*	c #807E5A",
"V*	c #7E9672",
"W*	c #76AE8C",
"X*	c #75BD9E",
"Y*	c #75997A",
"Z*	c #766948",
"`*	c #815832",
" =	c #965632",
".=	c #955B3E",
"+=	c #846A57",
"@=	c #72766C",
"#=	c #607B77",
"$=	c #557E7D",
"%=	c #527E7E",
"&=	c #517B7B",
"*=	c #506F70",
"==	c #4C5456",
"-=	c #564540",
";=	c #694331",
">=	c #6A3920",
",=	c #422111",
"'=	c #2D160B",
")=	c #81492F",
"!=	c #BA6E46",
"~=	c #D4988A",
"{=	c #D6BCC7",
"]=	c #C6C2D3",
"^=	c #A9A6AC",
"/=	c #9C8474",
"(=	c #BC7E59",
"_=	c #DA7E4D",
":=	c #D6BCC8",
"<=	c #D4998D",
"[=	c #B96D46",
"}=	c #814729",
"|=	c #2D160A",
"1=	c #422213",
"2=	c #6A3722",
"3=	c #6B3F2F",
"4=	c #5B423E",
"5=	c #525455",
"6=	c #516F70",
"7=	c #607B78",
"8=	c #71756C",
"9=	c #836956",
"0=	c #945B3A",
"a=	c #945630",
"b=	c #805934",
"c=	c #766E4C",
"d=	c #749C7C",
"e=	c #78C3A4",
"f=	c #79BB9C",
"g=	c #708F72",
"h=	c #675032",
"i=	c #7D4119",
"j=	c #A45732",
"k=	c #A16648",
"l=	c #817464",
"m=	c #637D77",
"n=	c #547E7D",
"o=	c #517D7E",
"p=	c #4F7A7C",
"q=	c #4B7476",
"r=	c #456A6F",
"s=	c #3C545D",
"t=	c #4A484B",
"u=	c #6A453A",
"v=	c #733C26",
"w=	c #472414",
"x=	c #2F180E",
"y=	c #874F37",
"z=	c #C2734D",
"A=	c #DD9681",
"B=	c #DAB2B4",
"C=	c #C0B4C0",
"D=	c #929AA2",
"E=	c #777A75",
"F=	c #A5775B",
"G=	c #CF7A4C",
"H=	c #E27C47",
"I=	c #777B76",
"J=	c #DD9782",
"K=	c #C67247",
"L=	c #8D4B29",
"M=	c #31170B",
"N=	c #4A464B",
"O=	c #3B535D",
"P=	c #4C7476",
"Q=	c #517E7F",
"R=	c #5C7A79",
"S=	c #7E7064",
"T=	c #A16447",
"U=	c #A45731",
"V=	c #7D411A",
"W=	c #6F8E70",
"X=	c #77B998",
"Y=	c #74C0A1",
"Z=	c #78C2A4",
"`=	c #79BB9B",
" -	c #6F9072",
".-	c #655132",
"+-	c #7D4118",
"@-	c #A26548",
"#-	c #857461",
"$-	c #698073",
"%-	c #54847A",
"&-	c #4D7F7B",
"*-	c #497174",
"=-	c #3F6068",
"--	c #3B5862",
";-	c #364C59",
">-	c #48474C",
",-	c #6A453B",
"'-	c #743D27",
")-	c #482415",
"!-	c #30180E",
"~-	c #884F35",
"{-	c #C46F46",
"]-	c #E0865F",
"^-	c #DF967D",
"/-	c #C39386",
"(-	c #8F7B76",
"_-	c #686260",
":-	c #93654F",
"<-	c #BE6E44",
"[-	c #E37D47",
"}-	c #D87644",
"|-	c #BF6E44",
"1-	c #946650",
"2-	c #696462",
"3-	c #907C78",
"4-	c #C49486",
"5-	c #DE987F",
"6-	c #E08A63",
"7-	c #C77043",
"8-	c #8D4B28",
"9-	c #32180A",
"0-	c #482414",
"a-	c #48464C",
"b-	c #507C7D",
"c-	c #4F7E7E",
"d-	c #597877",
"e-	c #7D6E63",
"f-	c #A26446",
"g-	c #A55831",
"h-	c #7D4018",
"i-	c #674C2F",
"j-	c #75896C",
"k-	c #81B797",
"l-	c #7CC2A5",
"m-	c #78BC9E",
"n-	c #79B596",
"o-	c #718C6E",
"p-	c #6A5333",
"q-	c #80431C",
"r-	c #A35631",
"s-	c #A06245",
"t-	c #7E6E61",
"u-	c #5B8475",
"v-	c #49937B",
"w-	c #488678",
"x-	c #43666C",
"y-	c #36505C",
"z-	c #324B59",
"A-	c #334855",
"B-	c #47464D",
"C-	c #67453D",
"D-	c #703E2B",
"E-	c #492719",
"F-	c #381C0F",
"G-	c #894B2C",
"H-	c #C16A3E",
"I-	c #DC7C4A",
"J-	c #DF8255",
"K-	c #C87B59",
"L-	c #966554",
"M-	c #70534B",
"N-	c #905B45",
"O-	c #B4643E",
"P-	c #E17B45",
"Q-	c #D1713F",
"R-	c #B6653D",
"S-	c #915A43",
"T-	c #6F524B",
"U-	c #DF8458",
"V-	c #DC8051",
"W-	c #C26D42",
"X-	c #8B4A28",
"Y-	c #391C0D",
"Z-	c #4A2817",
"`-	c #703E2A",
" ;	c #4D7678",
".;	c #4D7C7C",
"+;	c #577B77",
"@;	c #7B7264",
"#;	c #A06648",
"$;	c #A45A32",
"%;	c #80441A",
"&;	c #6C5438",
"*;	c #79927B",
"=;	c #87BCA3",
"-;	c #87C1A9",
";;	c #78896E",
">;	c #788365",
",;	c #806C4D",
"';	c #8B5431",
");	c #934F2A",
"!;	c #975130",
"~;	c #8C5A42",
"{;	c #706A61",
"];	c #527973",
"^;	c #427B72",
"/;	c #3F6D6A",
"(;	c #3A5660",
"_;	c #314957",
":;	c #304756",
"<;	c #314756",
"[;	c #3A4753",
"};	c #4E464B",
"|;	c #59423F",
"1;	c #54372E",
"2;	c #593020",
"3;	c #794024",
"4;	c #99522D",
"5;	c #D37542",
"6;	c #D57949",
"7;	c #C1734B",
"8;	c #B36F4C",
"9;	c #BB724A",
"0;	c #CB7344",
"a;	c #E37E47",
"b;	c #DB7743",
"c;	c #CD7041",
"d;	c #BD6A43",
"e;	c #AF6746",
"f;	c #BE7049",
"g;	c #D5794A",
"h;	c #D37746",
"i;	c #BA683C",
"j;	c #9A552F",
"k;	c #7B4122",
"l;	c #59301F",
"m;	c #54372D",
"n;	c #334B58",
"o;	c #3B5760",
"p;	c #416068",
"q;	c #437772",
"r;	c #4E8C76",
"s;	c #6E7F65",
"t;	c #8F5F44",
"u;	c #9C552F",
"v;	c #954E26",
"w;	c #8C5532",
"x;	c #827359",
"y;	c #7D8B73",
"z;	c #808D75",
"A;	c #715738",
"B;	c #6E4F2F",
"C;	c #89502C",
"D;	c #A15630",
"E;	c #A15530",
"F;	c #914E2F",
"G;	c #7E5540",
"H;	c #696B63",
"I;	c #517273",
"J;	c #40666B",
"K;	c #38545F",
"L;	c #334A58",
"M;	c #314755",
"N;	c #374753",
"O;	c #47454C",
"P;	c #5E4139",
"Q;	c #713E29",
"R;	c #713B20",
"S;	c #753E1D",
"T;	c #9C552A",
"U;	c #CA6F3D",
"V;	c #DE7C47",
"W;	c #DC7D4A",
"X;	c #D87D4C",
"Y;	c #D97C4B",
"Z;	c #DE7C48",
"`;	c #DF7B45",
" >	c #DB7946",
".>	c #D67848",
"+>	c #DA7B49",
"@>	c #CA703F",
"#>	c #47454B",
"$>	c #314857",
"%>	c #344C58",
"&>	c #334A55",
"*>	c #364E59",
"=>	c #3E6C6A",
"->	c #4D8675",
";>	c #687B65",
">>	c #805741",
",>	c #944F2D",
"'>	c #A1562F",
")>	c #895331",
"!>	c #6F5435",
"~>	c #72583A",
"{>	c #694923",
"]>	c #663E19",
"^>	c #8D4A25",
"/>	c #A85830",
"(>	c #A35734",
"_>	c #844C3A",
":>	c #6A5048",
"<>	c #5A6260",
"[>	c #48676B",
"}>	c #3A5A64",
"|>	c #334B59",
"1>	c #3E4752",
"2>	c #574546",
"3>	c #69443D",
"4>	c #61392B",
"5>	c #583117",
"6>	c #834722",
"7>	c #B96538",
"8>	c #D67745",
"9>	c #DF7D49",
"0>	c #E47E49",
"a>	c #E67E48",
"b>	c #B96438",
"c>	c #824623",
"d>	c #583018",
"e>	c #304652",
"f>	c #304854",
"g>	c #395C63",
"h>	c #486B6C",
"i>	c #5A6560",
"j>	c #6B5048",
"k>	c #834C3A",
"l>	c #A15735",
"m>	c #673F19",
"n>	c #684923",
"o>	c #674923",
"p>	c #663E1A",
"q>	c #8C4924",
"r>	c #A4562F",
"s>	c #98573B",
"t>	c #6C524E",
"u>	c #4C5257",
"v>	c #46565C",
"w>	c #41575F",
"x>	c #3D545D",
"y>	c #3A4F59",
"z>	c #354B58",
"A>	c #334654",
"B>	c #3B4450",
"C>	c #42424B",
"D>	c #3B3236",
"E>	c #352119",
"F>	c #623319",
"G>	c #98512E",
"H>	c #BA683E",
"I>	c #E47D47",
"J>	c #D27241",
"K>	c #BA6338",
"L>	c #62321A",
"M>	c #342019",
"N>	c #3B4550",
"O>	c #344754",
"P>	c #304856",
"Q>	c #394C57",
"R>	c #3C4F58",
"S>	c #3E545D",
"T>	c #405860",
"U>	c #45565D",
"V>	c #4C5156",
"W>	c #6A524E",
"X>	c #94573D",
"Y>	c #A25731",
"Z>	c #8B4924",
"`>	c #633D19",
" ,	c #664923",
".,	c #623D19",
"+,	c #7D431D",
"@,	c #904E29",
"#,	c #865941",
"$,	c #656A62",
"%,	c #53716C",
"&,	c #55706A",
"*,	c #526C68",
"=,	c #465F61",
"-,	c #2D4452",
";,	c #273C48",
">,	c #243540",
",,	c #382C2E",
"',	c #46271B",
"),	c #592D18",
"!,	c #743C23",
"~,	c #95512F",
"{,	c #D97844",
"],	c #DD7945",
"^,	c #DD7946",
"/,	c #DA7845",
"(,	c #E07B47",
"_,	c #C1683B",
":,	c #954E2C",
"<,	c #753C22",
"[,	c #5A2D19",
"},	c #47271B",
"|,	c #273C49",
"1,	c #2F4653",
"2,	c #344B58",
"3,	c #495A5E",
"4,	c #556865",
"5,	c #56706B",
"6,	c #52726D",
"7,	c #67695F",
"8,	c #855941",
"9,	c #8F4E29",
"0,	c #643E1A",
"a,	c #674A25",
"b,	c #603E1A",
"c,	c #683B16",
"d,	c #73411F",
"e,	c #73624B",
"f,	c #6A927C",
"g,	c #67A48D",
"h,	c #68A48D",
"i,	c #6AA58D",
"j,	c #679F88",
"k,	c #578376",
"l,	c #39535C",
"m,	c #334957",
"n,	c #324856",
"o,	c #324857",
"p,	c #2D4350",
"q,	c #213039",
"r,	c #222227",
"s,	c #5C3323",
"t,	c #783E24",
"u,	c #743B20",
"v,	c #5D2F1A",
"w,	c #6B381F",
"x,	c #AF5F35",
"y,	c #DA7844",
"z,	c #D47443",
"A,	c #CB6E3F",
"B,	c #D47342",
"C,	c #CB6F40",
"D,	c #D57645",
"E,	c #DA7945",
"F,	c #AF5F36",
"G,	c #6C381F",
"H,	c #5E3019",
"I,	c #743C20",
"J,	c #793F23",
"K,	c #2E4350",
"L,	c #324957",
"M,	c #334A57",
"N,	c #375059",
"O,	c #507C6D",
"P,	c #63987F",
"Q,	c #69A289",
"R,	c #68A58D",
"S,	c #67A58D",
"T,	c #68A48B",
"U,	c #6C927A",
"V,	c #746448",
"W,	c #73421D",
"X,	c #693C18",
"Y,	c #633F1C",
"Z,	c #684A25",
"`,	c #776540",
" '	c #725E3A",
".'	c #6F5936",
"+'	c #72573A",
"@'	c #74745E",
"#'	c #70A98D",
"$'	c #6FBEA0",
"%'	c #71BFA0",
"&'	c #72BFA0",
"*'	c #70B99B",
"='	c #679E86",
"-'	c #5A6F68",
";'	c #566662",
">'	c #556562",
",'	c #4E5B58",
"''	c #3A3D37",
")'	c #34241A",
"!'	c #7C3F23",
"~'	c #A1532E",
"{'	c #9A4F2C",
"]'	c #713A20",
"^'	c #60321C",
"/'	c #98522E",
"('	c #C06C40",
"_'	c #BE7048",
":'	c #BA7049",
"<'	c #C77348",
"['	c #D77847",
"}'	c #DA7744",
"|'	c #D67846",
"1'	c #C5744E",
"2'	c #BA7251",
"3'	c #BF724B",
"4'	c #C16C40",
"5'	c #99522E",
"6'	c #61321C",
"7'	c #6C3B23",
"8'	c #935132",
"9'	c #9D5431",
"0'	c #32241B",
"a'	c #343D38",
"b'	c #4D5B58",
"c'	c #556561",
"d'	c #566762",
"e'	c #586663",
"f'	c #566062",
"g'	c #576865",
"h'	c #5E987E",
"i'	c #69B492",
"j'	c #71BC9A",
"k'	c #71BD9E",
"l'	c #6FBE9F",
"m'	c #71AB8C",
"n'	c #767A5A",
"o'	c #735C38",
"p'	c #715C39",
"q'	c #73613D",
"r'	c #776641",
"s'	c #809371",
"t'	c #7D906D",
"u'	c #7B8E6C",
"v'	c #7B8C6E",
"w'	c #79967C",
"x'	c #73B396",
"y'	c #72C2A2",
"z'	c #72AF94",
"A'	c #729882",
"B'	c #6F947F",
"C'	c #6E937E",
"D'	c #6E947F",
"E'	c #6E957F",
"F'	c #6A8772",
"G'	c #595C46",
"H'	c #4E361E",
"I'	c #914B28",
"J'	c #BC6237",
"K'	c #BB6338",
"L'	c #9C532E",
"M'	c #824426",
"N'	c #864627",
"O'	c #935838",
"P'	c #9F7255",
"Q'	c #A98068",
"R'	c #B87D61",
"S'	c #C57148",
"T'	c #C96C3E",
"U'	c #C67248",
"V'	c #B87F68",
"W'	c #A98271",
"X'	c #9F725B",
"Y'	c #95583A",
"Z'	c #884727",
"`'	c #824425",
" )	c #985332",
".)	c #B4653F",
"+)	c #B7643B",
"@)	c #914C28",
"#)	c #4B361F",
"$)	c #545B47",
"%)	c #688772",
"&)	c #6F9580",
"*)	c #719680",
"=)	c #729481",
"-)	c #728F80",
";)	c #6F9381",
">)	c #6DAC8F",
",)	c #6EBC9A",
"')	c #71C0A0",
"))	c #6FC1A0",
"!)	c #73B594",
"~)	c #7B9B79",
"{)	c #7D8F6C",
"])	c #7D906E",
"^)	c #7F9270",
"/)	c #75B493",
"()	c #75B394",
"_)	c #74B597",
":)	c #70BC9D",
"<)	c #7ABFA3",
"[)	c #7AB99D",
"})	c #75B69A",
"|)	c #72B497",
"1)	c #71B093",
"2)	c #6FAA8E",
"3)	c #6D997D",
"4)	c #706B4D",
"5)	c #754A28",
"6)	c #A5572F",
"7)	c #C76A3C",
"8)	c #B15F34",
"9)	c #98522C",
"0)	c #874E26",
"a)	c #7F5B33",
"b)	c #8B7659",
"c)	c #988677",
"d)	c #A47D6D",
"e)	c #AC6343",
"f)	c #AF5C35",
"g)	c #B05D36",
"h)	c #AD6443",
"i)	c #A47D70",
"j)	c #98857C",
"k)	c #8A7361",
"l)	c #7F5938",
"m)	c #884E26",
"n)	c #98532C",
"o)	c #B06036",
"p)	c #C66D3F",
"q)	c #C66C3D",
"r)	c #A5592F",
"s)	c #734A28",
"t)	c #6F6B4D",
"u)	c #70AB8F",
"v)	c #77B297",
"w)	c #7CB79E",
"x)	c #7BB79E",
"y)	c #76B69B",
"z)	c #71BC9D",
"A)	c #6CBB97",
"B)	c #72B693",
"C)	c #75B492",
"D)	c #77B595",
"E)	c #71C2A3",
"F)	c #6FC1A2",
"G)	c #76C4A6",
"H)	c #6EAA8C",
"I)	c #629076",
"J)	c #5F7961",
"K)	c #816242",
"L)	c #A45D35",
"M)	c #BC6438",
"N)	c #C5683B",
"O)	c #B96237",
"P)	c #A0552D",
"Q)	c #905228",
"R)	c #95662D",
"S)	c #967436",
"T)	c #89724A",
"U)	c #806E5E",
"V)	c #7A5E54",
"W)	c #77432D",
"X)	c #773B22",
"Y)	c #77442E",
"Z)	c #7B5E54",
"`)	c #7F6C60",
" !	c #886F4F",
".!	c #967339",
"+!	c #95652D",
"@!	c #905328",
"#!	c #A1572D",
"$!	c #BB6436",
"%!	c #C5693A",
"&!	c #BA6538",
"*!	c #A35D34",
"=!	c #81623F",
"-!	c #5F7960",
";!	c #639176",
">!	c #78AE93",
",!	c #83C4AB",
"'!	c #83C7AE",
")!	c #68BE9B",
"!!	c #6DC09F",
"~!	c #6EC1A0",
"{!	c #71BB9D",
"]!	c #6A967A",
"^!	c #535C47",
"/!	c #4E3523",
"(!	c #8A4E30",
"_!	c #C26C42",
":!	c #CB6E41",
"<!	c #BC6338",
"[!	c #A1552D",
"}!	c #824821",
"|!	c #7F5324",
"1!	c #A37C36",
"2!	c #B28D3E",
"3!	c #926F33",
"4!	c #6F4C26",
"5!	c #503318",
"6!	c #32210B",
"7!	c #2A1D0A",
"8!	c #2A1D0B",
"9!	c #342410",
"0!	c #50341A",
"a!	c #7E5323",
"b!	c #824920",
"c!	c #A2552D",
"d!	c #C96D41",
"e!	c #C26D40",
"f!	c #8A4F29",
"g!	c #4E3520",
"h!	c #545D49",
"i!	c #789C85",
"j!	c #89C4AD",
"k!	c #7EC5A9",
"l!	c #5BB891",
"m!	c #83C2A8",
"n!	c #78B699",
"o!	c #66A48A",
"p!	c #587E67",
"q!	c #404837",
"r!	c #462817",
"s!	c #864829",
"t!	c #C16C42",
"u!	c #C16A3F",
"v!	c #AA5B31",
"w!	c #98572A",
"x!	c #90632A",
"y!	c #9B7735",
"z!	c #BA984A",
"A!	c #C8A653",
"B!	c #AD8B41",
"C!	c #937130",
"D!	c #836529",
"E!	c #7B6228",
"F!	c #796127",
"G!	c #826329",
"H!	c #926F30",
"I!	c #AE8B42",
"J!	c #997735",
"K!	c #8E6229",
"L!	c #975629",
"M!	c #AA5A31",
"N!	c #C16D42",
"O!	c #884A26",
"P!	c #482D18",
"Q!	c #4E5743",
"R!	c #729881",
"S!	c #84C2A9",
"T!	c #84C7AE",
"U!	c #5DB992",
"V!	c #61BA94",
"W!	c #59B790",
"X!	c #79C2A6",
"Y!	c #7BB89A",
"Z!	c #759679",
"`!	c #4A634F",
" ~	c #24372B",
".~	c #191C13",
"+~	c #3B1E0C",
"@~	c #753E1E",
"#~	c #9C532C",
"$~	c #80471F",
"%~	c #8D6228",
"&~	c #B18A3C",
"*~	c #CAA64F",
"=~	c #DABB66",
"-~	c #E0C36E",
";~	c #D4B35C",
">~	c #CAA64C",
",~	c #C6A147",
"'~	c #C59E46",
")~	c #C9A34C",
"!~	c #D5B45E",
"~~	c #E0C36F",
"{~	c #D9BB66",
"]~	c #B1893B",
"^~	c #8D5F27",
"/~	c #80451F",
"(~	c #402816",
"_~	c #4C5441",
":~	c #6C9278",
"<~	c #7AC2A5",
"[~	c #6BBF9D",
"}~	c #55B58C",
"|~	c #77B596",
"1~	c #748D6F",
"2~	c #434B39",
"3~	c #17140C",
"4~	c #2D1409",
"5~	c #4F2813",
"6~	c #743D1D",
"7~	c #964E28",
"8~	c #8B4824",
"9~	c #77421C",
"0~	c #8D6528",
"a~	c #B8923F",
"b~	c #D2AE54",
"c~	c #E0C26B",
"d~	c #E5CA75",
"e~	c #DFC068",
"f~	c #D8B65A",
"g~	c #D6B256",
"h~	c #D6B156",
"i~	c #D8B55B",
"j~	c #DFC069",
"k~	c #E5CA76",
"l~	c #D2AF54",
"m~	c #B8913F",
"n~	c #8D6428",
"o~	c #77411C",
"p~	c #8C4824",
"q~	c #743C1D",
"r~	c #522F1A",
"s~	c #524D39",
"t~	c #687A61",
"u~	c #77A183",
"v~	c #76B798",
"w~	c #72BF9F",
"x~	c #54B58B",
"y~	c #46AF82",
"z~	c #76B495",
"A~	c #738D70",
"B~	c #434C39",
"C~	c #30180D",
"D~	c #69341C",
"E~	c #884525",
"F~	c #814321",
"G~	c #7F431F",
"H~	c #7C411F",
"I~	c #7D4522",
"J~	c #97682F",
"K~	c #BB9241",
"L~	c #D2AE53",
"M~	c #E0C16A",
"N~	c #E7CD79",
"O~	c #E6CA76",
"P~	c #E3C670",
"Q~	c #E2C56F",
"R~	c #D4AE54",
"S~	c #BE9342",
"T~	c #99692F",
"U~	c #7F4621",
"V~	c #7D421E",
"W~	c #824322",
"X~	c #894828",
"Y~	c #71462D",
"Z~	c #54513C",
"`~	c #5F755C",
" {	c #74A081",
".{	c #73B899",
"+{	c #5FB992",
"@{	c #75B495",
"#{	c #738D6F",
"${	c #3A1D0F",
"%{	c #7D4023",
"&{	c #773F1B",
"*{	c #7C4120",
"={	c #8C4C29",
"-{	c #A36D34",
";{	c #D1AD52",
">{	c #DDBD65",
",{	c #E5C974",
"'{	c #E8CE7A",
"){	c #E9D07C",
"!{	c #E9D17D",
"~{	c #D4AE52",
"{{	c #C39544",
"]{	c #A66E35",
"^{	c #8C4D27",
"/{	c #7D421D",
"({	c #78401C",
"_{	c #904B27",
":{	c #A6552F",
"<{	c #834426",
"[{	c #3F2517",
"}{	c #464F3C",
"|{	c #738E70",
"1{	c #74B494",
"2{	c #67BC99",
"3{	c #75B494",
"4{	c #341A0E",
"5{	c #723A1F",
"6{	c #974E29",
"7{	c #944E27",
"8{	c #8F4B25",
"9{	c #964E29",
"0{	c #A0562F",
"a{	c #B07138",
"b{	c #C39442",
"c{	c #D0AA4E",
"d{	c #D7B459",
"e{	c #DEBE66",
"f{	c #E4C873",
"g{	c #E9CF7B",
"h{	c #EAD17E",
"i{	c #DEBF68",
"j{	c #D8B55A",
"k{	c #D2AB4F",
"l{	c #C69644",
"m{	c #B17338",
"n{	c #964F28",
"o{	c #934D26",
"p{	c #A1532C",
"q{	c #AC5831",
"r{	c #854425",
"s{	c #3F2010",
"t{	c #444C39",
"u{	c #7CC4A9",
"v{	c #70C1A0",
"w{	c #76C3A5",
"x{	c #74B595",
"y{	c #749274",
"z{	c #495541",
"A{	c #352619",
"B{	c #61341F",
"C{	c #884627",
"D{	c #9C502B",
"E{	c #AA5830",
"F{	c #B25E33",
"G{	c #B46135",
"H{	c #B87339",
"I{	c #C08F40",
"J{	c #C7A047",
"K{	c #CDA84B",
"L{	c #D5B257",
"M{	c #E6CB76",
"N{	c #E8CF7B",
"O{	c #E8CE7B",
"P{	c #CDA84C",
"Q{	c #C18F41",
"R{	c #B97339",
"S{	c #B46035",
"T{	c #B15B32",
"U{	c #B25B33",
"V{	c #AE5932",
"W{	c #844323",
"X{	c #41210F",
"Y{	c #73BB9B",
"Z{	c #75A788",
"`{	c #5F785F",
" ]	c #4E4F3C",
".]	c #503A29",
"+]	c #673620",
"@]	c #8D4829",
"#]	c #AD5832",
"$]	c #B85F35",
"%]	c #B45F35",
"&]	c #A56134",
"*]	c #956A31",
"=]	c #977934",
"-]	c #B4923F",
";]	c #CFAA4D",
">]	c #D9B65C",
",]	c #DFBF67",
"']	c #DDBD64",
")]	c #D8B65B",
"!]	c #CFAA4E",
"~]	c #956931",
"{]	c #A65F32",
"]]	c #B45E34",
"^]	c #B65D34",
"/]	c #AF5A32",
"(]	c #9F522D",
"_]	c #753B1F",
":]	c #391D0D",
"<]	c #72B898",
"[]	c #6BA386",
"}]	c #5F7C64",
"|]	c #4A4B39",
"1]	c #492A1A",
"2]	c #7A3D23",
"3]	c #A85531",
"4]	c #B86035",
"5]	c #B05D34",
"6]	c #92502C",
"7]	c #674020",
"8]	c #614E21",
"9]	c #9F8037",
"0]	c #CCA649",
"a]	c #D4AE50",
"b]	c #D6B155",
"c]	c #D5B155",
"d]	c #D5B053",
"e]	c #D3AE4F",
"f]	c #9F7F37",
"g]	c #624C21",
"h]	c #673F1F",
"i]	c #934E2A",
"j]	c #B85E35",
"k]	c #B45C34",
"l]	c #A75630",
"m]	c #914B29",
"n]	c #67351D",
"o]	c #321B0E",
"p]	c #42493A",
"q]	c #708A70",
"r]	c #73B294",
"s]	c #81C5AC",
"t]	c #83C6AC",
"u]	c #88C8B0",
"v]	c #6EB899",
"w]	c #669176",
"x]	c #3A2518",
"y]	c #6A361E",
"z]	c #9B4F2D",
"A]	c #AA5932",
"B]	c #A25630",
"C]	c #884728",
"D]	c #60311B",
"E]	c #513619",
"F]	c #81652B",
"G]	c #AB8A3B",
"H]	c #BD9943",
"I]	c #CBA548",
"J]	c #D1AA4B",
"K]	c #CAA548",
"L]	c #BD9942",
"M]	c #81632B",
"N]	c #513219",
"O]	c #5F301B",
"P]	c #884628",
"Q]	c #A25430",
"R]	c #AA5732",
"S]	c #A4542F",
"T]	c #8E492A",
"U]	c #753D23",
"V]	c #5A3D28",
"W]	c #4D4C38",
"X]	c #5C7059",
"Y]	c #729C81",
"Z]	c #72B798",
"`]	c #8BC8B1",
" ^	c #87C7AF",
".^	c #669478",
"+^	c #4B533F",
"@^	c #331B10",
"#^	c #5D2E19",
"$^	c #954D2C",
"%^	c #914B2B",
"&^	c #854428",
"*^	c #733A22",
"=^	c #61341D",
"-^	c #5A3D1C",
";^	c #6F5925",
">^	c #9A7D36",
",^	c #C19D44",
"'^	c #D1AA49",
")^	c #D1AA4A",
"!^	c #9B7D36",
"~^	c #593B1A",
"{^	c #5D2E15",
"]^	c #70361B",
"^^	c #844326",
"/^	c #904A2B",
"(^	c #934B29",
"_^	c #8A4523",
":^	c #4A2A19",
"<^	c #4E4A37",
"[^	c #64765C",
"}^	c #719B7D",
"|^	c #73B394",
"1^	c #70BD9E",
"2^	c #6EBB9B",
"3^	c #679A7D",
"4^	c #516A53",
"5^	c #3A4638",
"6^	c #543625",
"7^	c #804125",
"8^	c #7F4125",
"9^	c #7D3F25",
"0^	c #773C23",
"a^	c #65331E",
"b^	c #442213",
"c^	c #473515",
"d^	c #82682C",
"e^	c #B3913E",
"f^	c #C7A145",
"g^	c #C6A045",
"h^	c #80682C",
"i^	c #423417",
"j^	c #482E24",
"k^	c #6D4638",
"l^	c #804E3C",
"m^	c #864A32",
"n^	c #87492E",
"o^	c #884F39",
"p^	c #7E4D3D",
"q^	c #563529",
"r^	c #31251B",
"s^	c #688E72",
"t^	c #72B494",
"u^	c #68BD9B",
"v^	c #6ABC9A",
"w^	c #69AF8E",
"x^	c #619F81",
"y^	c #558970",
"z^	c #4D5442",
"A^	c #543120",
"B^	c #572A17",
"C^	c #582A16",
"D^	c #582A17",
"E^	c #552A16",
"F^	c #4B2613",
"G^	c #43240D",
"H^	c #503310",
"I^	c #6E501F",
"J^	c #8C6B2B",
"K^	c #997630",
"L^	c #997730",
"M^	c #896A2B",
"N^	c #614A1C",
"O^	c #372A1A",
"P^	c #534946",
"Q^	c #7D6F6A",
"R^	c #8D746D",
"S^	c #895D4E",
"T^	c #86533E",
"U^	c #8C6A60",
"V^	c #867570",
"W^	c #5E524F",
"X^	c #35302A",
"Y^	c #4D5642",
"Z^	c #679579",
"`^	c #6DC09E",
" /	c #68BD98",
"./	c #67AC8E",
"+/	c #506B56",
"@/	c #303327",
"#/	c #1C1C15",
"$/	c #1A1913",
"%/	c #1A1A13",
"&/	c #1D1C13",
"*/	c #2C2414",
"=/	c #493317",
"-/	c #5D3E1B",
";/	c #61411D",
">/	c #62421D",
",/	c #63431E",
"'/	c #63431D",
")/	c #5A3E1C",
"!/	c #433017",
"~/	c #312C24",
"{/	c #565654",
"]/	c #7C7B7A",
"^/	c #877E7B",
"//	c #806256",
"(/	c #7F5643",
"_/	c #8A776E",
":/	c #898685",
"</	c #61615F",
"[/	c #3B3C36",
"}/	c #525D47",
"|/	c #6A977B",
"1/	c #66BC97",
"2/	c #59B890",
"3/	c #6BB394",
"4/	c #5F8D73",
"5/	c #4C7560",
"6/	c #436F5C",
"7/	c #426F5C",
"8/	c #42705C",
"9/	c #43705C",
"0/	c #4B725B",
"a/	c #5A765B",
"b/	c #677A5C",
"c/	c #697A5E",
"d/	c #687A5E",
"e/	c #687A5C",
"f/	c #667859",
"g/	c #627655",
"h/	c #63795E",
"i/	c #56755D",
"j/	c #4A705C",
"k/	c #506459",
"l/	c #60625F",
"m/	c #655D5A",
"n/	c #60493F",
"o/	c #634532",
"p/	c #706057",
"q/	c #716F6C",
"r/	c #586058",
"s/	c #4B6C5B",
"t/	c #5F856C",
"u/	c #6DA688",
"v/	c #5DBA93",
"w/	c #5FBA93",
"x/	c #5BB992",
"y/	c #5AB991",
"z/	c #6EBC9D",
"A/	c #6BB597",
"B/	c #68B294",
"C/	c #67B193",
"D/	c #66B193",
"E/	c #68B192",
"F/	c #6AB191",
"G/	c #6CB291",
"H/	c #6EB293",
"I/	c #6DB293",
"J/	c #6BB290",
"K/	c #66AF8B",
"L/	c #5EAC86",
"M/	c #67AF8C",
"N/	c #6DB291",
"O/	c #6AB294",
"P/	c #66AC8F",
"Q/	c #56826C",
"R/	c #42493E",
"S/	c #37302B",
"T/	c #33261E",
"U/	c #352518",
"V/	c #3C332B",
"W/	c #46453D",
"X/	c #516856",
"Y/	c #62A085",
"Z/	c #6BB495",
"`/	c #6FBB9B",
" (	c #6EC19F",
".(	c #6ABF9B",
"+(	c #65BD99",
"@(	c #66BD99",
"#(	c #6DBC9C",
"$(	c #60967A",
"%(	c #4C634D",
"&(	c #3D4F3E",
"*(	c #3A4E3E",
"=(	c #3B4E3E",
"-(	c #475946",
";(	c #5E7F66",
">(	c #6CB193",
",(	c #62BA96",
"'(	c #74C1A2",
")(	c #74C2A2",
"!(	c #72C1A0",
"~(	c #69BB99",
"{(	c #66AB8A",
"](	c #629A7E",
"^(	c #5E957B",
"/(	c #5C957B",
"((	c #5D957B",
"_(	c #61987D",
":(	c #6AA588",
"<(	c #6EB99A",
"[(	c #7FC5AA",
"}(	c #66BB97",
"|(	c #6CBD9B",
"1(	c #6EBE9E",
"2(	c #8AC9B1",
"3(	c #7AC3A6",
"4(	c #85C6AE",
"5(	c #85C6AD",
"6(	c #58B88F",
"7(	c #7DC5A9",
"                . + @ # $ % &                       & % * # = -                               . ; > > , '     ) ! ~ { ! ]       ",
"                ^ / ( _ : = <                       < $ [ _ } | &                             + 1 2 2 3 + .   4 5 6 7 8 4 ]     ",
"                < 9 _ 0 a > <         b ! c d e f   g # h i j $ ^                           . k l m n o p & q d r s t u v w c c ",
"                < = : a x = <       f w y z A B C   < $ D h [ / ^             E             . F G _ 2 # -   ) H I t 7 u J K L M ",
"                & % / # $ + .       ) N O P Q R S T q U V # W + .           T X Y Z           ' , > 9 % &   ) ` {  .~ d ..O +.@.",
"                  & ^ < < &       .   N #.$.%.&.*.=.-.;.4 . < .         >.,.'.).!.~.{.          & g < &       f f f f e ].#.^.^.",
"                                  /.(._.:.<.[.}.|.1.2.3.4.]               5.6.7.8.9.0.                                f a.b.c.d.",
". .                                 (.e.f.g.h.i.j.k.l.m.n.o.          p.q.r.s.t.i.u.v.w.q                     & < + - & f a.N N ",
"+ <                                   x.y.z.A.B.C.D.E.F.G.H.        g I.J.K.L.C.M.N.O.P.Q.                  & % 9 R.# S.& f f f ",
"| - & & & .                           x.T.U.V.W.X.Y.Z.`. +.+) ++    @+#+$+%+&+*+W.V.=+-+x.                  ;+/ D >+,+9 g . & & ",
"@ @+p '+, + &                         )+!+~+{+]+^+/+(+_+:+<+[+e }+|+1+2+3+4+5+6+7+8+9+0+a+                  < W 2 i a b+% p '+'+",
", , 1 : l 9 -                       & c+d+e+f+g+h+5+(+i+j+k+l+m+n+/.o+p+q+r+5+s+t+u+v+w+x+.                 & , y+z+l $ | 1 A+A+",
"- | B+m C+G %                       ;+D+E+F+G+H+I+5+J+K+L+M+N+O+P+Q+R+S+T+U+5+V+W+X+Y+E+Z+&                   `+, | , % = D i i ",
"& , l  @h 1 %                       ;+.@E+F++@@@#@$@%@&@*@=@-@;@>@>@,@'@)@!@~@V+W+X+{@E+.@;+                    . & & < | l  @C+",
"  - $ 1 ]@| ^               f f     & ^@/@(@_@:@<@[@}@|@1@2@3@4@5@6@7@8@9@0@a@b@:@X+c@d@^@&                           . e@$ f@f@",
"  & g - - ^           g@h@i@c a.f &   j@k@l@m@n@o@p@q@r@s@t@u@v@w@x@y@s@z@A@B@C@D@E@F@G@)+          }+] e e ] ++        . U + + ",
"                      ] H@I I@J@] &   K@k@L@M@N@O@P@Q@R@S@T@U@V@V@W@X@Y@Z@`@ #.#+#@#L@G@j@        ) ##$#I J@! f                 ",
"                      ] J@%#&#*#i@)   K@k@L@=#-#;#>#,#'#)#!#~#{#{#]#^#/#(#_#:#v@<#[#L@k@K@      ++e B }#|#r ~ f                 ",
"                      ] J@1#2#3#4#5#6#7#8#v+9#0#a#b#c#d#e#f#g#{#{#h#f#i#j#k#l#m#n#o#v+p#q#T r#s#t#u#v#w#&#I@_.f                 ",
"                      ] x#y#z#A#B#C#D#E#F#G#H#I#J#K#L#M#N#O#P#Q#{#R#S#T#U#V#W#X#I#H#Y#Z#`# $.$+$@$#$$$%$B &$H f                 ",
"                  ^ e@+ *$=$-$;$>$,$'$)$!$~${$]$^$K#/$($_$:$P#Q#{#h#<$[$}$|$K#1$2$3$~$!$)$4$,$>$;$5$6$7$b ] ] f                 ",
"b f             8$9$0$a$b$c$d$e$f$g$h$i$j$k$l$m$n$o$p$l#v@q$r$s$s$P@t$u$v$w$x$y$n#z$k$j$A$h$g$f$B$d$C$D$E$F$G$H$                ",
"i@] ] C ] ) }+I$J$K$L$M$N$O$P$Q$R$S$T$U$V$W$X$Y$Z$w@P@`$g# %{#.%.%+%`$P# %@%#%Z$$%%%W$&%i$*%=%R$Q$P$-%;%>%,%K$J$I$|+            ",
"H H N '%].8 )%!%~%{%]%^%/%(%_%:%<%[%}%|%1%2%3%4%5%v@V@+%6%7%.%.%.%.%+%6%6%P@w@8%9%3%0%a%b%c%[%<%:%_%(%d%e%f%{%~%g%h%q           ",
"H 4.i%j%#.k%l%m%n%o%p%q%r%s%t%u%v%w%x%y%z%A%B%C%D%E%+%.%.%.%.%.%.%.%.%.%.%7%E%b@C%F%G%H%I%J%w%v%u%K%L%M%N%O%o%n%P%Q%R%          ",
"i@S%T%^.U%V%W%X%Y%Z%`% &.&+&5%@&#&$&%&&&*&=&-&;&>&,&'&.%.%.%.%.%.%.%.%.%.%)&!&~&{&-&]&^&&&/&(&_&@&:&<&[&}&|&1&2&3&4&5&6&7&      ",
") &$8&9&0&a&b&c&d&e&f&g&h&i&j&k&l&m&n&o&p&q&r&s&t&u&v&w&.%.%.%.%.%.%.%.%w&x&y&z&A&B&q&C&D&E&F&G&k&H&I&J&K&L&M&N&O&P&Q&R&6&}+    ",
"  ! S&T&U&V&W&X&Y&Z&`& *.*+*@*#*$*%*&***=*-*;*>*,*'*)*!*s$.%.%.%.%.%.%s$!*)*'*~*>*{*]*^*/*(*_*:*<*[*}*|*1*2*3*Y&4*5*6*7*8*9*    ",
"^ 0*a*b*c*d*e*f*g*h*i*j*k*l*m*n*o*p*q*r*s*t*u*v*w*x*y*z*A*.%.%.%.%.%.%A*z*y*x*w*B*C*D*E*F*G*H*I*J*K*L*M*N*O*P*Q*R*S*T*U*V*W*/.  ",
"k X*Y*Z*`* =.=+=@=#=$=%=&=*===-=;=>=,='=)=!=~={=]=^=/=(=_=.%.%.%.%.%.%_=(=/=^=]=:=<=[=}=|=1=2=3=4=5=6=&=%=$=7=8=9=0=a=b=c=d=R%. ",
"e=f=g=h=i=j=k=l=m=n=o=p=q=r=s=t=u=v=w=x=y=z=A=B=C=D=E=F=G=H=+%.%.%+%H=G=F=I=D=C=B=J=K=L=M=w=v=u=N=O=r=P=p=%=Q=R=S=T=U=V=h=W=X=Y=",
"Z=`= -.-+-j=@-#-$-%-&-*-=---;->-,-'-)-!-~-{-]-^-/-(-_-:-<-L#[-.%.%[-}-|-1-2-3-4-5-6-7-8-9-0-'-,-a-;---=-*-b-c-d-e-f-g-h-i-j-k-l-",
"m-n-o-p-q-r-s-t-u-v-w-x-y-z-A-B-C-D-E-F-G-H-I-J-K-L-M-N-O-o$P-.%.%P-Q-R-S-T-L-K-U-V-W-X-Y-Z-`-C-B-A-z-y-x- ;.;+;@;#;$;%;&;*;=;-;",
";;>;,;';);!;~;{;];^;/;(;_;:;<;[;};|;1;2;3;4;S#5;6;7;8;9;0;V#a;.%.%a;b;c;d;e;f;g;h;i;j;k;l;m;|;};[;<;:;n;o;p;q;r;s;t;u;v;w;x;y;z;",
"A;B;C;D;E;F;G;H;I;J;K;L;:;:;:;M;N;O;P;Q;R;S;T;U;V;W;X;Y;Z;[-.%.%.%.%[-`; >.>+>Z;@>/+G&u+Q;P;#>N;M;:;$>%>&>*>=>->;>>>,>u%'>)>!>~>",
"{>]>^>/>(>_>:><>[>}>|>:;:;:;:;:;:;1>2>3>4>5>6>7>8>9>0>{#+%.%.%.%.%.%.%a>+%{#p$c#b>c>d>4>3>2>1>:;:;:;$>%>e>f>g>h>i>j>k>l>:&^>m>n>",
"o>p>q>r>s>t>u>v>w>x>y>z>$>:;:;:;:;A>B>C>D>E>F>G>H>h;a;6%[-6%+%.%.%+%6%6%s$I>J>K>3@L>M>D>C>N>O>P>:;:;P>n;Q>R>S>T>U>V>W>X>Y>Z>`> ,",
"o>.,+,@,#,$,%,&,&,&,*,=,n;:;:;:;:;-,;,>,,,',),!,~,H-p$ %{,],I>.%.%I>^,/,V;(,_,:,<,[,},,,>,|,1,P>:;:;:;2,3,4,5,6,%,&,7,8,9,_&0,o>",
"a,b,c,d,e,f,g,h,i,i,j,k,l,m,n,o,n,p,q,r,s,t,u,v,w,x,y,z,A,B,H=a>+%P@t$C,D,E,F,G,H,I,J,s,r,q,K,L,m,M,L,N,O,P,Q,R,S,T,U,V,W,X,Y,Z,",
"`, '.'+'@'#'j@$'%'&'*'='-';'>'>'>',''')'!'~'{']'^'/'('_':'<'['}'|$|'1'2'3'4'5'6'7'8'9'!'0'a'b'c'd'e'f'g'h'i'j'k'l'j@m'n'o'p'q'r'",
"s't'u'v'w'x'  ;+g y'&'z'A'B'C'D'E'F'G'H'I'J'K'L'M'N'O'P'Q'R'S'T'C,U'V'W'X'Y'Z'`' ).)+)@)#)$)%)&)*)=)-);)>),)(.')))f !)~){)])^)s'",
"I.~./)()_):)    & @+/ <)[)})|)1)2)3)4)5)6)7)w@8)9)0)a)b)c)d)e)f)g)h)i)j)k)l)m)n)o)p)q)r)s)t)3)u)v)w)x)y)z)q q b ! 8 A)B)C)~.D)D)",
"E)F)E |+|+      < / } _ x G)%'H)I)J)K)L)M)N)O)P)Q)R)S)T)U)V)W)X)X)Y)Z)`) !.!+!@!#!$!%!&!*!=!-!;!>!,!'!]@y'f ] ! 5 w#7 )!!!~!~!~!",
";+.             < 9 j 0 a 9 {!]!^!/!(!_!:!<![!}!|!1!2!3!4!5!6!7!8!9!0!4!3!2!1!a!b!c!<!d!e!f!g!h!i!j!m k!p ++h@8 r s l!$#! a.8 ;.",
"                & / [ a m!n!o!p!q!r!s!t!u!v!w!x!y!z!A!B!C!D!E!F!F!E!G!H!I!A!z!J!K!L!M!u!N!O!P!Q!R!S!T!]@+ . ++! I U!r B 4.V!L W!",
"                . - | X!Y!Z!`! ~.~+~@~<##~$~%~&~*~=~-~;~>~,~,~,~,~,~'~)~!~~~{~*~]~^~/~#~<#S;(~_~:~[)<~; ^     f 4 c ! [~S%}~$.$.",
"                    . &'|~1~2~3~4~5~6~7~8~9~0~a~b~c~d~e~f~g~g~g~g~g~h~i~j~k~c~l~m~n~o~p~7~q~r~s~t~u~v~w~        f f f ] S%x~y~^.",
"                      %'z~A~B~C~D~E~F~G~H~I~J~K~L~M~N~O~P~Q~Q~Q~Q~Q~Q~P~O~N~M~R~S~T~U~V~G~W~X~Y~Z~`~ {.{q             f 8 +{c.O ",
"&                   & ')@{#{B~${%{:%q>&{*{={-{S~;{>{,{'{){!{!{!{!{!{!{){'{d~>{~{{{]{^{/{({_{:{<{[{}{|{1{/.    ;+- + - ;+] w 2{2{",
"% &                   /.3{#{B~4{5{6{7{8{9{0{a{b{c{d{e{f{g{h{h{h{h{h{h{g{f{i{j{k{l{m{R@n{o{p{q{r{s{t{#{3{/.  . % 9 u{# S.v{f f f ",
"w{- . & &             q x{y{z{A{B{C{D{E{F{G{H{I{J{K{L{j~M{N{'{'{'{'{O{M{e~L{P{J{Q{R{S{F{T{U{V{W{X{t{#{3{/.  ;+/ B+>+,+9 U . & & ",
"@ % F '+, + &           Y{Z{`{ ].]+]@]#]$]%]&]*]=]-];]>],]c~e~e~e~e~e~'])]!]-]=]~]{]]]$]^]/](]_]:]t{#{1{/.  < $ ,+m a # p p | | ",
", '+1 D [ > -           {.<][]}]|]1]2]3]4]5]6]7]8]9]0]a]b]g~c]c]c]c]c]d]e]0]f]g]h]i]/]j]k]l]m]n]o]p]q]r]q   ;+, u{s]y+/ w{R.t]z+",
"- | D m u]G %             /.v]w]_~x]y]z]A]B]C]D]E]F]G]H]I]J]J]J]J]J]J]K]L]G]M]N]O]P]Q]R]S]T]U]V]W]X]Y]Z]q     < p '+, % @ D `]`]",
";+, l  ^a 1 +               q#.^+^@^#^P]$^%^&^*^=^-^;^>^,^'^)^)^)^)^'^,^!^;^~^{^]^^^/^(^_^D~:^<^[^}^|^1^        & & & < '+l  @ @",
"  - $ u{1 '+<           f f 2^3^4^5^6^U]7^8^9^0^a^b^c^d^e^f^g^g^g^g^f^e^h^i^j^k^l^m^n^o^p^q^r^+^s^t^Z                 . + $ R.R.",
"  . < - - <         . ++H.u^v^w^x^y^z^A^B^C^D^E^F^G^H^I^J^K^K^K^K^K^L^M^N^O^P^Q^R^S^T^U^V^W^X^Y^Z^2^`^e e e h@f         & g - - ",
"                    . b &$r 7  /i@./+/@/#/$/%/&/*/=/-/;/>/,/,/'/'/,/,/)/!/~/{/]/^///(/_/:/</[/}/|/2^H $#I 1/H f                 ",
"                      ] J@2/&#*#4 3/4/5/6/7/8/9/0/a/b/c/d/e/f/g/g/f/e/h/i/j/k/l/m/n/o/p/q/r/s/t/u/e.d v/|#w/_.++                ",
"                      ] J@x/y/5 4 z/A/B/C/D/D/C/E/F/G/H/I/J/K/L/L/M/N/I/O/P/Q/R/S/T/U/V/W/X/Y/Z/`/b d r &#r d . &               ",
"                      b { J@B 8 h@  |+;+;+;+;+;+|+))))|+|+ (.(+(@([~}+))|+#($(%(&(*(*(=(-(;(>(;+|+  ] ;.,(5 a.                  ",
"                . < + '(')q ] ] b                     g F )(!(q b ++f ] 4 ~({(](^(/(/(((_(:(<(;+- p F . H.a.] ++                ",
"f               & , ]@[(1 , &                       & , 1 [(]@F .   ] 8 ].I@}(|(1(1(1(1(1(q   + 9 k!k!= g                       ",
"! f             < 9 z+2(_ $ <                       < 3(4(m 5($ ^   h@J@l!6(I h@& &         . , [(C+u]7(@+.                     "};
