/* XPM */
static char * exit_npc_xpm[] = {
"64 64 1935 2",
"  	c #6FC0A0",
". 	c #70C0A0",
"+ 	c #72C1A2",
"@ 	c #77C3A5",
"# 	c #79C3A7",
"$ 	c #71C1A1",
"% 	c #75C2A4",
"& 	c #79C3A6",
"* 	c #78C3A6",
"= 	c #74C2A3",
"- 	c #70C0A1",
"; 	c #6EC09F",
"> 	c #6CBE9C",
", 	c #6ABE9B",
"' 	c #6ABE9A",
") 	c #6BBE9C",
"! 	c #76C2A5",
"~ 	c #81C6AB",
"{ 	c #86C7AF",
"] 	c #82C6AC",
"^ 	c #77C2A5",
"/ 	c #76C2A4",
"( 	c #73C1A3",
"_ 	c #7DC4A9",
": 	c #86C7AE",
"< 	c #85C7AE",
"[ 	c #7BC4A7",
"} 	c #6FC09F",
"| 	c #62BB96",
"1 	c #5DB992",
"2 	c #5FBA94",
"3 	c #66BC99",
"4 	c #87C7AF",
"5 	c #8EC9B3",
"6 	c #88C8AF",
"7 	c #6EBF9E",
"8 	c #6BBE9D",
"9 	c #69BE9B",
"0 	c #6ABE9C",
"a 	c #6DBF9E",
"b 	c #88C8B0",
"c 	c #8DC9B3",
"d 	c #74C2A4",
"e 	c #8DC9B2",
"f 	c #8CC9B2",
"g 	c #7EC5AA",
"h 	c #5DB993",
"i 	c #53B78D",
"j 	c #58B890",
"k 	c #65BC97",
"l 	c #6DBF9D",
"m 	c #6CBF9D",
"n 	c #69BE9C",
"o 	c #83C6AC",
"p 	c #83C6AD",
"q 	c #62BA95",
"r 	c #5AB790",
"s 	c #5DB891",
"t 	c #67BC98",
"u 	c #84C6AD",
"v 	c #7EC5A9",
"w 	c #87C8AF",
"x 	c #7CC4A8",
"y 	c #6ABD9A",
"z 	c #61BA94",
"A 	c #5BB790",
"B 	c #66BC98",
"C 	c #756C61",
"D 	c #74675F",
"E 	c #75685F",
"F 	c #756A60",
"G 	c #75695F",
"H 	c #776A60",
"I 	c #766A60",
"J 	c #75685D",
"K 	c #74665C",
"L 	c #76695F",
"M 	c #766A5F",
"N 	c #766A61",
"O 	c #75685E",
"P 	c #74675D",
"Q 	c #76685E",
"R 	c #65BC98",
"S 	c #53B48B",
"T 	c #45AF81",
"U 	c #45AF82",
"V 	c #71C0A1",
"W 	c #662B2A",
"X 	c #67292B",
"Y 	c #682927",
"Z 	c #682826",
"` 	c #692827",
" .	c #692928",
"..	c #692927",
"+.	c #692826",
"@.	c #692829",
"#.	c #692929",
"$.	c #682928",
"%.	c #682828",
"&.	c #662828",
"*.	c #65BB98",
"=.	c #51B38A",
"-.	c #42AE80",
";.	c #69BD9B",
">.	c #672924",
",.	c #682728",
"'.	c #672629",
").	c #682625",
"!.	c #682524",
"~.	c #692427",
"{.	c #682724",
"].	c #672824",
"^.	c #672724",
"/.	c #682723",
"(.	c #682623",
"_.	c #672623",
":.	c #682624",
"<.	c #672725",
"[.	c #682725",
"}.	c #6B2623",
"|.	c #6A2624",
"1.	c #682626",
"2.	c #672627",
"3.	c #662826",
"4.	c #69BD9A",
"5.	c #5EB892",
"6.	c #55B58C",
"7.	c #716C5F",
"8.	c #75655C",
"9.	c #865C52",
"0.	c #AD383C",
"a.	c #AB3538",
"b.	c #B23932",
"c.	c #D85F4A",
"d.	c #DC6046",
"e.	c #DE5F48",
"f.	c #DD6147",
"g.	c #DC6146",
"h.	c #DD6047",
"i.	c #DD5F47",
"j.	c #DB6047",
"k.	c #DB5F47",
"l.	c #D85E4D",
"m.	c #B23A34",
"n.	c #AC3739",
"o.	c #A9373C",
"p.	c #875C54",
"q.	c #74665D",
"r.	c #71C1A2",
"s.	c #67BC99",
"t.	c #653734",
"u.	c #69282A",
"v.	c #802C2C",
"w.	c #BE383B",
"x.	c #C1373C",
"y.	c #C53A35",
"z.	c #F1664D",
"A.	c #F76A45",
"B.	c #F96945",
"C.	c #F96948",
"D.	c #F86948",
"E.	c #F86848",
"F.	c #F96848",
"G.	c #F96849",
"H.	c #F76749",
"I.	c #F86946",
"J.	c #F4674C",
"K.	c #C53B31",
"L.	c #BE373B",
"M.	c #BF393E",
"N.	c #802B2C",
"O.	c #662928",
"P.	c #682829",
"Q.	c #73C1A2",
"R.	c #7AC3A7",
"S.	c #643731",
"T.	c #68272B",
"U.	c #7F2B2F",
"V.	c #C13836",
"W.	c #C13635",
"X.	c #C63A33",
"Y.	c #F4694F",
"Z.	c #F76A46",
"`.	c #F96946",
" +	c #F86949",
".+	c #F86947",
"++	c #F76848",
"@+	c #F4674F",
"#+	c #C53B30",
"$+	c #BF3738",
"%+	c #C03836",
"&+	c #7E2C2E",
"*+	c #672A29",
"=+	c #662A27",
"-+	c #8AC8B1",
";+	c #633732",
">+	c #68272A",
",+	c #8D3A33",
"'+	c #EA614D",
")+	c #EA6048",
"!+	c #EA6045",
"~+	c #F66A48",
"{+	c #F86A46",
"]+	c #FA6848",
"^+	c #F8684A",
"/+	c #EE6047",
"(+	c #EB604A",
"_+	c #EA5F4E",
":+	c #8B3833",
"<+	c #652928",
"[+	c #86C6AD",
"}+	c #8EC9B1",
"|+	c #7BC4A8",
"1+	c #623732",
"2+	c #672728",
"3+	c #913D30",
"4+	c #F6694B",
"5+	c #F96A46",
"6+	c #F66747",
"7+	c #F96949",
"8+	c #F6684C",
"9+	c #913C31",
"0+	c #672928",
"a+	c #66292A",
"b+	c #7FC4A9",
"c+	c #84C6AC",
"d+	c #80C5AB",
"e+	c #7DC4A8",
"f+	c #8BC9B1",
"g+	c #643530",
"h+	c #692626",
"i+	c #943B2F",
"j+	c #FB6945",
"k+	c #F66A47",
"l+	c #F76947",
"m+	c #943C2C",
"n+	c #692727",
"o+	c #796C60",
"p+	c #7C6C63",
"q+	c #886158",
"r+	c #AC383A",
"s+	c #AB3837",
"t+	c #C3433A",
"u+	c #F8684B",
"v+	c #F9684A",
"w+	c #F8694A",
"x+	c #F76A47",
"y+	c #C04339",
"z+	c #AC3639",
"A+	c #AB3738",
"B+	c #896058",
"C+	c #7D6B61",
"D+	c #786D63",
"E+	c #6FBF9E",
"F+	c #642E29",
"G+	c #672829",
"H+	c #802D2C",
"I+	c #C0393B",
"J+	c #C13939",
"K+	c #CF4439",
"L+	c #FA6A47",
"M+	c #F86A44",
"N+	c #F96947",
"O+	c #FB6748",
"P+	c #CD433B",
"Q+	c #C03839",
"R+	c #BD3B3A",
"S+	c #7E2C2C",
"T+	c #632A2A",
"U+	c #6EBF9F",
"V+	c #6CBD9B",
"W+	c #612E2C",
"X+	c #65282E",
"Y+	c #7F2D2C",
"Z+	c #BF3A37",
"`+	c #C03A36",
" @	c #CF453B",
".@	c #FA694E",
"+@	c #F8674D",
"@@	c #F96A45",
"#@	c #F9674F",
"$@	c #CB433D",
"%@	c #C03935",
"&@	c #BE3837",
"*@	c #802C30",
"=@	c #672929",
"-@	c #632B2D",
";@	c #68BD9B",
">@	c #70BE9E",
",@	c #6FBB9C",
"'@	c #6DBC9B",
")@	c #62BA94",
"!@	c #271814",
"~@	c #280F13",
"{@	c #591D1D",
"]@	c #BD3939",
"^@	c #BF3938",
"/@	c #C23B3C",
"(@	c #CD483B",
"_@	c #CF473E",
":@	c #D34739",
"<@	c #F4674A",
"[@	c #F86747",
"}@	c #F5664B",
"|@	c #D34836",
"1@	c #CE463B",
"2@	c #D0463C",
"3@	c #C13D3C",
"4@	c #BE3A34",
"5@	c #BC3939",
"6@	c #5B1E21",
"7@	c #2B1010",
"8@	c #291010",
"9@	c #6ABB99",
"0@	c #66BA96",
"a@	c #63B793",
"b@	c #66B391",
"c@	c #6FB18F",
"d@	c #73AB8B",
"e@	c #71B092",
"f@	c #6EB999",
"g@	c #57B88F",
"h@	c #020C06",
"i@	c #000003",
"j@	c #4D1819",
"k@	c #BC393A",
"l@	c #BF3739",
"m@	c #BF373B",
"n@	c #BF3939",
"o@	c #C33B34",
"p@	c #F4674E",
"q@	c #F86A45",
"r@	c #F96847",
"s@	c #FA6748",
"t@	c #F76849",
"u@	c #F76847",
"v@	c #F86746",
"w@	c #F86A48",
"x@	c #F76846",
"y@	c #F66748",
"z@	c #F66745",
"A@	c #F56746",
"B@	c #F76648",
"C@	c #F4664D",
"D@	c #C73C33",
"E@	c #BF383C",
"F@	c #BF393A",
"G@	c #BF3A3A",
"H@	c #C03A39",
"I@	c #BD3A3A",
"J@	c #4E191B",
"K@	c #010000",
"L@	c #000000",
"M@	c #72AD8C",
"N@	c #69AA84",
"O@	c #6BA682",
"P@	c #739E7E",
"Q@	c #789473",
"R@	c #768869",
"S@	c #719E81",
"T@	c #6EB597",
"U@	c #66BC97",
"V@	c #59B68D",
"W@	c #020B05",
"X@	c #000002",
"Y@	c #4E1818",
"Z@	c #BD383A",
"`@	c #C0383A",
" #	c #C0393A",
".#	c #C43C35",
"+#	c #F46751",
"@#	c #F86849",
"##	c #F56952",
"$#	c #F3694D",
"%#	c #F4694C",
"&#	c #F36A4C",
"*#	c #F36B4D",
"=#	c #F36A4D",
"-#	c #F86748",
";#	c #F96747",
">#	c #F86847",
",#	c #F7674C",
"'#	c #F3664F",
")#	c #C53C34",
"!#	c #BF383B",
"~#	c #BF3A3B",
"{#	c #BD3B39",
"]#	c #8F9067",
"^#	c #8E8F66",
"/#	c #918F64",
"(#	c #928B61",
"_#	c #8A815C",
":#	c #797759",
"<#	c #6E8D72",
"[#	c #6EAD90",
"}#	c #6DC09E",
"|#	c #6CB895",
"1#	c #70A683",
"2#	c #000102",
"3#	c #C0383B",
"4#	c #C2393A",
"5#	c #CE453D",
"6#	c #CF4639",
"7#	c #CC463B",
"8#	c #CE453B",
"9#	c #C7504A",
"0#	c #F2C8C7",
"a#	c #EFCED4",
"b#	c #EFCED5",
"c#	c #EECED5",
"d#	c #EECFD4",
"e#	c #F3C6C9",
"f#	c #CC4E49",
"g#	c #CD443D",
"h#	c #CE463F",
"i#	c #CD473E",
"j#	c #D14739",
"k#	c #D04639",
"l#	c #C13936",
"m#	c #C03938",
"n#	c #BC3A39",
"o#	c #C7BA73",
"p#	c #C8BB74",
"q#	c #C7B972",
"r#	c #BCAE6D",
"s#	c #918A5F",
"t#	c #74856C",
"u#	c #6CA488",
"v#	c #70BF9F",
"w#	c #74BC9C",
"x#	c #74BFA1",
"y#	c #76B797",
"z#	c #7AA381",
"A#	c #788D6E",
"B#	c #C1383B",
"C#	c #C0383C",
"D#	c #BE383A",
"E#	c #BD383B",
"F#	c #BC3839",
"G#	c #BF3836",
"H#	c #B8454D",
"I#	c #EBE1EE",
"J#	c #E9E9FC",
"K#	c #E9E9FA",
"L#	c #E8E9FA",
"M#	c #E7EAFA",
"N#	c #EDE1ED",
"O#	c #B8464D",
"P#	c #C2383A",
"Q#	c #C0393F",
"R#	c #C03A3D",
"S#	c #C13A36",
"T#	c #BF383A",
"U#	c #BE3838",
"V#	c #E0D381",
"W#	c #E1D482",
"X#	c #E1D481",
"Y#	c #D6C97C",
"Z#	c #9C9767",
"`#	c #747F66",
" $	c #6B9E84",
".$	c #6BBE9B",
"+$	c #71BE9E",
"@$	c #7AB799",
"#$	c #7EC1A5",
"$$	c #7DAE92",
"%$	c #768366",
"&$	c #666850",
"*$	c #020A03",
"=$	c #010101",
"-$	c #4E181A",
";$	c #BC383E",
">$	c #BF3837",
",$	c #BD393F",
"'$	c #BF383D",
")$	c #BE3935",
"!$	c #BD373F",
"~$	c #BE373A",
"{$	c #B4464E",
"]$	c #F0E1E9",
"^$	c #EBE9F8",
"/$	c #EBEAF6",
"($	c #EAEAF6",
"_$	c #EAE9F6",
":$	c #F0E1EA",
"<$	c #B6464C",
"[$	c #BF3A3C",
"}$	c #C13A38",
"|$	c #BF3A3D",
"1$	c #BF3B3A",
"2$	c #BD3742",
"3$	c #BD373E",
"4$	c #BB373D",
"5$	c #BD393A",
"6$	c #BA3A3D",
"7$	c #4D1919",
"8$	c #010100",
"9$	c #E1D37E",
"0$	c #DFD17E",
"a$	c #D9CD7E",
"b$	c #D5CA7E",
"c$	c #CBC17A",
"d$	c #949367",
"e$	c #70896E",
"f$	c #6BA68B",
"g$	c #6DBF9F",
"h$	c #84BEA5",
"i$	c #74A18E",
"j$	c #506455",
"k$	c #323530",
"l$	c #8C6647",
"m$	c #8C6946",
"n$	c #885C3C",
"o$	c #822B2F",
"p$	c #822C2B",
"q$	c #8E5155",
"r$	c #B69BAE",
"s$	c #B79CB2",
"t$	c #BF93A9",
"u$	c #B84145",
"v$	c #BA3E44",
"w$	c #BD95AB",
"x$	c #B49AB1",
"y$	c #B896A8",
"z$	c #C6797E",
"A$	c #C97982",
"B$	c #CA7981",
"C$	c #C97980",
"D$	c #CA7880",
"E$	c #C57981",
"F$	c #BB95A9",
"G$	c #B799B2",
"H$	c #BA96A5",
"I$	c #B93F48",
"J$	c #BE3938",
"K$	c #B93E42",
"L$	c #C094AA",
"M$	c #B69CB2",
"N$	c #B79CAD",
"O$	c #8C5152",
"P$	c #822D2B",
"Q$	c #7F2C2E",
"R$	c #895B43",
"S$	c #8E6746",
"T$	c #8D6745",
"U$	c #D9C36B",
"V$	c #CDB968",
"W$	c #B3A668",
"X$	c #9F9868",
"Y$	c #9A9568",
"Z$	c #7E8564",
"`$	c #6FA385",
" %	c #6DBA9A",
".%	c #68BD99",
"+%	c #63BB96",
"@%	c #64BB97",
"#%	c #6ABD9B",
"$%	c #6FBC9B",
"%%	c #78B395",
"&%	c #729982",
"*%	c #000101",
"=%	c #483521",
"-%	c #A97846",
";%	c #A77A3D",
">%	c #9D6A41",
",%	c #682827",
"'%	c #6A2728",
")%	c #7D5663",
"!%	c #B1B1D0",
"~%	c #B1B0D4",
"{%	c #B9AAC5",
"]%	c #B8424A",
"^%	c #BB4048",
"/%	c #B9ABC4",
"(%	c #AFAFD2",
"_%	c #B8A8C5",
":%	c #B73F4B",
"<%	c #BD3937",
"[%	c #BF3838",
"}%	c #B7424B",
"|%	c #B8A9C5",
"1%	c #AFAFD5",
"2%	c #B8ACC4",
"3%	c #BA3E48",
"4%	c #BF3936",
"5%	c #B74249",
"6%	c #B9ABC6",
"7%	c #B1B0D1",
"8%	c #7D5765",
"9%	c #672729",
"0%	c #9B6A45",
"a%	c #A57A41",
"b%	c #A57849",
"c%	c #453523",
"d%	c #010203",
"e%	c #606152",
"f%	c #64715E",
"g%	c #69927B",
"h%	c #6DB294",
"i%	c #4EB288",
"j%	c #51B389",
"k%	c #60BA94",
"l%	c #6BBF9D",
"m%	c #70BB9A",
"n%	c #71AC8C",
"o%	c #6E957C",
"p%	c #596D5D",
"q%	c #473424",
"r%	c #A77849",
"s%	c #A8783E",
"t%	c #9C6A46",
"u%	c #67282B",
"v%	c #7B5863",
"w%	c #AFB2CE",
"x%	c #B0B2D3",
"y%	c #B8AAC4",
"z%	c #B4434B",
"A%	c #BC3A3F",
"B%	c #B7414B",
"C%	c #B6ACC4",
"D%	c #ACB0D1",
"E%	c #B8A8C3",
"F%	c #B34349",
"G%	c #BB3A39",
"H%	c #BC3A3A",
"I%	c #BD3A3B",
"J%	c #BE3A3B",
"K%	c #B5434C",
"L%	c #B9A9C1",
"M%	c #ADAFD3",
"N%	c #B5ADC6",
"O%	c #B73F4D",
"P%	c #BB383B",
"Q%	c #B4414C",
"R%	c #B6AAC6",
"S%	c #AEB2D3",
"T%	c #B0B1D3",
"U%	c #9D6A43",
"V%	c #A87743",
"W%	c #A7774A",
"X%	c #463522",
"Y%	c #010102",
"Z%	c #4D5F58",
"`%	c #5E8B78",
" &	c #6DAC93",
".&	c #70BC9E",
"+&	c #54B48B",
"@&	c #40AD7F",
"#&	c #44AF81",
"$&	c #6FB897",
"%&	c #6BA081",
"&&	c #536957",
"*&	c #393D37",
"=&	c #000001",
"-&	c #563E31",
";&	c #CA8C6C",
">&	c #CD8D67",
",&	c #B27A5E",
"'&	c #2C1110",
")&	c #2C1112",
"!&	c #3C3040",
"~&	c #60638E",
"{&	c #626293",
"]&	c #6C648F",
"^&	c #DFC5D4",
"/&	c #E3C9D4",
"(&	c #E3CAD5",
"_&	c #DDDAF0",
":&	c #DADCEF",
"<&	c #DFDAED",
"[&	c #E3C9D5",
"}&	c #E6C8D7",
"|&	c #E4C8D5",
"1&	c #E5C7D5",
"2&	c #E3C9D6",
"3&	c #E2D9EF",
"4&	c #DBDFF1",
"5&	c #DEDCEE",
"6&	c #E3C8D4",
"7&	c #E6C8D3",
"8&	c #DEC5D4",
"9&	c #6D6693",
"0&	c #646393",
"a&	c #626393",
"b&	c #3B303F",
"c&	c #291211",
"d&	c #29100F",
"e&	c #B07A5C",
"f&	c #CF8B66",
"g&	c #CA8C6B",
"h&	c #553D31",
"i&	c #010105",
"j&	c #667763",
"k&	c #6BA68C",
"l&	c #72B89C",
"m&	c #73BEA0",
"n&	c #68BD9A",
"o&	c #59B68F",
"p&	c #4AB185",
"q&	c #4DB287",
"r&	c #5FB993",
"s&	c #6BB493",
"t&	c #619176",
"u&	c #2C3F33",
"v&	c #0A0205",
"w&	c #020000",
"x&	c #5B3F35",
"y&	c #D59172",
"z&	c #D8926D",
"A&	c #B97F6C",
"B&	c #000100",
"C&	c #141631",
"D&	c #383975",
"E&	c #39377A",
"F&	c #45457B",
"G&	c #E3E5F5",
"H&	c #E6EAF9",
"I&	c #E6E9F9",
"J&	c #E6E9F7",
"K&	c #E7EAF8",
"L&	c #E7E9F9",
"M&	c #E8E9F8",
"N&	c #E9E9F8",
"O&	c #EAE8F9",
"P&	c #EAE8F8",
"Q&	c #EAE8FA",
"R&	c #E5E4F6",
"S&	c #444480",
"T&	c #383977",
"U&	c #38377B",
"V&	c #141730",
"W&	c #010103",
"X&	c #B77F65",
"Y&	c #DA906E",
"Z&	c #5B3E35",
"`&	c #010004",
" *	c #778064",
".*	c #71A689",
"+*	c #71B193",
"@*	c #74BA9D",
"#*	c #72BE9F",
"$*	c #6EBE9D",
"%*	c #60B994",
"&*	c #61BA95",
"**	c #6BBF9C",
"=*	c #6CA787",
"-*	c #626751",
";*	c #2B2A1F",
">*	c #020101",
",*	c #5C4036",
"'*	c #D59077",
")*	c #D88F72",
"!*	c #BA7D6D",
"~*	c #17162F",
"{*	c #3C396E",
"]*	c #3C3876",
"^*	c #464577",
"/*	c #E3E4F9",
"(*	c #E6EAFB",
"_*	c #E5EAF8",
":*	c #E6EAF8",
"<*	c #E6EBF9",
"[*	c #E7EAF9",
"}*	c #E8EAF9",
"|*	c #E9E9F9",
"1*	c #E8E9F6",
"2*	c #E3E4F8",
"3*	c #474477",
"4*	c #393A78",
"5*	c #393977",
"6*	c #161730",
"7*	c #030002",
"8*	c #B67F68",
"9*	c #D99172",
"0*	c #D59276",
"a*	c #5C3F35",
"b*	c #6F7056",
"c*	c #768C6E",
"d*	c #78A484",
"e*	c #73B898",
"f*	c #72BFA1",
"g*	c #74BEA1",
"h*	c #6CBF9E",
"i*	c #67A385",
"j*	c #555645",
"k*	c #211F17",
"l*	c #63473E",
"m*	c #65473D",
"n*	c #61423D",
"o*	c #653939",
"p*	c #673837",
"q*	c #7F4C47",
"r*	c #B87F75",
"s*	c #BA7F74",
"t*	c #B07D81",
"u*	c #827D9A",
"v*	c #7B7BA5",
"w*	c #7B7CA4",
"x*	c #7B7DA4",
"y*	c #7C7CA4",
"z*	c #7D7CA4",
"A*	c #7F7DA5",
"B*	c #817D9C",
"C*	c #B08085",
"D*	c #BD8174",
"E*	c #BD8079",
"F*	c #7C4D48",
"G*	c #653838",
"H*	c #623739",
"I*	c #5D423A",
"J*	c #64443B",
"K*	c #62443C",
"L*	c #030303",
"M*	c #0F0F0F",
"N*	c #36352F",
"O*	c #5A5747",
"P*	c #727E62",
"Q*	c #74AD8E",
"R*	c #75BFA0",
"S*	c #76C1A4",
"T*	c #6DBD9C",
"U*	c #629D82",
"V*	c #41473A",
"W*	c #161510",
"X*	c #020204",
"Y*	c #311B1A",
"Z*	c #784244",
"`*	c #794048",
" =	c #96574E",
".=	c #D68F71",
"+=	c #D78F6C",
"@=	c #CB8C7E",
"#=	c #483B6D",
"$=	c #38357E",
"%=	c #373877",
"&=	c #383879",
"*=	c #38387A",
"==	c #383779",
"-=	c #463D6C",
";=	c #CB8D7F",
">=	c #DA9073",
",=	c #D7916F",
"'=	c #915849",
")=	c #7A4141",
"!=	c #784241",
"~=	c #301B1C",
"{=	c #010107",
"]=	c #020202",
"^=	c #080807",
"/=	c #17191B",
"(=	c #3F3A2F",
"_=	c #646A52",
":=	c #74A586",
"<=	c #7FBFA3",
"[=	c #84C7AD",
"}=	c #70BA99",
"|=	c #62967C",
"1=	c #373D30",
"2=	c #11100B",
"3=	c #010604",
"4=	c #010104",
"5=	c #331E15",
"6=	c #77433C",
"7=	c #794140",
"8=	c #965949",
"9=	c #D69072",
"0=	c #D78E6C",
"a=	c #CD8C7C",
"b=	c #483B69",
"c=	c #35377B",
"d=	c #373876",
"e=	c #373979",
"f=	c #393878",
"g=	c #38387B",
"h=	c #3B3677",
"i=	c #383679",
"j=	c #393778",
"k=	c #3A3778",
"l=	c #393877",
"m=	c #36387B",
"n=	c #393876",
"o=	c #383976",
"p=	c #473C6A",
"q=	c #CC8C81",
"r=	c #D9926B",
"s=	c #D89172",
"t=	c #92594E",
"u=	c #794142",
"v=	c #76433B",
"w=	c #311C1B",
"x=	c #020002",
"y=	c #281F13",
"z=	c #535B47",
"A=	c #74A487",
"B=	c #87C1A8",
"C=	c #8DCAB3",
"D=	c #7AC4A7",
"E=	c #75C2A3",
"F=	c #74B898",
"G=	c #659277",
"H=	c #3C3F31",
"I=	c #13120C",
"J=	c #4D342B",
"K=	c #B07465",
"L=	c #B17362",
"M=	c #BC7A63",
"N=	c #D78F73",
"O=	c #D98F71",
"P=	c #D48F78",
"Q=	c #BC918D",
"R=	c #BA9390",
"S=	c #B28F86",
"T=	c #2E294C",
"U=	c #232349",
"V=	c #29274A",
"W=	c #B1918D",
"X=	c #B8958D",
"Y=	c #BB948B",
"Z=	c #BB958B",
"`=	c #BC958C",
" -	c #B3938B",
".-	c #29284B",
"+-	c #232348",
"@-	c #2C294A",
"#-	c #AD8F8A",
"$-	c #B9948D",
"%-	c #BA928B",
"&-	c #D6926E",
"*-	c #D88F74",
"=-	c #BB7964",
"--	c #B37263",
";-	c #B17460",
">-	c #4C332E",
",-	c #231A10",
"'-	c #4D5D4B",
")-	c #72B196",
"!-	c #89C8B0",
"~-	c #73BD9E",
"{-	c #60987E",
"]-	c #363D30",
"^-	c #10100B",
"/-	c #000300",
"(-	c #5C3F37",
"_-	c #D79075",
":-	c #D99070",
"<-	c #D98E72",
"[-	c #DA9074",
"}-	c #D99471",
"|-	c #F7BF96",
"1-	c #F9C093",
"2-	c #EBB98F",
"3-	c #241914",
"4-	c #000106",
"5-	c #1D1109",
"6-	c #F0BC95",
"7-	c #F8C191",
"8-	c #F7C190",
"9-	c #EDBD93",
"0-	c #1F1309",
"a-	c #241A14",
"b-	c #EEBA94",
"c-	c #F5C18E",
"d-	c #F7BE94",
"e-	c #D9926D",
"f-	c #D6906F",
"g-	c #D98F6F",
"h-	c #D9906F",
"i-	c #D79171",
"j-	c #5C4137",
"k-	c #17402E",
"l-	c #2C2216",
"m-	c #575E48",
"n-	c #71A486",
"o-	c #7ABEA0",
"p-	c #72C0A1",
"q-	c #5F9E81",
"r-	c #3D4436",
"s-	c #14140E",
"t-	c #2B5845",
"u-	c #010802",
"v-	c #020303",
"w-	c #5E4138",
"x-	c #D89076",
"y-	c #D89072",
"z-	c #D99073",
"A-	c #D78E71",
"B-	c #D8946E",
"C-	c #F7BF8C",
"D-	c #F8C091",
"E-	c #EDB891",
"F-	c #251A14",
"G-	c #010003",
"H-	c #1F1209",
"I-	c #EFBC93",
"J-	c #F9C190",
"K-	c #F9C191",
"L-	c #F9C090",
"M-	c #F8C090",
"N-	c #EEBD94",
"O-	c #20130B",
"P-	c #020105",
"Q-	c #251A13",
"R-	c #EBB891",
"S-	c #F9C192",
"T-	c #F7BC91",
"U-	c #D99473",
"V-	c #D9906C",
"W-	c #DA8F70",
"X-	c #D78E70",
"Y-	c #5D4238",
"Z-	c #010002",
"`-	c #020201",
" ;	c #3C3221",
".;	c #6B684C",
"+;	c #779877",
"@;	c #75B697",
"#;	c #7AC2A6",
"$;	c #73BA9A",
"%;	c #689A7B",
"&;	c #52513D",
"*;	c #1E1B12",
"=;	c #A86D5B",
"-;	c #AA6B5A",
";;	c #B5735E",
">;	c #D79274",
",;	c #D99171",
"';	c #DB9172",
");	c #E8A77F",
"!;	c #E9A782",
"~;	c #E0A37E",
"{;	c #5A372F",
"];	c #513030",
"^;	c #593630",
"/;	c #F2BC96",
"(;	c #F8C192",
"_;	c #F1BD96",
":;	c #59362E",
"<;	c #50302E",
"[;	c #5A372D",
"};	c #DEA381",
"|;	c #E8A77E",
"1;	c #E6A67D",
"2;	c #D89173",
"3;	c #D89070",
"4;	c #B4735D",
"5;	c #A86D5C",
"6;	c #A86D59",
"7;	c #BA9D45",
"8;	c #846E30",
"9;	c #1C1609",
"0;	c #3A301F",
"a;	c #68674C",
"b;	c #739B7C",
"c;	c #71B797",
"d;	c #7EC4A9",
"e;	c #75BFA1",
"f;	c #73B696",
"g;	c #6D9778",
"h;	c #5A5842",
"i;	c #221F15",
"j;	c #75423E",
"k;	c #774142",
"l;	c #935750",
"m;	c #D79271",
"n;	c #D98F72",
"o;	c #DB8F73",
"p;	c #D38C75",
"q;	c #7D453F",
"r;	c #7A4043",
"s;	c #814740",
"t;	c #F3BD95",
"u;	c #F9C092",
"v;	c #F4BC96",
"w;	c #7F493D",
"x;	c #764143",
"y;	c #7D453E",
"z;	c #D28E73",
"A;	c #D98F73",
"B;	c #D79072",
"C;	c #D8916F",
"D;	c #D79270",
"E;	c #91594D",
"F;	c #7B4141",
"G;	c #78423E",
"H;	c #B59844",
"I;	c #7B672D",
"J;	c #191408",
"K;	c #2A2014",
"L;	c #525B46",
"M;	c #6BA184",
"N;	c #70BA9A",
"O;	c #6FBE9C",
"P;	c #64A082",
"Q;	c #4A5545",
"R;	c #1A1D16",
"S;	c #774042",
"T;	c #784043",
"U;	c #D79373",
"V;	c #DA9072",
"W;	c #D99072",
"X;	c #D8916D",
"Y;	c #D7926D",
"Z;	c #D28F6E",
"`;	c #7C453E",
" >	c #79413F",
".>	c #7F483B",
"+>	c #F2BD96",
"@>	c #F8C193",
"#>	c #F5BC95",
"$>	c #764141",
"%>	c #7F453D",
"&>	c #D38E75",
"*>	c #D9906E",
"=>	c #D7926E",
"->	c #905950",
";>	c #794240",
">>	c #784342",
",>	c #AB9040",
"'>	c #695827",
")>	c #130F05",
"!>	c #1E1811",
"~>	c #465240",
"{>	c #6C9A7B",
"]>	c #71B897",
"^>	c #74B594",
"/>	c #749676",
"(>	c #645E45",
"_>	c #262217",
":>	c #583D5E",
"<>	c #583C61",
"[>	c #664558",
"}>	c #875F4E",
"|>	c #8A5E4E",
"1>	c #8A5D50",
"2>	c #A76D5D",
"3>	c #A96C59",
"4>	c #B17563",
"5>	c #B27561",
"6>	c #B5765E",
"7>	c #E4A682",
"8>	c #E7A781",
"9>	c #E7A880",
"0>	c #E8A880",
"a>	c #E6A583",
"b>	c #B57560",
"c>	c #B27564",
"d>	c #B17365",
"e>	c #A96B5A",
"f>	c #AC6C5A",
"g>	c #A46D5C",
"h>	c #895F4E",
"i>	c #885F51",
"j>	c #895F4F",
"k>	c #634459",
"l>	c #593E60",
"m>	c #573E60",
"n>	c #BEA048",
"o>	c #897333",
"p>	c #191407",
"q>	c #17110C",
"r>	c #3F4E3D",
"s>	c #6C9C7C",
"t>	c #72B998",
"u>	c #78AA8A",
"v>	c #7F8867",
"w>	c #736346",
"x>	c #2D2518",
"y>	c #171632",
"z>	c #393978",
"A>	c #37387D",
"B>	c #313163",
"C>	c #020109",
"D>	c #030102",
"E>	c #0F0504",
"F>	c #714144",
"G>	c #7A4341",
"H>	c #804641",
"I>	c #D48F73",
"J>	c #DA9071",
"K>	c #DB9071",
"L>	c #DA8F73",
"M>	c #DA8F71",
"N>	c #DA9070",
"O>	c #D48E78",
"P>	c #7D443C",
"Q>	c #78403F",
"R>	c #724343",
"S>	c #0F0402",
"T>	c #010001",
"U>	c #313067",
"V>	c #3A377E",
"W>	c #37397A",
"X>	c #14162F",
"Y>	c #010200",
"Z>	c #0C0504",
"`>	c #354D3D",
" ,	c #70BC9B",
".,	c #7BA282",
"+,	c #837D5B",
"@,	c #766446",
"#,	c #2F2619",
"$,	c #171732",
"%,	c #38387C",
"&,	c #38387F",
"*,	c #313160",
"=,	c #01020B",
"-,	c #0F040A",
";,	c #75413F",
">,	c #7A4044",
",,	c #814541",
"',	c #D58F74",
"),	c #D89073",
"!,	c #D99074",
"~,	c #D89174",
"{,	c #D99173",
"],	c #D68F75",
"^,	c #804540",
"/,	c #7A4041",
"(,	c #74413E",
"_,	c #0E0408",
":,	c #010108",
"<,	c #323166",
"[,	c #393979",
"},	c #181633",
"|,	c #0C0805",
"1,	c #354E3E",
"2,	c #67A284",
"3,	c #70BB9B",
"4,	c #7AA484",
"5,	c #81805F",
"6,	c #746346",
"7,	c #2E2519",
"8,	c #AF8E75",
"9,	c #B28F78",
"0,	c #997E77",
"a,	c #36346C",
"b,	c #29274E",
"c,	c #29284E",
"d,	c #352747",
"e,	c #983F44",
"f,	c #A03C3E",
"g,	c #9C3E3C",
"h,	c #8A5E4F",
"i,	c #8A604F",
"j,	c #89604F",
"k,	c #895F52",
"l,	c #896053",
"m,	c #895D4F",
"n,	c #9D3E3E",
"o,	c #A23C3F",
"p,	c #983E46",
"q,	c #372645",
"r,	c #26294D",
"s,	c #272750",
"t,	c #34366E",
"u,	c #373977",
"v,	c #987F75",
"w,	c #B18E75",
"x,	c #B18D7C",
"y,	c #918F7E",
"z,	c #211B12",
"A,	c #495642",
"B,	c #6C9E7E",
"C,	c #70B897",
"D,	c #70B596",
"E,	c #78987A",
"F,	c #766648",
"G,	c #2F2618",
"H,	c #774043",
"I,	c #794141",
"J,	c #9D6A58",
"K,	c #FAC193",
"L,	c #F9C091",
"M,	c #D9AB95",
"N,	c #383771",
"O,	c #37377C",
"P,	c #3B387A",
"Q,	c #3A387C",
"R,	c #4A366A",
"S,	c #B53A46",
"T,	c #C13839",
"U,	c #B43739",
"V,	c #1A0305",
"W,	c #000103",
"X,	c #000006",
"Y,	c #1B0505",
"Z,	c #B4373D",
"`,	c #B43B46",
" '	c #4D366E",
".'	c #36397D",
"+'	c #383A78",
"@'	c #373878",
"#'	c #363776",
"$'	c #D8AD92",
"%'	c #F9C18F",
"&'	c #F8BF9D",
"*'	c #9E6A5A",
"='	c #79403E",
"-'	c #783F45",
";'	c #372A1A",
">'	c #62674D",
",'	c #6AAC89",
"''	c #6ABB97",
")'	c #6ABD99",
"!'	c #6EBB9C",
"~'	c #76A082",
"{'	c #746549",
"]'	c #2E2518",
"^'	c #774141",
"/'	c #79423F",
"('	c #FBC195",
"_'	c #FAC092",
":'	c #DAAA98",
"<'	c #383673",
"['	c #363876",
"}'	c #373976",
"|'	c #38397B",
"1'	c #39387D",
"2'	c #4A356C",
"3'	c #B33B45",
"4'	c #B33839",
"5'	c #1A0404",
"6'	c #000004",
"7'	c #1B0404",
"8'	c #B63739",
"9'	c #C1393A",
"0'	c #B53C45",
"a'	c #4A3772",
"b'	c #383A76",
"c'	c #39387A",
"d'	c #3A3779",
"e'	c #393776",
"f'	c #D9AD93",
"g'	c #9F6A5A",
"h'	c #774045",
"i'	c #2D261A",
"j'	c #576049",
"k'	c #6CA180",
"l'	c #64B58F",
"m'	c #5BB991",
"n'	c #6FBC9D",
"o'	c #75A184",
"p'	c #726449",
"q'	c #2D2418",
"r'	c #774241",
"s'	c #79423E",
"t'	c #986151",
"u'	c #E9A784",
"v'	c #E7A883",
"w'	c #D49D84",
"x'	c #9F7273",
"y'	c #9F7373",
"z'	c #8C697A",
"A'	c #393775",
"B'	c #4B366A",
"C'	c #B23B42",
"D'	c #BA373A",
"E'	c #872A2E",
"F'	c #862A2C",
"G'	c #822E35",
"H'	c #857D8E",
"I'	c #7F8194",
"J'	c #808094",
"K'	c #808195",
"L'	c #7F8295",
"M'	c #867D8C",
"N'	c #823031",
"O'	c #882A2B",
"P'	c #892A28",
"Q'	c #B83A38",
"R'	c #B43B40",
"S'	c #4B3770",
"T'	c #39387C",
"U'	c #3B3876",
"V'	c #8E6A78",
"W'	c #9F726F",
"X'	c #A07275",
"Y'	c #D79E84",
"Z'	c #E7A981",
"`'	c #E7A789",
" )	c #966053",
".)	c #764240",
"+)	c #764144",
"@)	c #1E1C15",
"#)	c #475543",
"$)	c #6D9A7A",
"%)	c #62B28B",
"&)	c #59B890",
"*)	c #68BC98",
"=)	c #6EBD9E",
"-)	c #75A284",
";)	c #736549",
">)	c #2F261A",
",)	c #784142",
"')	c #945A4A",
"))	c #D79070",
"!)	c #D88F6D",
"~)	c #D79170",
"{)	c #D9926C",
"])	c #BB817C",
"^)	c #3A3679",
"/)	c #4B3570",
"()	c #B23A42",
"_)	c #BF3737",
":)	c #C0373B",
"<)	c #BF393B",
"[)	c #B9414A",
"})	c #BAABC3",
"|)	c #B1B1CF",
"1)	c #B1B0D0",
"2)	c #B0B0D0",
"3)	c #ADB0D0",
"4)	c #B8A9C3",
"5)	c #B84249",
"6)	c #C1393D",
"7)	c #C03837",
"8)	c #B33B3D",
"9)	c #4B376E",
"0)	c #383880",
"a)	c #BB8179",
"b)	c #DB926D",
"c)	c #DB9075",
"d)	c #D9916F",
"e)	c #D9916D",
"f)	c #95594D",
"g)	c #7A4042",
"h)	c #19150F",
"i)	c #415341",
"j)	c #6C9F7F",
"k)	c #66B58F",
"l)	c #5AB991",
"m)	c #5FBA93",
"n)	c #69BD99",
"o)	c #5AB78F",
"p)	c #75A887",
"q)	c #776D4F",
"r)	c #3E392B",
"s)	c #1C1E1B",
"t)	c #744244",
"u)	c #905A4D",
"v)	c #D79073",
"w)	c #D89171",
"x)	c #D99175",
"y)	c #DA926D",
"z)	c #BD827A",
"A)	c #3B3774",
"B)	c #4D356F",
"C)	c #B33A42",
"D)	c #B94247",
"E)	c #B9ACC7",
"F)	c #B0B1D2",
"G)	c #B0B0D1",
"H)	c #AEB1D0",
"I)	c #B9AAC4",
"J)	c #B84348",
"K)	c #C13935",
"L)	c #C23A37",
"M)	c #BE373C",
"N)	c #BE3836",
"O)	c #B23C41",
"P)	c #4B386D",
"Q)	c #39387E",
"R)	c #3B3874",
"S)	c #BA827C",
"T)	c #D7916E",
"U)	c #D78F71",
"V)	c #D89170",
"W)	c #D99075",
"X)	c #915A4F",
"Y)	c #764243",
"Z)	c #754144",
"`)	c #18140E",
" !	c #405544",
".!	c #6BA688",
"+!	c #6DBA97",
"@!	c #6EC1A0",
"#!	c #75B190",
"$!	c #798A6B",
"%!	c #616551",
"&!	c #44453D",
"*!	c #262726",
"=!	c #AA6E5C",
"-!	c #A86B59",
";!	c #A36B5B",
">!	c #8C6153",
",!	c #8C6151",
"'!	c #785751",
")!	c #262444",
"!!	c #232547",
"~!	c #392242",
"{!	c #B53C3B",
"]!	c #DF5447",
"^!	c #DF5642",
"/!	c #D75E57",
"(!	c #DACADF",
"_!	c #D0D0E9",
":!	c #D0D0E8",
"<!	c #CFD1E8",
"[!	c #CDD2E7",
"}!	c #D8CADA",
"|!	c #D65F58",
"1!	c #E15640",
"2!	c #DE5342",
"3!	c #C23938",
"4!	c #C1383C",
"5!	c #B53B3F",
"6!	c #382344",
"7!	c #24254A",
"8!	c #292546",
"9!	c #775753",
"0!	c #8B6052",
"a!	c #8B6151",
"b!	c #A46B5D",
"c!	c #AB6D5D",
"d!	c #AB6D5E",
"e!	c #121611",
"f!	c #15120C",
"g!	c #3C5746",
"h!	c #6AAC8E",
"i!	c #64BB98",
"j!	c #52B48A",
"k!	c #71BA9A",
"l!	c #77A686",
"m!	c #7A795D",
"n!	c #5D5548",
"o!	c #323231",
"p!	c #070706",
"q!	c #040301",
"r!	c #77423A",
"s!	c #7A413F",
"t!	c #663939",
"u!	c #010007",
"v!	c #200305",
"w!	c #B43B38",
"x!	c #C03838",
"y!	c #C23B35",
"z!	c #F8664C",
"A!	c #F76946",
"B!	c #ED725F",
"C!	c #EEE3EB",
"D!	c #E8E9FB",
"E!	c #E5EAF9",
"F!	c #EEE1EA",
"G!	c #ED7160",
"H!	c #F6674E",
"I!	c #C43B34",
"J!	c #B73B3A",
"K!	c #1E0204",
"L!	c #000202",
"M!	c #010202",
"N!	c #020104",
"O!	c #643A38",
"P!	c #794040",
"Q!	c #76433F",
"R!	c #191B13",
"S!	c #405947",
"T!	c #6CA688",
"U!	c #71BC9C",
"V!	c #56B58D",
"W!	c #7D9B7B",
"X!	c #6B7C65",
"Y!	c #4A5549",
"Z!	c #262827",
"`!	c #20201E",
" ~	c #75413D",
".~	c #784041",
"+~	c #653A39",
"@~	c #020005",
"#~	c #020102",
"$~	c #020100",
"%~	c #200301",
"&~	c #B43B41",
"*~	c #C23939",
"=~	c #C33C39",
"-~	c #F86649",
";~	c #FA6846",
">~	c #EC7162",
",~	c #ECE3E4",
"'~	c #EBE8F8",
")~	c #EAE9F8",
"!~	c #E8EAF8",
"~~	c #E6EBF8",
"{~	c #EEE3E7",
"]~	c #EE725A",
"^~	c #F86944",
"/~	c #F76650",
"(~	c #C53B38",
"_~	c #B43C3E",
":~	c #200300",
"<~	c #000201",
"[~	c #643A31",
"}~	c #714444",
"|~	c #325B4B",
"1~	c #070707",
"2~	c #171714",
"3~	c #303931",
"4~	c #506755",
"5~	c #719B7D",
"6~	c #75B898",
"7~	c #72C2A3",
"8~	c #67BD9A",
"9~	c #6FBF9F",
"0~	c #72A486",
"a~	c #657D66",
"b~	c #4D5348",
"c~	c #3F4840",
"d~	c #313432",
"e~	c #1A191A",
"f~	c #28284B",
"g~	c #27284E",
"h~	c #333D5B",
"i~	c #557086",
"j~	c #557286",
"k~	c #566E84",
"l~	c #7B3B5E",
"m~	c #83385B",
"n~	c #833959",
"o~	c #9D483C",
"p~	c #9E4937",
"q~	c #975045",
"r~	c #A19898",
"s~	c #A09FA5",
"t~	c #9F9FA5",
"u~	c #9EA0A5",
"v~	c #9DA0A5",
"w~	c #A1989B",
"x~	c #984E45",
"y~	c #9C4A38",
"z~	c #9B463F",
"A~	c #863B53",
"B~	c #793E5E",
"C~	c #546D82",
"D~	c #547088",
"E~	c #567188",
"F~	c #363D5C",
"G~	c #26284D",
"H~	c #A58D52",
"I~	c #826D39",
"J~	c #181408",
"K~	c #030302",
"L~	c #0F0F0E",
"M~	c #292927",
"N~	c #47544A",
"O~	c #637F6A",
"P~	c #779E80",
"Q~	c #7CB99C",
"R~	c #7CC5A9",
"S~	c #72B695",
"T~	c #769D7E",
"U~	c #718066",
"V~	c #5A7261",
"W~	c #434D46",
"X~	c #242524",
"Y~	c #383974",
"Z~	c #393777",
"`~	c #47598A",
" {	c #719FC5",
".{	c #6FA0C3",
"+{	c #6D9BC4",
"@{	c #393E7B",
"#{	c #37387A",
"${	c #363673",
"%{	c #040312",
"&{	c #040410",
"*{	c #35396A",
"={	c #373874",
"-{	c #384079",
";{	c #6C9BC1",
">{	c #719FC3",
",{	c #485A8C",
"'{	c #333A76",
"){	c #A58B4A",
"!{	c #7D6A3A",
"~{	c #171309",
"{{	c #040404",
"]{	c #131312",
"^{	c #343632",
"/{	c #566656",
"({	c #70967B",
"_{	c #78B99C",
":{	c #73A98A",
"<{	c #6C977A",
"[{	c #5A7463",
"}{	c #39453D",
"|{	c #1A1913",
"1{	c #373975",
"2{	c #3A3776",
"3{	c #475987",
"4{	c #6FA1C1",
"5{	c #6FA2BD",
"6{	c #6F9BBC",
"7{	c #383F79",
"8{	c #363770",
"9{	c #03040D",
"0{	c #020001",
"a{	c #050311",
"b{	c #373670",
"c{	c #373777",
"d{	c #393F7C",
"e{	c #6F9ABE",
"f{	c #6FA1BE",
"g{	c #749FBF",
"h{	c #4A5989",
"i{	c #39377B",
"j{	c #363974",
"k{	c #A18747",
"l{	c #786739",
"m{	c #1F1C17",
"n{	c #131413",
"o{	c #282A27",
"p{	c #595C49",
"q{	c #72896D",
"r{	c #74AC8D",
"s{	c #78C0A3",
"t{	c #74C1A3",
"u{	c #70BC9C",
"v{	c #72B08F",
"w{	c #758B6F",
"x{	c #6B684E",
"y{	c #5D533C",
"z{	c #262645",
"A{	c #24244E",
"B{	c #2E3A58",
"C{	c #4F6B7F",
"D{	c #4F6D81",
"E{	c #4F6780",
"F{	c #5C779F",
"G{	c #5D77A7",
"H{	c #5A76A0",
"I{	c #527181",
"J{	c #527180",
"K{	c #516C79",
"L{	c #060B10",
"M{	c #526B77",
"N{	c #517280",
"O{	c #537083",
"P{	c #5A77A3",
"Q{	c #5C79A3",
"R{	c #5B76A0",
"S{	c #506682",
"T{	c #4E6C7D",
"U{	c #516A81",
"V{	c #30395A",
"W{	c #232552",
"X{	c #232548",
"Y{	c #9F8646",
"Z{	c #796A3D",
"`{	c #333A30",
" ]	c #3B453F",
".]	c #586C57",
"+]	c #718668",
"@]	c #7A9D7C",
"#]	c #74B493",
"$]	c #7DC5A9",
"%]	c #80C5AA",
"&]	c #71BD9D",
"*]	c #7DA482",
"=]	c #818E6D",
"-]	c #7D7A5C",
";]	c #020004",
">]	c #061119",
",]	c #709DAF",
"']	c #6DA1C0",
")]	c #6EA0C0",
"!]	c #70A0BF",
"~]	c #6FA0C2",
"{]	c #6F9BB6",
"]]	c #0C131C",
"^]	c #0A121C",
"/]	c #6D9AB3",
"(]	c #6EA1C5",
"_]	c #6FA0C0",
":]	c #6E9EC4",
"<]	c #71A1BD",
"[]	c #719DB5",
"}]	c #05101B",
"|]	c #030200",
"1]	c #010201",
"2]	c #947C3F",
"3]	c #6D623D",
"4]	c #4D5344",
"5]	c #636654",
"6]	c #788768",
"7]	c #7C9D7C",
"8]	c #76AC8B",
"9]	c #71B796",
"0]	c #75B090",
"a]	c #7C9878",
"b]	c #07121B",
"c]	c #719DB3",
"d]	c #6CA1BF",
"e]	c #6CA1C2",
"f]	c #6F9AB3",
"g]	c #0A1318",
"h]	c #000203",
"i]	c #0A131B",
"j]	c #6E9BB3",
"k]	c #719EC6",
"l]	c #72A0C0",
"m]	c #70A1BF",
"n]	c #6E9FC0",
"o]	c #6F9DBB",
"p]	c #040F20",
"q]	c #786B3C",
"r]	c #525C4A",
"s]	c #637461",
"t]	c #7D8566",
"u]	c #828867",
"v]	c #7AA585",
"w]	c #6DBE9C",
"x]	c #6EBD9B",
"y]	c #72B898",
"z]	c #080716",
"A]	c #1C1B37",
"B]	c #1C1F3F",
"C]	c #6484A7",
"D]	c #6287AF",
"E]	c #6386A8",
"F]	c #5F8196",
"G]	c #5E8197",
"H]	c #5F7D8F",
"I]	c #465142",
"J]	c #404D3D",
"K]	c #4F4F3F",
"L]	c #656853",
"M]	c #727257",
"N]	c #777556",
"O]	c #5E7E8E",
"P]	c #608099",
"Q]	c #5E8198",
"R]	c #6386AD",
"S]	c #6385AB",
"T]	c #6483A9",
"U]	c #1D2142",
"V]	c #1D1D39",
"W]	c #1D1C39",
"X]	c #0A0817",
"Y]	c #698267",
"Z]	c #6A947C",
"`]	c #6EB092",
" ^	c #72B696",
".^	c #71B594",
"+^	c #71BB9A",
"@^	c #71BFA0",
"#^	c #6BBD9A",
"$^	c #15152F",
"%^	c #383876",
"&^	c #37377A",
"*^	c #38367A",
"=^	c #353572",
"-^	c #040211",
";^	c #0A1812",
">^	c #689579",
",^	c #6B896D",
"'^	c #767356",
")^	c #7A795A",
"!^	c #76896B",
"~^	c #718E71",
"{^	c #0D1812",
"]^	c #020413",
"^^	c #33386E",
"/^	c #36377B",
"(^	c #38377D",
"_^	c #3A3876",
":^	c #181532",
"<^	c #749377",
"[^	c #72AE90",
"}^	c #6CC09E",
"|^	c #6CBE9B",
"1^	c #61B993",
"2^	c #6CBF9C",
"3^	c #141530",
"4^	c #38367C",
"5^	c #03030F",
"6^	c #0A1911",
"7^	c #71B694",
"8^	c #72AD8B",
"9^	c #749C77",
"0^	c #749C76",
"a^	c #73A784",
"b^	c #72AD8A",
"c^	c #0B1913",
"d^	c #030003",
"e^	c #040313",
"f^	c #353871",
"g^	c #38397D",
"h^	c #38397C",
"i^	c #161530",
"j^	c #77AC8C",
"k^	c #65BB97",
"l^	c #65BB96",
"m^	c #64BA95",
"n^	c #56B78F",
"o^	c #55B78E",
"p^	c #2C2D56",
"q^	c #2C2D58",
"r^	c #2D2C5A",
"s^	c #2D2D5A",
"t^	c #2E2F58",
"u^	c #56B78E",
"v^	c #63B994",
"w^	c #6BBC99",
"x^	c #2D3050",
"y^	c #2E2D5C",
"z^	c #2D2E55",
"A^	c #6EBD9C",
"B^	c #75BDA0",
"C^	c #69BB97",
"D^	c #5BB890",
"E^	c #54B78E",
"F^	c #5CB992",
"G^	c #65BA95",
"H^	c #64BB96",
"I^	c #010205",
"J^	c #0B1412",
"K^	c #58B88F",
"L^	c #57B78F",
"M^	c #0D1C17",
"N^	c #000307",
"O^	c #74BEA0",
"P^	c #70BFA0",
"Q^	c #69BC98",
"R^	c #5CB991",
"S^	c #000204",
"T^	c #0C1811",
"U^	c #6BBD9B",
"V^	c #0F1E15",
"W^	c #020C04",
"X^	c #62BB95",
"Y^	c #71C0A0",
"Z^	c #6DBE9D",
"`^	c #6CBE9D",
" /	c #63BA94",
"./	c #7FC5AA",
"+/	c #69BB98",
"                . + @ # @ + .                       . + @ # @ +                               $ % & * = -   ; > , ' ) ;         ",
"                - ! ~ { ] ! -                       - ^ ] { ~ / -                             ( _ : < [ +   } ) | 1 2 3 } -     ",
"                $ * 4 5 6 & $         7 8 9 0 a ;   $ # b c { * -                             d ~ e f g (   } ) h i j k l m 9 n ",
"                - ^ o b p @ -         , q r s t a   $ @ u b ] ! -                             ( v w 4 x +   } ) 2 j 2 , y z r A ",
"                . + @ # @ + .       ; B C D E F G G H H I I J K L M M N N N N I O P Q F       $ % & * = -   } > R k ) a R S T U ",
"                  . V $ $ .         ; R W X Y Z Z `  . . . .....` +.` @.#.#.#.$.$.%.` &.        - $ $ -       ; a a } ; *.=.-.-.",
"                                      ;.>.,.'.).!.~.{.].^.^././.(._.:.<.<.<.[.}.|.1.2.3.                              ; 4.5.6.6.",
"-                                 7.8.9.0.a.b.c.d.e.f.f.g.d.h.i.i.i.i.j.k.k.k.k.l.m.n.o.p.8.q.                - r.+ + . a ;.s.s.",
"( -                               t.u.v.w.x.y.z.A.B.C.C.D.D.E.F.G.G.G.H.H.H.H.I.J.K.L.M.N.O.P.              . Q.& x R.( .       ",
"@ +                               S.T.U.V.W.X.Y.Z.`. + + + +D..+.+.+.+++++++++++@+#+$+%+&+*+=+              - ! u -+: & $       ",
"* ( ( % % + -                     ;+>+,+'+)+!+~+{+C.++++ + +D..+.+.+.+++++++D.]+^+/+(+_+:+&.<+              - @ [+}+b R.Q.( % % ",
"% % |+] ~ * r.                    1+2+3+4+5+Z.{+.+G.6+6+++ +D..+.+.+D. + + + +7+F.F.F.8+9+0+a+              - % b+c+d+^ % e+] ] ",
"r./ ] f f+_ +                     g+h+i+^+j+`.C.G.G.6+6+++ +D..+.+.+D. + + + +k+Z.I.`.l+m+n+P.                $ Q.% % + ! u f f ",
". d d+-+b x +               o+p+q+r+s+t+u+.+F.v+w+ + + +++++++++++ + + + + + +B.`.Z.k+x+y+z+A+B+C+D+            l E+r.- % ] -+-+",
"  + @ x |+% $               F+G+H+I+J+K+L+M+I..+D.w+ + +++++++++++ + + + + + +N+N+N+N+O+P+Q+R+S+Z T+          V l l     + * x x ",
"  . $ + + $   . $       U+V+W+X+Y+Z+`+ @.@+@8+x+.+v+ + +++++++++++ + +++++ +D.@@{+E.w+#@$@%@&@*@=@-@l l , ;@l >@,@'@a V + + + + ",
"                }     ; , )@!@~@{@]@^@/@(@_@:@<@{+F. + +++++++++++ + +++++++++[@}@|@1@2@3@4@5@6@7@8@9@0@a@b@c@d@e@f@7 $ .       ",
"            } 7 l     7 B g@h@i@j@k@l@m@n@I+o@p@q@@@r@s@F.t@u@v@r@C.w@x@y@z@A@B@C@D@E@F@G@H@I@J@K@L@M@N@O@P@Q@R@S@T@. $ a 7     ",
"            a 7 V     a U@V@W@X@Y@Z@l@l@`@ #.#+#w+w+^+@# +##$#%#&#*#=#-#@#;#>#,#'#)#!#~#H@ #{#j@L@L@]#^#/#(#_#:#<#[#V           ",
"            ; } .     }#|#1#h@2#Y@Z@l@l@`@3#4#5#6#6#7#8#9#0#a#b#c#d#e#f#g#h#i#j#k#l#!#F@m#Q+n#j@L@L@o#p#p#q#r#s#t#u#l           ",
"a ;             v#w#x#y#z#A#h@2#Y@Z@l@l@`@B#C#D#E#L.F#G#H#I#J#K#L#M#N#O#P#Q#R#J+S#T#L.U#&@l@n#j@L@L@V#W#W#X#Y#Z#`# $E+          ",
".$7             +$@$#$$$%$&$*$=$-$;$>$^@,$'$`@)$U#E@!$~${$]$^$/$($_$:$<$m#[$}$|$1$2$3$4$5$~$6$7$8$L@9$0$a$b$c$d$e$f$V           ",
".$a ; g$g$;     +$@$h$i$j$k$l$m$n$o$p$q$r$s$t$u$3#v$w$x$y$z$A$B$C$D$E$F$G$H$I$J$K$L$M$N$O$P$Q$R$S$T$U$V$W$X$Y$Z$`$ %            ",
".$) .%+%@%#%7 7 $%%%&%L@*%=%-%;%>%,%'%)%!%~%{%]%I+^%/%(%_%:%<%[%m#J+}%|%1%2%3%4%5%6%~%7%8%9%3.0%a%b%c%d%L@e%f%g%h%              ",
".$s.A i%j%k%l%m%n%o%p%L@*%q%r%s%t%u%u.v%w%x%y%z%A%B%C%D%E%F%G%H%I%J%K%L%M%N%O%P%Q%R%S%T%v%2+O.U%V%W%X%Y%L@Z%`% &.&              ",
"m R +&@&#&A 9 $&%&&&*&L@=&-&;&>&,&'&)&!&~&{&]&^&/&(&_&:&<&[&}&|&1&1&2&3&4&5&6&7&8&9&0&a&b&c&d&e&f&g&h&i&L@j&k&l&m&v#7           ",
"  n&o&p&q&r&n&s&t&u&v&K@w&x&y&z&A&=&B&C&D&E&F&G&H&L#I&J&K&K&L&M&M&M&N&O&P&P&P&Q&R&S&T&U&V&Y%W&X&Y&y&Z&`&L@ *.*+*@*#*$*          ",
"  m B %*&*.%**=*-*;*>*L@B&,*'*)*!*L@Y%~*{*]*^*/*L#(*_*:*<*<*[*}*}*}*}*|*|*|*|*1*2*3*4*5*6*7*8$8*9*0*a*8$L@b*c*d*e*f*g*.         ",
"$   a h*m ) **i*j*k*L@=$=$=$l*m*n*o*p*q*r*s*t*u*v*w*x*x*w*w*w*y*y*y*y*y*y*y*z*A*B*C*D*E*F*G*H*I*J*K*L*M*N*O*P*Q*R*^ S*.         ",
"% $       > T*U*V*W*L@=$=$=$=&X*Y*Z*`* =.=+=@=#=$=%=&=*===========*=*=*=*=====E&-=;=>=,='=)=!=~={=L@]=^=/=(=_=:=<=[=d+% -       ",
"* Q.$ + $ 7 }=|=1=2=L@=$=$=$3=4=5=6=7=8=9=0=a=b=c=d=e=f=g=h=i=j=j=k=l=m=n=&=o=j=p=q=r=s=t=u=v=w=x=L@=$=$L@y=z=A=B=C=b R.+ $ + + ",
"@ = ! |+D=E=F=G=H=I=L@=$=$=$3=4=J=K=L=M=N=O=P=Q=R=S=T=U=V=W=X=Y=Z=`= -.-+-@-#-$-%-P=&-*-=---;->-X@L@=$=$L@,-'-)-c+-+: & = @ |+|+",
"( % d+!-6 |+~-{-]-^-L@=$=$=$/-d%(-_-:-O=<-[-}-|-1-2-3-4-5-6-7-8-8-8-9-0-4-a-b-c-d-e-f-g-h-g-i-j-x=L@k-=$L@l-m-n-o-|+# = ! ] !-!-",
"- % ] e f+_ p-q-r-s-L@=$=$t-u-v-w-x-y-z-A-s=B-C-D-E-F-G-H-I-J-K-L-M-N-O-P-Q-R-S-T-U-:-V-W-X-y-Y-Z-L@`-=$L@ ;.;+;@;+ r.$ ! u e f ",
"  ( x u o #;$;%;&;*;L@=$=$=$=$=$=$=;-;;;>;,;';);!;~;{;];^;/;(;(;(;(;_;:;<;[;};|;1;2;3;&-4;5;6;7;8;9;]==$L@0;a;b;c;      = d;u u ",
"  - ( ! / e;f;g;h;i;L@=$=$=$=$=$=$j;k;l;m;:-n;3;o;p;q;r;s;t;7-u;u;u;v;w;x;y;z;A;B;W-C;D;E;F;G;H;I;J;]==$L@K;L;M;N;      $ = ! ! ",
"      . . . O;P;Q;R;L@=$=$=$=$=$=$S;T;l;U;V;W;X;Y;Z;`; >.>+>@>S-S-S-#>.>$>%>&>*>=>:-:-,;->;>>>,>'>)>>*=$L@!>~>{>]>          . . ",
"            ^>/>(>_>L@=$=$=$=$=$=$:><>[>}>|>1>2>3>-;4>5>6>7>8>9>0>0>a>b>c>d>e>f>g>h>i>j>k>l>m>n>o>p>=$=$L@q>r>s>t>              ",
"            u>v>w>x>L@=$=$=$=$2#y>z>A>B>C>D>E>F>G>H>I>3;J>K>L>n;n;n;>=M>N>O>P>Q>R>S>T>P-U>V>W>X>Y>L@=$=$L@Z>`>i* ,              ",
"            .,+,@,#,L@=$=$=$=$P-$,%,&,*,=,i@-,;,>,,,',),2;!,~,2;2;2;{,>=9*],^,/,(,_,=$:,<,z>[,},W&L@]==$L@|,1,2,3,              ",
"            4,5,6,7,L@=$=$=$8,9,0,n=U&a,b,c,d,e,f,g,h,j>i,i,j,j,j,j,j,k,l,m,n,o,p,q,r,s,t,u,T&v,w,x,y,=$L@z,A,B,C,; ; ;         ",
"            D,E,F,G,L@H,I,J,K,L,M,N,O,==P,Q,R,S,T,U,V,Z-Z-Z-=&=&=&=&*%W,X,Y,Z,m#`, '.'*=+'@'#'$'%'&'*'='-';'>',''')'.$> ;       ",
"            !'~'{']'L@^'/'*'('_':'<'['}'|'1'2'3'4%4'5'8$L@K@L@L@L@L@L@w&6'7'8'9'0'a'|'b'c'd'e'f'%'&'g'Q>h'i'j'k'l'm'k%, ;       ",
"            n'o'p'q'L@r's't'u'v'w'x'y'z'A'5*B'C'>$D'E'F'G'H'I'J'K'L'M'N'O'P'Q'Q+R'S'T'U'V'W'X'Y'Z'`' ).)+)@)#)$)%)i &)*)l ) ;.;.",
"          . =)-);)>)X@,)/'')))!)~)B;{)])^)A>/)()_):)M.<)[)})|)1)2)3)4)5)6)I+U#7)8)9)0)^)a)b)c)d)e)2;f)g)+)h)i)j)k)l)m)*)n)z o)r ",
"          $ ; p)q)r)s)t),)u)v)g-w)x)y)z)A)e=B)C)[%l@9'S#D)E)F)7%G)H)I)J)K)L)M)N)O)P)Q)R)S)T)O=U)V)W)X)Y)Z)`) !.!+!n).$.$@%S #&#&",
"            @!#!$!%!&!*!^=]==!-!;!>!,!'!)!!!~!{!T,l#]!^!/!(!_!:!<![!}!|!1!2!3!4!5!6!7!8!9!0!a!b!c!d!e!=$L@f!g!h!>@U+; a i!j!-.-.",
"              k!l!m!n!o!p!q!r!s!t!>*u!>*4=W&v!w!x!y!z!A!B!C!D!}*[*E!F!G!x@H!I!P#J!K!L!4-M!N!L!O!P!Q!`-=$L@R!S!T!U!    ; 4.5.V!V!",
"-               e*W!X!Y!Z!`! ~.~+~@~2##~8$$~%~&~*~=~-~;~>~,~'~)~!~~~{~]~^~/~(~T,_~:~<~Y%W&=$Z-[~P!}~|~1~2~3~4~5~6~7~+ - 7 , 8~8~",
"( -             9~k!0~a~b~c~d~e~L@f~g~h~i~j~k~l~m~n~o~p~q~r~s~t~u~v~w~x~y~z~A~m~B~C~D~E~F~G~G~H~I~J~K~L~M~N~O~P~Q~R~D== -       ",
"@ +   . .         9~S~T~U~V~W~X~`-Y~Z~`~ {.{+{@{#{${%{Z-K@W,Z-=&=&=&6'G-K@&{*{={-{;{.{>{,{#{'{){!{~{{{]{^{/{({_{c+f+: & $   . . ",
"* ( ( / % -         >@f;:{<{[{}{|{1{2{3{4{5{6{7{E&8{9{G-2#X@L@L@L@K@0{=$Z-a{b{c{d{e{f{g{h{i{j{k{l{m{n{o{p{q{r{s{< c b R.Q.( / / ",
"t{d x o ] @ $           u{v{w{x{y{z{A{B{C{D{E{F{G{H{I{J{K{L{Y%L@L@L@L{M{N{O{P{Q{R{S{T{U{V{W{X{Y{Z{`{ ].]+]@]#]x#$]o %]! % _ p o ",
"  % ] e f+_ Q.            &]*]=]-]L@=$Y%Z-;]>],]'])]!]~]{]]]Z-X@X@X@^]/](]_]:]<][]}]$~Y%|]1]L@2]3]4]5]6]7]8]9]E+( % = + ! u e f ",
"  d d+-+b x +               >@0]a]X@2#*%=$1]b]c].{~]d]e]f]g]=$Z-h]2#i]j]k]l]m]n]o]p]*%Y%1]M!=&q]r]s]t]u]v] ,w]9~.     - % ] -+-+",
"  + @ x |+% $                 x]y]L@K@z]A]A]B]C]D]E]F]G]H]I]J]K]L]M]N]O]P]Q]R]S]T]U]V]W]X]M!L@Y]Z]`] ^.^+^V V g*@^      + * x x ",
"  . $ + + -             U+V+#^.$m L@B&$^n=5*%^&^*^=^-^Z-;^>^,^'^)^!^~^{^X@]^^^/^(^z>b'_^:^>*L@<^[^E+}^**|^$*- @^.       . $ + + ",
"                      7 y )@1^t 2^L@w&3^&^4^&^g=g=#'5^K@6^7^8^9^0^a^b^c^d^e^f^g^h^h^h^D&i^B&L@j^k!U+y k^z l^a                   ",
"                      w]m^n^o^+%7 $     p^q^r^s^s^t^  } l > k^u^u^v^w^l }   x^y^y^y^y^z^A^B^@^    7 C^D^E^F^.$;                 ",
"                      w]G^j g@H^l       I^#~X@W&W&J^      l k K^L^m^V+      M^6'i@i@i@N^$*O^P^    7 Q^R^o^1 .$;                 ",
"                      U+> t B 4.l       S^=$B&B&B&T^      l 4.B l^U^U+      V^8$8$8$B&W^9~P^        a n&X^| .$;                 ",
"                  - Q.= + } 7 a U+                    $ ( Q.Y^9~Z^U+  U+> V+7                 - + = ( . `^0 a                   ",
"Z^U+            - = x %]x = -                       - % _ %]x = -   } ) m^ /4.;               + & ././@ r.                      ",
"+/Z^            - * : f { * $                       $ & 4 f < @ -   7 B K^u^+%l               = d+f+-+v (                       "};
