/* XPM */
static char * npc2_xpm[] = {
"64 64 1536 2",
"  	c #75C7A3",
". 	c #6FC0A0",
"+ 	c #70C0A0",
"@ 	c #72C1A2",
"# 	c #77C3A5",
"$ 	c #79C3A7",
"% 	c #71C1A1",
"& 	c #75C2A4",
"* 	c #79C3A6",
"= 	c #78C3A6",
"- 	c #74C2A3",
"; 	c #70C0A1",
"> 	c #6DBF9E",
", 	c #6ABE9A",
"' 	c #68BD98",
") 	c #69BD9A",
"! 	c #76C2A5",
"~ 	c #81C6AB",
"{ 	c #86C7AF",
"] 	c #82C6AC",
"^ 	c #77C2A5",
"/ 	c #76C2A4",
"( 	c #71C2A1",
"_ 	c #73C1A3",
": 	c #7DC4A9",
"< 	c #86C7AE",
"[ 	c #85C7AE",
"} 	c #7BC4A7",
"| 	c #6EC09F",
"1 	c #6BBE9B",
"2 	c #62BB95",
"3 	c #5CB991",
"4 	c #60BA94",
"5 	c #6ABD9A",
"6 	c #6EBF9F",
"7 	c #87C7AF",
"8 	c #8EC9B3",
"9 	c #88C8AF",
"0 	c #6CBE9D",
"a 	c #69BE9B",
"b 	c #6ABE9C",
"c 	c #88C8B0",
"d 	c #8DC9B3",
"e 	c #74C2A4",
"f 	c #8DC9B2",
"g 	c #8CC9B2",
"h 	c #7EC5AA",
"i 	c #5CB992",
"j 	c #53B78D",
"k 	c #59B890",
"l 	c #6DBF9D",
"m 	c #69BE9C",
"n 	c #83C6AC",
"o 	c #83C6AD",
"p 	c #6BBE9C",
"q 	c #62BA95",
"r 	c #5AB790",
"s 	c #5DB892",
"t 	c #67BC99",
"u 	c #84C6AD",
"v 	c #7EC5A9",
"w 	c #87C8AF",
"x 	c #7CC4A8",
"y 	c #6ABE9B",
"z 	c #5AB890",
"A 	c #5EBA93",
"B 	c #69BD99",
"C 	c #6ABD9B",
"D 	c #5BB790",
"E 	c #66BC99",
"F 	c #756C61",
"G 	c #74675F",
"H 	c #75685F",
"I 	c #756A60",
"J 	c #75695F",
"K 	c #776A60",
"L 	c #766A60",
"M 	c #75685D",
"N 	c #74665C",
"O 	c #76695F",
"P 	c #766A5F",
"Q 	c #766A61",
"R 	c #75685E",
"S 	c #74675D",
"T 	c #76685E",
"U 	c #68BD99",
"V 	c #65BB98",
"W 	c #53B48B",
"X 	c #45AF81",
"Y 	c #45AF82",
"Z 	c #71C0A1",
"` 	c #65BC98",
" .	c #662B2A",
"..	c #67292B",
"+.	c #682927",
"@.	c #682826",
"#.	c #692827",
"$.	c #692928",
"%.	c #692927",
"&.	c #692826",
"*.	c #692829",
"=.	c #692929",
"-.	c #682928",
";.	c #682828",
">.	c #662828",
",.	c #51B38A",
"'.	c #42AE80",
").	c #672924",
"!.	c #682728",
"~.	c #672629",
"{.	c #682625",
"].	c #682524",
"^.	c #692427",
"/.	c #682724",
"(.	c #672824",
"_.	c #672724",
":.	c #682723",
"<.	c #682623",
"[.	c #672623",
"}.	c #682624",
"|.	c #672725",
"1.	c #682725",
"2.	c #6B2623",
"3.	c #6A2624",
"4.	c #682626",
"5.	c #672627",
"6.	c #662826",
"7.	c #6EC0A0",
"8.	c #69BD9B",
"9.	c #5EB892",
"0.	c #55B58C",
"a.	c #70C2A1",
"b.	c #716C5F",
"c.	c #75655C",
"d.	c #865C52",
"e.	c #AD383C",
"f.	c #AB3538",
"g.	c #B23932",
"h.	c #D85F4A",
"i.	c #DC6046",
"j.	c #DE5F48",
"k.	c #DD6147",
"l.	c #DC6146",
"m.	c #DD6047",
"n.	c #DD5F47",
"o.	c #DB6047",
"p.	c #DB5F47",
"q.	c #D85E4D",
"r.	c #B23A34",
"s.	c #AC3739",
"t.	c #A9373C",
"u.	c #875C54",
"v.	c #74665D",
"w.	c #71C1A2",
"x.	c #6ABD9C",
"y.	c #72C5A1",
"z.	c #653734",
"A.	c #69282A",
"B.	c #802C2C",
"C.	c #BE383B",
"D.	c #C1373C",
"E.	c #C53A35",
"F.	c #F1664D",
"G.	c #F76A45",
"H.	c #F96945",
"I.	c #F96948",
"J.	c #F86948",
"K.	c #F86848",
"L.	c #F96848",
"M.	c #F96849",
"N.	c #F76749",
"O.	c #F86946",
"P.	c #F4674C",
"Q.	c #C53B31",
"R.	c #BE373B",
"S.	c #BF393E",
"T.	c #802B2C",
"U.	c #662928",
"V.	c #682829",
"W.	c #73C1A2",
"X.	c #7AC3A7",
"Y.	c #71C3A1",
"Z.	c #643731",
"`.	c #68272B",
" +	c #7F2B2F",
".+	c #C13836",
"++	c #C13635",
"@+	c #C63A33",
"#+	c #F4694F",
"$+	c #F76A46",
"%+	c #F96946",
"&+	c #F86949",
"*+	c #F86947",
"=+	c #F76848",
"-+	c #F4674F",
";+	c #C53B30",
">+	c #BF3738",
",+	c #C03836",
"'+	c #7E2C2E",
")+	c #672A29",
"!+	c #662A27",
"~+	c #8AC8B1",
"{+	c #75C7A5",
"]+	c #633732",
"^+	c #68272A",
"/+	c #8D3A33",
"(+	c #EA614D",
"_+	c #EA6048",
":+	c #EA6045",
"<+	c #F66A48",
"[+	c #F86A46",
"}+	c #FA6848",
"|+	c #F8684A",
"1+	c #EE6047",
"2+	c #EB604A",
"3+	c #EA5F4E",
"4+	c #8B3833",
"5+	c #652928",
"6+	c #73C6A3",
"7+	c #7BC4A8",
"8+	c #623732",
"9+	c #672728",
"0+	c #913D30",
"a+	c #F6694B",
"b+	c #F96A46",
"c+	c #F66747",
"d+	c #F96949",
"e+	c #F6684C",
"f+	c #913C31",
"g+	c #672928",
"h+	c #66292A",
"i+	c #80C5AB",
"j+	c #7DC4A8",
"k+	c #72C5A3",
"l+	c #8BC9B1",
"m+	c #643530",
"n+	c #692626",
"o+	c #943B2F",
"p+	c #FB6945",
"q+	c #F66A47",
"r+	c #F76947",
"s+	c #943C2C",
"t+	c #692727",
"u+	c #72C8A3",
"v+	c #6FC1A0",
"w+	c #796C60",
"x+	c #7C6C63",
"y+	c #886158",
"z+	c #AC383A",
"A+	c #AB3837",
"B+	c #C3433A",
"C+	c #F8684B",
"D+	c #F9684A",
"E+	c #F8694A",
"F+	c #F76A47",
"G+	c #C04339",
"H+	c #AC3639",
"I+	c #AB3738",
"J+	c #896058",
"K+	c #7D6B61",
"L+	c #786D63",
"M+	c #642E29",
"N+	c #672829",
"O+	c #802D2C",
"P+	c #C0393B",
"Q+	c #C13939",
"R+	c #CF4439",
"S+	c #FA6A47",
"T+	c #F86A44",
"U+	c #F96947",
"V+	c #FB6748",
"W+	c #CD433B",
"X+	c #C03839",
"Y+	c #BD3B3A",
"Z+	c #7E2C2C",
"`+	c #632A2A",
" @	c #71C5A2",
".@	c #6CBE9C",
"+@	c #612E2C",
"@@	c #65282E",
"#@	c #7F2D2C",
"$@	c #BF3A37",
"%@	c #C03A36",
"&@	c #CF453B",
"*@	c #FA694E",
"=@	c #F8674D",
"-@	c #F96A45",
";@	c #F9674F",
">@	c #CB433D",
",@	c #C03935",
"'@	c #BE3837",
")@	c #802C30",
"!@	c #672929",
"~@	c #632B2D",
"{@	c #6CBF9D",
"]@	c #271814",
"^@	c #280F13",
"/@	c #591D1D",
"(@	c #BD3939",
"_@	c #BF3938",
":@	c #C23B3C",
"<@	c #CD483B",
"[@	c #CF473E",
"}@	c #D34739",
"|@	c #F4674A",
"1@	c #F86747",
"2@	c #F5664B",
"3@	c #D34836",
"4@	c #CE463B",
"5@	c #D0463C",
"6@	c #C13D3C",
"7@	c #BE3A34",
"8@	c #BC3939",
"9@	c #5B1E21",
"0@	c #2B1010",
"a@	c #291010",
"b@	c #64BC97",
"c@	c #61BA94",
"d@	c #65BC97",
"e@	c #64BB96",
"f@	c #57B78F",
"g@	c #020C06",
"h@	c #000003",
"i@	c #4D1819",
"j@	c #BC393A",
"k@	c #BF3739",
"l@	c #BF373B",
"m@	c #BF3939",
"n@	c #C33B34",
"o@	c #F4674E",
"p@	c #F86A45",
"q@	c #F96847",
"r@	c #FA6748",
"s@	c #F76849",
"t@	c #F76847",
"u@	c #F86746",
"v@	c #F86A48",
"w@	c #F76846",
"x@	c #F66748",
"y@	c #F66745",
"z@	c #F56746",
"A@	c #F76648",
"B@	c #F4664D",
"C@	c #C73C33",
"D@	c #BF383C",
"E@	c #BF393A",
"F@	c #BF3A3A",
"G@	c #C03A39",
"H@	c #BD3A3A",
"I@	c #4E191B",
"J@	c #010000",
"K@	c #000000",
"L@	c #5BB991",
"M@	c #54B78E",
"N@	c #64BC96",
"O@	c #58B88F",
"P@	c #020B05",
"Q@	c #000002",
"R@	c #4E1818",
"S@	c #BD383A",
"T@	c #C0383A",
"U@	c #C0393A",
"V@	c #C43C35",
"W@	c #F46751",
"X@	c #F86849",
"Y@	c #F56952",
"Z@	c #F3694D",
"`@	c #F4694C",
" #	c #F36A4C",
".#	c #F36B4D",
"+#	c #F36A4D",
"@#	c #F86748",
"##	c #F96747",
"$#	c #F86847",
"%#	c #F7674C",
"&#	c #F3664F",
"*#	c #C53C34",
"=#	c #BF383B",
"-#	c #BF3A3B",
";#	c #BD3B39",
">#	c #55B78E",
",#	c #70C3A1",
"'#	c #6EBF9E",
")#	c #000102",
"!#	c #C0383B",
"~#	c #C2393A",
"{#	c #CE453D",
"]#	c #CF4639",
"^#	c #CC463B",
"/#	c #CE453B",
"(#	c #C7504A",
"_#	c #F2C8C7",
":#	c #EFCED4",
"<#	c #EFCED5",
"[#	c #EECED5",
"}#	c #EECFD4",
"|#	c #F3C6C9",
"1#	c #CC4E49",
"2#	c #CD443D",
"3#	c #CE463F",
"4#	c #CD473E",
"5#	c #D14739",
"6#	c #D04639",
"7#	c #C13936",
"8#	c #C03938",
"9#	c #BC3A39",
"0#	c #66BC98",
"a#	c #6FC09F",
"b#	c #C1383B",
"c#	c #C0383C",
"d#	c #BE383A",
"e#	c #BD383B",
"f#	c #BC3839",
"g#	c #BF3836",
"h#	c #B8454D",
"i#	c #EBE1EE",
"j#	c #E9E9FC",
"k#	c #E9E9FA",
"l#	c #E8E9FA",
"m#	c #E7EAFA",
"n#	c #EDE1ED",
"o#	c #B8464D",
"p#	c #C2383A",
"q#	c #C0393F",
"r#	c #C03A3D",
"s#	c #C13A36",
"t#	c #BF383A",
"u#	c #BE3838",
"v#	c #7FC5AA",
"w#	c #020A03",
"x#	c #010101",
"y#	c #4E181A",
"z#	c #BC383E",
"A#	c #BF3837",
"B#	c #BD393F",
"C#	c #BF383D",
"D#	c #BE3935",
"E#	c #BD373F",
"F#	c #BE373A",
"G#	c #B4464E",
"H#	c #F0E1E9",
"I#	c #EBE9F8",
"J#	c #EBEAF6",
"K#	c #EAEAF6",
"L#	c #EAE9F6",
"M#	c #F0E1EA",
"N#	c #B6464C",
"O#	c #BF3A3C",
"P#	c #C13A38",
"Q#	c #BF3A3D",
"R#	c #BF3B3A",
"S#	c #BD3742",
"T#	c #BD373E",
"U#	c #BB373D",
"V#	c #BD393A",
"W#	c #BA3A3D",
"X#	c #4D1919",
"Y#	c #010100",
"Z#	c #6DBF9F",
"`#	c #8AC6B0",
" $	c #74BA9E",
".$	c #8C6647",
"+$	c #8C6946",
"@$	c #885C3C",
"#$	c #822B2F",
"$$	c #822C2B",
"%$	c #8E5155",
"&$	c #B69BAE",
"*$	c #B79CB2",
"=$	c #BF93A9",
"-$	c #B84145",
";$	c #BA3E44",
">$	c #BD95AB",
",$	c #B49AB1",
"'$	c #B896A8",
")$	c #C6797E",
"!$	c #C97982",
"~$	c #CA7981",
"{$	c #C97980",
"]$	c #CA7880",
"^$	c #C57981",
"/$	c #BB95A9",
"($	c #B799B2",
"_$	c #BA96A5",
":$	c #B93F48",
"<$	c #BE3938",
"[$	c #B93E42",
"}$	c #C094AA",
"|$	c #B69CB2",
"1$	c #B79CAD",
"2$	c #8C5152",
"3$	c #822D2B",
"4$	c #7F2C2E",
"5$	c #895B43",
"6$	c #8E6746",
"7$	c #8D6745",
"8$	c #76A18F",
"9$	c #7DC5A9",
"0$	c #68BD9A",
"a$	c #63BB96",
"b$	c #64BB97",
"c$	c #000101",
"d$	c #483521",
"e$	c #A97846",
"f$	c #A77A3D",
"g$	c #9D6A41",
"h$	c #682827",
"i$	c #6A2728",
"j$	c #7D5663",
"k$	c #B1B1D0",
"l$	c #B1B0D4",
"m$	c #B9AAC5",
"n$	c #B8424A",
"o$	c #BB4048",
"p$	c #B9ABC4",
"q$	c #AFAFD2",
"r$	c #B8A8C5",
"s$	c #B73F4B",
"t$	c #BD3937",
"u$	c #BF3838",
"v$	c #B7424B",
"w$	c #B8A9C5",
"x$	c #AFAFD5",
"y$	c #B8ACC4",
"z$	c #BA3E48",
"A$	c #BF3936",
"B$	c #B74249",
"C$	c #B9ABC6",
"D$	c #B1B0D1",
"E$	c #7D5765",
"F$	c #672729",
"G$	c #9B6A45",
"H$	c #A57A41",
"I$	c #A57849",
"J$	c #453523",
"K$	c #010203",
"L$	c #68BC9A",
"M$	c #5CB791",
"N$	c #4EB288",
"O$	c #51B389",
"P$	c #61BA95",
"Q$	c #6BBE9D",
"R$	c #473424",
"S$	c #A77849",
"T$	c #A8783E",
"U$	c #9C6A46",
"V$	c #67282B",
"W$	c #7B5863",
"X$	c #AFB2CE",
"Y$	c #B0B2D3",
"Z$	c #B8AAC4",
"`$	c #B4434B",
" %	c #BC3A3F",
".%	c #B7414B",
"+%	c #B6ACC4",
"@%	c #ACB0D1",
"#%	c #B8A8C3",
"$%	c #B34349",
"%%	c #BB3A39",
"&%	c #BC3A3A",
"*%	c #BD3A3B",
"=%	c #BE3A3B",
"-%	c #B5434C",
";%	c #B9A9C1",
">%	c #ADAFD3",
",%	c #B5ADC6",
"'%	c #B73F4D",
")%	c #BB383B",
"!%	c #B4414C",
"~%	c #B6AAC6",
"{%	c #AEB2D3",
"]%	c #B0B1D3",
"^%	c #9D6A43",
"/%	c #A87743",
"(%	c #A7774A",
"_%	c #463522",
":%	c #010102",
"<%	c #40AD7F",
"[%	c #44AF81",
"}%	c #6FBF9E",
"|%	c #72C1A1",
"1%	c #000001",
"2%	c #563E31",
"3%	c #CA8C6C",
"4%	c #CD8D67",
"5%	c #B27A5E",
"6%	c #2C1110",
"7%	c #2C1112",
"8%	c #3C3040",
"9%	c #60638E",
"0%	c #626293",
"a%	c #6C648F",
"b%	c #DFC5D4",
"c%	c #E3C9D4",
"d%	c #E3CAD5",
"e%	c #DDDAF0",
"f%	c #DADCEF",
"g%	c #DFDAED",
"h%	c #E3C9D5",
"i%	c #E6C8D7",
"j%	c #E4C8D5",
"k%	c #E5C7D5",
"l%	c #E3C9D6",
"m%	c #E2D9EF",
"n%	c #DBDFF1",
"o%	c #DEDCEE",
"p%	c #E3C8D4",
"q%	c #E6C8D3",
"r%	c #DEC5D4",
"s%	c #6D6693",
"t%	c #646393",
"u%	c #626393",
"v%	c #3B303F",
"w%	c #291211",
"x%	c #29100F",
"y%	c #B07A5C",
"z%	c #CF8B66",
"A%	c #CA8C6B",
"B%	c #553D31",
"C%	c #010105",
"D%	c #59B68F",
"E%	c #4AB185",
"F%	c #4DB287",
"G%	c #5FB993",
"H%	c #020000",
"I%	c #5B3F35",
"J%	c #D59172",
"K%	c #D8926D",
"L%	c #B97F6C",
"M%	c #000100",
"N%	c #141631",
"O%	c #383975",
"P%	c #39377A",
"Q%	c #45457B",
"R%	c #E3E5F5",
"S%	c #E6EAF9",
"T%	c #E6E9F9",
"U%	c #E6E9F7",
"V%	c #E7EAF8",
"W%	c #E7E9F9",
"X%	c #E8E9F8",
"Y%	c #E9E9F8",
"Z%	c #EAE8F9",
"`%	c #EAE8F8",
" &	c #EAE8FA",
".&	c #E5E4F6",
"+&	c #444480",
"@&	c #383977",
"#&	c #38377B",
"$&	c #141730",
"%&	c #010103",
"&&	c #B77F65",
"*&	c #DA906E",
"=&	c #5B3E35",
"-&	c #010004",
";&	c #60B994",
">&	c #58B890",
",&	c #5C4036",
"'&	c #D59077",
")&	c #D88F72",
"!&	c #BA7D6D",
"~&	c #17162F",
"{&	c #3C396E",
"]&	c #3C3876",
"^&	c #464577",
"/&	c #E3E4F9",
"(&	c #E6EAFB",
"_&	c #E5EAF8",
":&	c #E6EAF8",
"<&	c #E6EBF9",
"[&	c #E7EAF9",
"}&	c #E8EAF9",
"|&	c #E9E9F9",
"1&	c #E8E9F6",
"2&	c #E3E4F8",
"3&	c #474477",
"4&	c #393A78",
"5&	c #393977",
"6&	c #161730",
"7&	c #030002",
"8&	c #B67F68",
"9&	c #D99172",
"0&	c #D59276",
"a&	c #5C3F35",
"b&	c #6CBF9E",
"c&	c #56B78E",
"d&	c #6FBF9F",
"e&	c #63473E",
"f&	c #65473D",
"g&	c #61423D",
"h&	c #653939",
"i&	c #673837",
"j&	c #7F4C47",
"k&	c #B87F75",
"l&	c #BA7F74",
"m&	c #B07D81",
"n&	c #827D9A",
"o&	c #7B7BA5",
"p&	c #7B7CA4",
"q&	c #7B7DA4",
"r&	c #7C7CA4",
"s&	c #7D7CA4",
"t&	c #7F7DA5",
"u&	c #817D9C",
"v&	c #B08085",
"w&	c #BD8174",
"x&	c #BD8079",
"y&	c #7C4D48",
"z&	c #653838",
"A&	c #623739",
"B&	c #5D423A",
"C&	c #64443B",
"D&	c #62443C",
"E&	c #67BD99",
"F&	c #020204",
"G&	c #311B1A",
"H&	c #784244",
"I&	c #794048",
"J&	c #96574E",
"K&	c #D68F71",
"L&	c #D78F6C",
"M&	c #CB8C7E",
"N&	c #483B6D",
"O&	c #38357E",
"P&	c #373877",
"Q&	c #383879",
"R&	c #38387A",
"S&	c #383779",
"T&	c #463D6C",
"U&	c #CB8D7F",
"V&	c #DA9073",
"W&	c #D7916F",
"X&	c #915849",
"Y&	c #7A4141",
"Z&	c #784241",
"`&	c #301B1C",
" *	c #010107",
".*	c #84C7AD",
"+*	c #81C5AB",
"@*	c #010604",
"#*	c #010104",
"$*	c #331E15",
"%*	c #77433C",
"&*	c #794140",
"**	c #965949",
"=*	c #D69072",
"-*	c #D78E6C",
";*	c #CD8C7C",
">*	c #483B69",
",*	c #35377B",
"'*	c #373876",
")*	c #373979",
"!*	c #393878",
"~*	c #38387B",
"{*	c #3B3677",
"]*	c #383679",
"^*	c #393778",
"/*	c #3A3778",
"(*	c #393877",
"_*	c #36387B",
":*	c #393876",
"<*	c #383976",
"[*	c #473C6A",
"}*	c #CC8C81",
"|*	c #D9926B",
"1*	c #D89172",
"2*	c #92594E",
"3*	c #794142",
"4*	c #76433B",
"5*	c #311C1B",
"6*	c #020002",
"7*	c #7AC4A7",
"8*	c #4D342B",
"9*	c #B07465",
"0*	c #B17362",
"a*	c #BC7A63",
"b*	c #D78F73",
"c*	c #D98F71",
"d*	c #D48F78",
"e*	c #BC918D",
"f*	c #BA9390",
"g*	c #B28F86",
"h*	c #2E294C",
"i*	c #232349",
"j*	c #29274A",
"k*	c #B1918D",
"l*	c #B8958D",
"m*	c #BB948B",
"n*	c #BB958B",
"o*	c #BC958C",
"p*	c #B3938B",
"q*	c #29284B",
"r*	c #232348",
"s*	c #2C294A",
"t*	c #AD8F8A",
"u*	c #B9948D",
"v*	c #BA928B",
"w*	c #D6926E",
"x*	c #D88F74",
"y*	c #BB7964",
"z*	c #B37263",
"A*	c #B17460",
"B*	c #4C332E",
"C*	c #89C8B0",
"D*	c #63BB97",
"E*	c #46AF83",
"F*	c #50B389",
"G*	c #000300",
"H*	c #5C3F37",
"I*	c #D79075",
"J*	c #D99070",
"K*	c #D98E72",
"L*	c #DA9074",
"M*	c #D99471",
"N*	c #F7BF96",
"O*	c #F9C093",
"P*	c #EBB98F",
"Q*	c #241914",
"R*	c #000106",
"S*	c #1D1109",
"T*	c #F0BC95",
"U*	c #F8C191",
"V*	c #F7C190",
"W*	c #EDBD93",
"X*	c #1F1309",
"Y*	c #241A14",
"Z*	c #EEBA94",
"`*	c #F5C18E",
" =	c #F7BE94",
".=	c #D9926D",
"+=	c #D6906F",
"@=	c #D98F6F",
"#=	c #D9906F",
"$=	c #D79171",
"%=	c #5C4137",
"&=	c #5CB891",
"*=	c #4CB186",
"==	c #3FAD7E",
"-=	c #4BB186",
";=	c #010802",
">=	c #020303",
",=	c #5E4138",
"'=	c #D89076",
")=	c #D89072",
"!=	c #D99073",
"~=	c #D78E71",
"{=	c #D8946E",
"]=	c #F7BF8C",
"^=	c #F8C091",
"/=	c #EDB891",
"(=	c #251A14",
"_=	c #010003",
":=	c #1F1209",
"<=	c #EFBC93",
"[=	c #F9C190",
"}=	c #F9C191",
"|=	c #F9C090",
"1=	c #F8C090",
"2=	c #EEBD94",
"3=	c #20130B",
"4=	c #020105",
"5=	c #251A13",
"6=	c #EBB891",
"7=	c #F9C192",
"8=	c #F7BC91",
"9=	c #D99473",
"0=	c #D9906C",
"a=	c #DA8F70",
"b=	c #D78E70",
"c=	c #5D4238",
"d=	c #010002",
"e=	c #43AE81",
"f=	c #58B68E",
"g=	c #72B799",
"h=	c #A86D5B",
"i=	c #AA6B5A",
"j=	c #B5735E",
"k=	c #D79274",
"l=	c #D99171",
"m=	c #DB9172",
"n=	c #E8A77F",
"o=	c #E9A782",
"p=	c #E0A37E",
"q=	c #5A372F",
"r=	c #513030",
"s=	c #593630",
"t=	c #F2BC96",
"u=	c #F8C192",
"v=	c #F1BD96",
"w=	c #59362E",
"x=	c #50302E",
"y=	c #5A372D",
"z=	c #DEA381",
"A=	c #E8A77E",
"B=	c #E6A67D",
"C=	c #D89173",
"D=	c #D89070",
"E=	c #B4735D",
"F=	c #A86D5C",
"G=	c #A86D59",
"H=	c #7B8B7D",
"I=	c #5EB893",
"J=	c #52B48A",
"K=	c #7EC4A9",
"L=	c #67BC9A",
"M=	c #75423E",
"N=	c #774142",
"O=	c #935750",
"P=	c #D79271",
"Q=	c #D98F72",
"R=	c #DB8F73",
"S=	c #D38C75",
"T=	c #7D453F",
"U=	c #7A4043",
"V=	c #814740",
"W=	c #F3BD95",
"X=	c #F9C092",
"Y=	c #F4BC96",
"Z=	c #7F493D",
"`=	c #764143",
" -	c #7D453E",
".-	c #D28E73",
"+-	c #D98F73",
"@-	c #D79072",
"#-	c #D8916F",
"$-	c #D79270",
"%-	c #91594D",
"&-	c #7B4141",
"*-	c #78423E",
"=-	c #774042",
"--	c #784043",
";-	c #D79373",
">-	c #DA9072",
",-	c #D99072",
"'-	c #D8916D",
")-	c #D7926D",
"!-	c #D28F6E",
"~-	c #7C453E",
"{-	c #79413F",
"]-	c #7F483B",
"^-	c #F2BD96",
"/-	c #F8C193",
"(-	c #F5BC95",
"_-	c #764141",
":-	c #7F453D",
"<-	c #D38E75",
"[-	c #D9906E",
"}-	c #D7926E",
"|-	c #905950",
"1-	c #794240",
"2-	c #784342",
"3-	c #5AB891",
"4-	c #64B692",
"5-	c #6CB899",
"6-	c #583D5E",
"7-	c #583C61",
"8-	c #664558",
"9-	c #875F4E",
"0-	c #8A5E4E",
"a-	c #8A5D50",
"b-	c #A76D5D",
"c-	c #A96C59",
"d-	c #B17563",
"e-	c #B27561",
"f-	c #B5765E",
"g-	c #E4A682",
"h-	c #E7A781",
"i-	c #E7A880",
"j-	c #E8A880",
"k-	c #E6A583",
"l-	c #B57560",
"m-	c #B27564",
"n-	c #B17365",
"o-	c #A96B5A",
"p-	c #AC6C5A",
"q-	c #A46D5C",
"r-	c #895F4E",
"s-	c #885F51",
"t-	c #895F4F",
"u-	c #634459",
"v-	c #593E60",
"w-	c #573E60",
"x-	c #6AA28A",
"y-	c #5FBA93",
"z-	c #171632",
"A-	c #393978",
"B-	c #37387D",
"C-	c #313163",
"D-	c #020109",
"E-	c #030102",
"F-	c #0F0504",
"G-	c #714144",
"H-	c #7A4341",
"I-	c #804641",
"J-	c #D48F73",
"K-	c #DA9071",
"L-	c #DB9071",
"M-	c #DA8F73",
"N-	c #DA8F71",
"O-	c #DA9070",
"P-	c #D48E78",
"Q-	c #7D443C",
"R-	c #78403F",
"S-	c #724343",
"T-	c #0F0402",
"U-	c #010001",
"V-	c #313067",
"W-	c #3A377E",
"X-	c #37397A",
"Y-	c #14162F",
"Z-	c #010200",
"`-	c #67BC98",
" ;	c #5EB992",
".;	c #3A795E",
"+;	c #171732",
"@;	c #38387C",
"#;	c #38387F",
"$;	c #313160",
"%;	c #01020B",
"&;	c #0F040A",
"*;	c #75413F",
"=;	c #7A4044",
"-;	c #814541",
";;	c #D58F74",
">;	c #D89073",
",;	c #D99074",
"';	c #D89174",
");	c #D99173",
"!;	c #D68F75",
"~;	c #804540",
"{;	c #7A4041",
"];	c #74413E",
"^;	c #0E0408",
"/;	c #010108",
"(;	c #323166",
"_;	c #393979",
":;	c #181633",
"<;	c #61BB95",
"[;	c #73B89A",
"};	c #7F9B85",
"|;	c #AF8E75",
"1;	c #B28F78",
"2;	c #997E77",
"3;	c #36346C",
"4;	c #29274E",
"5;	c #29284E",
"6;	c #352747",
"7;	c #983F44",
"8;	c #A03C3E",
"9;	c #9C3E3C",
"0;	c #8A5E4F",
"a;	c #8A604F",
"b;	c #89604F",
"c;	c #895F52",
"d;	c #896053",
"e;	c #895D4F",
"f;	c #9D3E3E",
"g;	c #A23C3F",
"h;	c #983E46",
"i;	c #372645",
"j;	c #26294D",
"k;	c #272750",
"l;	c #34366E",
"m;	c #373977",
"n;	c #987F75",
"o;	c #B18E75",
"p;	c #B18D7C",
"q;	c #918F7E",
"r;	c #6FB697",
"s;	c #6EB695",
"t;	c #774043",
"u;	c #794141",
"v;	c #9D6A58",
"w;	c #FAC193",
"x;	c #F9C091",
"y;	c #D9AB95",
"z;	c #383771",
"A;	c #37377C",
"B;	c #3B387A",
"C;	c #3A387C",
"D;	c #4A366A",
"E;	c #B53A46",
"F;	c #C13839",
"G;	c #B43739",
"H;	c #1A0305",
"I;	c #000103",
"J;	c #000006",
"K;	c #1B0505",
"L;	c #B4373D",
"M;	c #B43B46",
"N;	c #4D366E",
"O;	c #36397D",
"P;	c #383A78",
"Q;	c #373878",
"R;	c #363776",
"S;	c #D8AD92",
"T;	c #F9C18F",
"U;	c #F8BF9D",
"V;	c #9E6A5A",
"W;	c #79403E",
"X;	c #783F45",
"Y;	c #774141",
"Z;	c #79423F",
"`;	c #FBC195",
" >	c #FAC092",
".>	c #DAAA98",
"+>	c #383673",
"@>	c #363876",
"#>	c #373976",
"$>	c #38397B",
"%>	c #39387D",
"&>	c #4A356C",
"*>	c #B33B45",
"=>	c #B33839",
"->	c #1A0404",
";>	c #000004",
">>	c #1B0404",
",>	c #B63739",
"'>	c #C1393A",
")>	c #B53C45",
"!>	c #4A3772",
"~>	c #383A76",
"{>	c #39387A",
"]>	c #3A3779",
"^>	c #393776",
"/>	c #D9AD93",
"(>	c #9F6A5A",
"_>	c #774045",
":>	c #774241",
"<>	c #79423E",
"[>	c #986151",
"}>	c #E9A784",
"|>	c #E7A883",
"1>	c #D49D84",
"2>	c #9F7273",
"3>	c #9F7373",
"4>	c #8C697A",
"5>	c #393775",
"6>	c #4B366A",
"7>	c #B23B42",
"8>	c #BA373A",
"9>	c #872A2E",
"0>	c #862A2C",
"a>	c #822E35",
"b>	c #857D8E",
"c>	c #7F8194",
"d>	c #808094",
"e>	c #808195",
"f>	c #7F8295",
"g>	c #867D8C",
"h>	c #823031",
"i>	c #882A2B",
"j>	c #892A28",
"k>	c #B83A38",
"l>	c #B43B40",
"m>	c #4B3770",
"n>	c #39387C",
"o>	c #3B3876",
"p>	c #8E6A78",
"q>	c #9F726F",
"r>	c #A07275",
"s>	c #D79E84",
"t>	c #E7A981",
"u>	c #E7A789",
"v>	c #966053",
"w>	c #764240",
"x>	c #764144",
"y>	c #784142",
"z>	c #945A4A",
"A>	c #D79070",
"B>	c #D88F6D",
"C>	c #D79170",
"D>	c #D9926C",
"E>	c #BB817C",
"F>	c #3A3679",
"G>	c #4B3570",
"H>	c #B23A42",
"I>	c #BF3737",
"J>	c #C0373B",
"K>	c #BF393B",
"L>	c #B9414A",
"M>	c #BAABC3",
"N>	c #B1B1CF",
"O>	c #B1B0D0",
"P>	c #B0B0D0",
"Q>	c #ADB0D0",
"R>	c #B8A9C3",
"S>	c #B84249",
"T>	c #C1393D",
"U>	c #C03837",
"V>	c #B33B3D",
"W>	c #4B376E",
"X>	c #383880",
"Y>	c #BB8179",
"Z>	c #DB926D",
"`>	c #DB9075",
" ,	c #D9916F",
".,	c #D9916D",
"+,	c #95594D",
"@,	c #7A4042",
"#,	c #5AB78F",
"$,	c #744244",
"%,	c #905A4D",
"&,	c #D79073",
"*,	c #D89171",
"=,	c #D99175",
"-,	c #DA926D",
";,	c #BD827A",
">,	c #3B3774",
",,	c #4D356F",
"',	c #B33A42",
"),	c #B94247",
"!,	c #B9ACC7",
"~,	c #B0B1D2",
"{,	c #B0B0D1",
"],	c #AEB1D0",
"^,	c #B9AAC4",
"/,	c #B84348",
"(,	c #C13935",
"_,	c #C23A37",
":,	c #BE373C",
"<,	c #BE3836",
"[,	c #B23C41",
"},	c #4B386D",
"|,	c #39387E",
"1,	c #3B3874",
"2,	c #BA827C",
"3,	c #D7916E",
"4,	c #D78F71",
"5,	c #D89170",
"6,	c #D99075",
"7,	c #915A4F",
"8,	c #764243",
"9,	c #754144",
"0,	c #73C9A4",
"a,	c #77B89A",
"b,	c #AA6E5C",
"c,	c #A86B59",
"d,	c #A36B5B",
"e,	c #8C6153",
"f,	c #8C6151",
"g,	c #785751",
"h,	c #262444",
"i,	c #232547",
"j,	c #392242",
"k,	c #B53C3B",
"l,	c #DF5447",
"m,	c #DF5642",
"n,	c #D75E57",
"o,	c #DACADF",
"p,	c #D0D0E9",
"q,	c #D0D0E8",
"r,	c #CFD1E8",
"s,	c #CDD2E7",
"t,	c #D8CADA",
"u,	c #D65F58",
"v,	c #E15640",
"w,	c #DE5342",
"x,	c #C23938",
"y,	c #C1383C",
"z,	c #B53B3F",
"A,	c #382344",
"B,	c #24254A",
"C,	c #292546",
"D,	c #775753",
"E,	c #8B6052",
"F,	c #8B6151",
"G,	c #A46B5D",
"H,	c #AB6D5D",
"I,	c #AB6D5E",
"J,	c #869881",
"K,	c #72B99C",
"L,	c #77423A",
"M,	c #7A413F",
"N,	c #663939",
"O,	c #020101",
"P,	c #010007",
"Q,	c #200305",
"R,	c #B43B38",
"S,	c #C03838",
"T,	c #C23B35",
"U,	c #F8664C",
"V,	c #F76946",
"W,	c #ED725F",
"X,	c #EEE3EB",
"Y,	c #E8E9FB",
"Z,	c #E5EAF9",
"`,	c #EEE1EA",
" '	c #ED7160",
".'	c #F6674E",
"+'	c #C43B34",
"@'	c #B73B3A",
"#'	c #1E0204",
"$'	c #000202",
"%'	c #010202",
"&'	c #020104",
"*'	c #643A38",
"='	c #794040",
"-'	c #76433F",
";'	c #56B58D",
">'	c #75413D",
",'	c #784041",
"''	c #653A39",
")'	c #020005",
"!'	c #020102",
"~'	c #020100",
"{'	c #200301",
"]'	c #B43B41",
"^'	c #C23939",
"/'	c #C33C39",
"('	c #F86649",
"_'	c #FA6846",
":'	c #EC7162",
"<'	c #ECE3E4",
"['	c #EBE8F8",
"}'	c #EAE9F8",
"|'	c #E8EAF8",
"1'	c #E6EBF8",
"2'	c #EEE3E7",
"3'	c #EE725A",
"4'	c #F86944",
"5'	c #F76650",
"6'	c #C53B38",
"7'	c #B43C3E",
"8'	c #200300",
"9'	c #000201",
"0'	c #643A31",
"a'	c #714444",
"b'	c #67BD9A",
"c'	c #76A390",
"d'	c #28284B",
"e'	c #27284E",
"f'	c #333D5B",
"g'	c #557086",
"h'	c #557286",
"i'	c #566E84",
"j'	c #7B3B5E",
"k'	c #83385B",
"l'	c #833959",
"m'	c #9D483C",
"n'	c #9E4937",
"o'	c #975045",
"p'	c #A19898",
"q'	c #A09FA5",
"r'	c #9F9FA5",
"s'	c #9EA0A5",
"t'	c #9DA0A5",
"u'	c #A1989B",
"v'	c #984E45",
"w'	c #9C4A38",
"x'	c #9B463F",
"y'	c #863B53",
"z'	c #793E5E",
"A'	c #546D82",
"B'	c #547088",
"C'	c #567188",
"D'	c #363D5C",
"E'	c #26284D",
"F'	c #7B8882",
"G'	c #78AF92",
"H'	c #75B495",
"I'	c #7CC4A9",
"J'	c #75BEA4",
"K'	c #383974",
"L'	c #393777",
"M'	c #47598A",
"N'	c #719FC5",
"O'	c #6FA0C3",
"P'	c #6D9BC4",
"Q'	c #393E7B",
"R'	c #37387A",
"S'	c #363673",
"T'	c #040312",
"U'	c #040410",
"V'	c #35396A",
"W'	c #373874",
"X'	c #384079",
"Y'	c #6C9BC1",
"Z'	c #719FC3",
"`'	c #485A8C",
" )	c #333A76",
".)	c #373975",
"+)	c #3A3776",
"@)	c #475987",
"#)	c #6FA1C1",
"$)	c #6FA2BD",
"%)	c #6F9BBC",
"&)	c #383F79",
"*)	c #363770",
"=)	c #03040D",
"-)	c #020001",
";)	c #050311",
">)	c #373670",
",)	c #373777",
"')	c #393F7C",
"))	c #6F9ABE",
"!)	c #6FA1BE",
"~)	c #749FBF",
"{)	c #4A5989",
"])	c #39377B",
"^)	c #363974",
"/)	c #262645",
"()	c #24244E",
"_)	c #2E3A58",
":)	c #4F6B7F",
"<)	c #4F6D81",
"[)	c #4F6780",
"})	c #5C779F",
"|)	c #5D77A7",
"1)	c #5A76A0",
"2)	c #527181",
"3)	c #527180",
"4)	c #516C79",
"5)	c #060B10",
"6)	c #526B77",
"7)	c #517280",
"8)	c #537083",
"9)	c #5A77A3",
"0)	c #5C79A3",
"a)	c #5B76A0",
"b)	c #506682",
"c)	c #4E6C7D",
"d)	c #516A81",
"e)	c #30395A",
"f)	c #232552",
"g)	c #232548",
"h)	c #80C5AA",
"i)	c #020004",
"j)	c #061119",
"k)	c #709DAF",
"l)	c #6DA1C0",
"m)	c #6EA0C0",
"n)	c #70A0BF",
"o)	c #6FA0C2",
"p)	c #6F9BB6",
"q)	c #0C131C",
"r)	c #0A121C",
"s)	c #6D9AB3",
"t)	c #6EA1C5",
"u)	c #6FA0C0",
"v)	c #6E9EC4",
"w)	c #71A1BD",
"x)	c #719DB5",
"y)	c #05101B",
"z)	c #030200",
"A)	c #010201",
"B)	c #07121B",
"C)	c #719DB3",
"D)	c #6CA1BF",
"E)	c #6CA1C2",
"F)	c #6F9AB3",
"G)	c #0A1318",
"H)	c #000203",
"I)	c #0A131B",
"J)	c #6E9BB3",
"K)	c #719EC6",
"L)	c #72A0C0",
"M)	c #70A1BF",
"N)	c #6E9FC0",
"O)	c #6F9DBB",
"P)	c #040F20",
"Q)	c #81C6AC",
"R)	c #080716",
"S)	c #1C1B37",
"T)	c #1C1F3F",
"U)	c #6484A7",
"V)	c #6287AF",
"W)	c #6386A8",
"X)	c #5F8196",
"Y)	c #5E8197",
"Z)	c #5F7D8F",
"`)	c #5CB892",
" !	c #5E7E8E",
".!	c #608099",
"+!	c #5E8198",
"@!	c #6386AD",
"#!	c #6385AB",
"$!	c #6483A9",
"%!	c #1D2142",
"&!	c #1D1D39",
"*!	c #1D1C39",
"=!	c #0A0817",
"-!	c #15152F",
";!	c #383876",
">!	c #37377A",
",!	c #38367A",
"'!	c #353572",
")!	c #040211",
"!!	c #0A1812",
"~!	c #6BBD9B",
"{!	c #0D1812",
"]!	c #020413",
"^!	c #33386E",
"/!	c #36377B",
"(!	c #38377D",
"_!	c #3A3876",
":!	c #181532",
"<!	c #141530",
"[!	c #38367C",
"}!	c #03030F",
"|!	c #0A1911",
"1!	c #0B1913",
"2!	c #030003",
"3!	c #040313",
"4!	c #353871",
"5!	c #38397D",
"6!	c #38397C",
"7!	c #161530",
"8!	c #75C7A1",
"9!	c #56B78F",
"0!	c #2C2D56",
"a!	c #2C2D58",
"b!	c #2D2C5A",
"c!	c #2D2D5A",
"d!	c #2E2F58",
"e!	c #63BB95",
"f!	c #2D3050",
"g!	c #2E2D5C",
"h!	c #2D2E55",
"i!	c #57B88F",
"j!	c #010205",
"k!	c #0B1412",
"l!	c #0D1C17",
"m!	c #000307",
"n!	c #70C1A0",
"o!	c #5DB992",
"p!	c #74C7A1",
"q!	c #65BC96",
"r!	c #000204",
"s!	c #0C1811",
"t!	c #0F1E15",
"u!	c #020C04",
"v!	c #70C5A0",
"w!	c #70C09F",
"x!	c #70C49F",
"y!	c #72C8A1",
"  . . . . . . . + @ # $ # @ + . . . . . . . . . . . + @ # $ # @ . . . . . . . . . . . . . . . % & * = - ; . . > , ' ) > . . . . ",
". . . . . . . . ; ! ~ { ] ! ; . . . . . . . . . . . ; ^ ] { ~ / ; . . . . . . . ( ( . . . . . _ : < [ } @ . | 1 2 3 4 5 6 . . . ",
". . . . . . . . % = 7 8 9 * % . . . . 6 0 a b > . . % $ c d { = ; . . . . . . . . . . . . . . e ~ f g h _ . | ) i j k ' l 0 a m ",
". . . . . . . . ; ^ n c o # ; . . . . p q r s t > . % # u c ] ! ; . . . . . . . . . . . . . . _ v w 7 x @ . | y 4 z A B C q r D ",
". . . . . . . . + @ # $ # @ + . . . | E F G H I J J K K L L M N O P P Q Q Q Q L R S T I . . . % & * = - ; . . > y U ) 0 V W X Y ",
". . . . . . . . . + Z % % + . . . . | `  ...+.@.@.#.$.$.$.$.%.%.#.&.#.*.=.=.=.-.-.;.#.>.. . . . ; % % ; . . . . | 6 | 6 V ,.'.'.",
". . . . . . . . . . . . . . . . . . . C ).!.~.{.].^./.(._._.:.:.<.[.}.|.|.|.1.2.3.4.5.6.. . . . . . . . . . . . . . . 7.8.9.0.0.",
"a.. . . . . . . . . . . . . . . . b.c.d.e.f.g.h.i.j.k.k.l.i.m.n.n.n.n.o.p.p.p.p.q.r.s.t.u.c.v.. . . . . . . . ; w.@ @ ; 6 x.t t ",
"y.; . . . . . . . . . . . . . . . z.A.B.C.D.E.F.G.H.I.I.J.J.K.L.M.M.M.N.N.N.N.O.P.Q.R.S.T.U.V.. . . . . . . + W.* x X._ ; . . . ",
"Y.@ . . . . . . . . . . . . . . . Z.`. +.+++@+#+$+%+&+&+&+&+J.*+*+*+*+=+=+=+=+=+-+;+>+,+'+)+!+. . . . . . . ; ! o ~+< * % . . . ",
"{+_ _ & & @ ; . . . . . . . . . . ]+^+/+(+_+:+<+[+I.=+=+&+&+J.*+*+*+*+=+=+=+J.}+|+1+2+3+4+>.5+. . . . . . . ; # < d c X.W._ & & ",
"6+& 7+] ~ = w.. . . . . . . . . . 8+9+0+a+b+$+[+*+M.c+c+=+&+J.*+*+*+J.&+&+&+&+d+L.L.L.e+f+g+h+. . . . . . . ; & h o i+^ & j+] ] ",
"k+/ ] g l+: @ . . . . . . . . . . m+n+o+|+p+%+I.M.M.c+c+=+&+J.*+*+*+J.&+&+&+&+q+$+O.%+r+s+t+V.. . . . . . . . % - / & @ ! u g g ",
"u+e i+~+c x @ . . v+. . . . w+x+y+z+A+B+C+*+L.D+E+&+&+&+=+=+=+=+=+&+&+&+&+&+&+H.%+$+q+F+G+H+I+J+K+L+. . . . v+. . + . ; & ] ~+~+",
"u+@ # x 7+& % . . . . . . . M+N+O+P+Q+R+S+T+O.*+J.E+&+&+=+=+=+=+=+&+&+&+&+&+&+U+U+U+U+V+W+X+Y+Z+@.`+. . . . . . . . . . @ = x x ",
" @+ % @ @ % . . . . . 7.> .@+@@@#@$@%@&@*@=@e+F+*+D+&+&+=+=+=+=+=+&+&+=+=+&+J.-@[+K.E+;@>@,@'@)@!@~@6 {@.@{@6 . . . . . ; w.@ @ ",
". . . . . . . . . . . > ) 2 ]@^@/@(@_@:@<@[@}@|@[+L.&+&+=+=+=+=+=+&+&+=+=+=+=+1@2@3@4@5@6@7@8@9@0@a@p b@c@d@p | . . . . . . . . ",
". . . . . . . . . . . l e@f@g@h@i@j@k@l@m@P+n@o@p@-@q@r@L.s@t@u@q@I.v@w@x@y@z@A@B@C@D@E@F@G@H@I@J@K@B L@M@3 B | . . . . . . . . ",
". . . . . . . . . . . l N@O@P@Q@R@S@k@k@T@U@V@W@E+E+|+X@&+Y@Z@`@ #.#+#@#X@##$#%#&#*#=#-#G@U@;#i@K@K@B i >#i ) | . . . . . . . . ",
",#. . . . . . . . . . '#y N@g@)#R@S@k@k@T@!#~#{#]#]#^#/#(#_#:#<#[#}#|#1#2#3#4#5#6#7#=#E@8#X+9#i@K@K@0 0#e@0#{@a#. . . . . . . . ",
"| . . . . . . . . ; @ _ Z '#g@)#R@S@k@k@T@b#c#d#e#R.f#g#h#i#j#k#l#m#n#o#p#q#r#Q+s#t#R.u#'@k@9#i@K@K@@ a#l > | . . . . . . . . . ",
"0 6 . . . . . . ; - 7+v#x - w#x#y#z#A#_@B#C#T@D#u#D@E#F#G#H#I#J#K#L#M#N#8#O#P#Q#R#S#T#U#V#F#W#X#Y#K@v # % . . . . . . . . . . . ",
"B > | Z#Z#| . . ; = < `#<  $.$+$@$#$$$%$&$*$=$-$!#;$>$,$'$)$!$~${$]$^$/$($_$:$<$[$}$|$1$2$3$4$5$6$7$8$9$_ . . . . . . . . . . . ",
"B p 0$a$b$x.6 . ; = < K@c$d$e$f$g$h$i$j$k$l$m$n$P+o$p$q$r$s$t$u$8#Q+v$w$x$y$z$A$B$C$l$D$E$F$6.G$H$I$J$K$K@. . . . . . . . . . . ",
"p L$M$N$O$P$Q$. ; - : K@c$R$S$T$U$V$A.W$X$Y$Z$`$ %.%+%@%#%$%%%&%*%=%-%;%>%,%'%)%!%~%{%]%W$9+U.^%/%(%_%:%K@. . . . . . . . . . . ",
"Z#0#W <%[%D 8.6 > }%|%K@1%2%3%4%5%6%7%8%9%0%a%b%c%d%e%f%g%h%i%j%k%k%l%m%n%o%p%q%r%s%t%u%v%w%x%y%z%A%B%C%K@. . . . . . . . . . . ",
". 0$D%E%F%G%8.y d@d@y J@H%I%J%K%L%1%M%N%O%P%Q%R%S%l#T%U%V%V%W%X%X%X%Y%Z%`%`%`% &.&+&@&#&$&:%%&&&*&J%=&-&K@. . . . . . . . . . . ",
". > E ;&P$8.1 a$O@>&e@K@M%,&'&)&!&K@:%~&{&]&^&/&l#(&_&:&<&<&[&}&}&}&}&|&|&|&|&1&2&3&4&5&6&7&Y#8&9&0&a&Y#K@. . . + + + . . . . . ",
"% . > b&b&6 .@2 >#c&a${@. d&e&f&g&h&i&j&k&l&m&n&o&p&q&q&p&p&p&r&r&r&r&r&r&r&s&t&u&v&w&x&y&z&A&B&C&D&| . . . . % e ! & @ + . . . ",
"& % . . . . > E&c@c@0$'#. . 1%F&G&H&I&J&K&L&M&N&O&P&Q&R&S&S&S&S&S&R&R&R&R&S&S&P%T&U&V&W&X&Y&Z&`& *K@. . . . ; & v#.*+*! ; . . . ",
"= W.% @ @ ; . > 1 y y b {@6 @*#*$*%*&***=*-*;*>*,*'*)*!*~*{*]*^*^*/*(*_*:*Q&<*^*[*}*|*1*2*3*4*5*6*K@Q$> . . ; # < d c X.@ % @ @ ",
"# - ! 7+7*& ; . 6 x.q s P$x.@*#*8*9*0*a*b*c*d*e*f*g*h*i*j*k*l*m*n*o*p*q*r*s*t*u*v*d*w*x*y*z*A*B*Q@K@G%t > . ; ! o ~+< * - # 7+7+",
"_ & i+C*9 7+@ . > D*O$E*F*a$G*K$H*I*J*c*K*L*M*N*O*P*Q*R*S*T*U*V*V*V*W*X*R*Y*Z*`* =.=+=@=#=@=$=%=6*K@E%&=b . . @ = 7+$ - ! ] C*C*",
"; & ] f l+: W.. > P$*===-=P$;=>=,='=)=!=~=1*{=]=^=/=(=_=:=<=[=}=|=1=2=3=4=5=6=7=8=9=J*0=a=b=)=c=d=K@e=z 8.. . ; % @ w.% ! u f g ",
". _ x u ] * w.. 6 E f=F*f=E 6 . g=h=i=j=k=l=m=n=o=p=q=r=s=t=u=u=u=u=v=w=x=y=z=A=B=C=D=w*E=F=G=H=I=J=W P$Q$. . . . . . . - K=u u ",
". ; _ ! / @ ; . . > L=b$E p > | . M=N=O=P=J*Q=D=R=S=T=U=V=W=U*X=X=X=Y=Z=`= -.-+-@-a=#-$-%-&-*-6 C V V 8.l 6 . . . . . . % - ! ! ",
". . . + + . . . . . | > p U U p 6 =---O=;->-,-'-)-!-~-{-]-^-/-7=7=7=(-]-_-:-<-[-}-J*J*l=|-1-2-. . 6 0 ) ' ) > . . . . . . . + + ",
". . . . . . . . . . . l 0#L@3-4-5-6-7-8-9-0-a-b-c-i=d-e-f-g-h-i-j-j-k-l-m-n-o-p-q-r-s-t-u-v-w-x-. '#5 y-k y-, | . . . . . . . . ",
". . . . . . . . . . . {@e@c&K@)#z-A-B-C-D-E-F-G-H-I-J-D=K-L-M-Q=Q=Q=V&N-O-P-Q-R-S-T-U-4=V-W-X-Y-Z-K@U 3-j L@B | . . . . . . . . ",
". . . . . . . . . . . > `- ;.;4=+;@;#;$;%;h@&;*;=;-;;;>;C=,;';C=C=C=);V&9&!;~;{;];^;x#/;(;A-_;:;%&K@y c@i <;y | . . . . . . . . ",
". . . . . . . . . . ; [;};y |;1;2;:*#&3;4;5;6;7;8;9;0;t-a;a;b;b;b;b;b;c;d;e;f;g;h;i;j;k;l;m;@&n;o;p;q;r;s;1 > | | | | . . . . . ",
". . . . . . . . . @ ! t;u;v;w;x;y;z;A;S&B;C;D;E;F;G;H;d=d=d=1%1%1%1%c$I;J;K;L;8#M;N;O;R&P;Q;R;S;T;U;V;W;X;| . > y B , > . . . . ",
". . . . . . . . ; ! ] Y;Z;V;`; >.>+>@>#>$>%>&>*>A$=>->Y#K@J@K@K@K@K@K@H%;>>>,>'>)>!>$>~>{>]>^>/>T;U;(>R-_>. | 1 <;L@y-) 6 . . . ",
". . . . . . . . % = 7 :><>[>}>|>1>2>3>4>5>5&6>7>A#8>9>0>a>b>c>d>e>f>g>h>i>j>k>X+l>m>n>o>p>q>r>s>t>u>v>w>x>. | ) i j k ' l Q$8.8.",
". . . . . . . . ; ! ] y>Z;z>A>B>C>@-D>E>F>B-G>H>I>J>S.K>L>M>N>O>P>Q>R>S>T>P+u#U>V>W>X>F>Y>Z>`> ,.,C=+,@,x>. | 1 c@3-y-) 8.P$#,r ",
". . . . . . . . + @ ^ $,y>%,&,@=*,=,-,;,>,)*,,',u$k@'>s#),!,~,D${,],^,/,(,_,:,<,[,},|,1,2,3,c*4,5,6,7,8,9,. . > y U 5 0 V W [%[%",
"0,. . . . . . . . + ; % ; a,b,c,d,e,f,g,h,i,j,k,F;7#l,m,n,o,p,q,r,s,t,u,v,w,x,y,z,A,B,C,D,E,F,G,H,I,J,K,. . . . | 6 | 6 V J='.'.",
". . . . . . . . . . . . . . L,M,N,O,P,O,#*%&Q,R,S,T,U,V,W,X,Y,}&[&Z,`, 'w@.'+'p#@'#'$'R*%'&'$'*'='-'. . . . . . . . . 7.C I=;';'",
"; . . . . . . . . . . . . . >',''')')#!'Y#~'{']'^'/'('_':'<'['}'|'1'2'3'4'5'6'F;7'8'9':%%&x#d=0'='a'. . . . . ; w.@ @ ; 6 b b'b'",
"_ ; . . . . . . . . . . . . . . c'd'e'f'g'h'i'j'k'l'm'n'o'p'q'r's't'u'v'w'x'y'k'z'A'B'C'D'E'E'F'G'H'. . . . + W.* I'7*- ; . . . ",
"# @ . + + . . . . . . . . . . . J'K'L'M'N'O'P'Q'R'S'T'd=J@I;d=1%1%1%;>_=J@U'V'W'X'Y'O'Z'`'R' ). . . . . . . ; ^ u l+< * % . + + ",
"= _ _ / & @ ; . . . . . . . . . . .)+)@)#)$)%)&)P%*)=)_=)#Q@K@K@K@J@-)x#d=;)>),)')))!)~){)])^). . . . . . . ; # < d c X.W._ / / ",
"& & x n ] = w.. . . . . . . . . . /)()_):)<)[)})|)1)2)3)4)5):%K@K@K@5)6)7)8)9)0)a)b)c)d)e)f)g). . . . . . . ; e v n h)! & : o n ",
"w./ ] f l+: @ . . . . . . . . . . K@x#:%d=i)j)k)l)m)n)o)p)q)d=Q@Q@Q@r)s)t)u)v)w)x)y)~':%z)A)K@. . . . . . . . % - & - @ ! u f g ",
". e i+~+c x @ . . . . . . . . . . Q@)#c$x#A)B)C)O'o)D)E)F)G)x#d=H))#I)J)K)L)M)N)O)P)c$:%A)%'1%. . . . . . . . . . . . ; & Q)~+~+",
". @ # x 7+& % . . . . . . . . . . K@J@R)S)S)T)U)V)W)X)Y)Z)`)P$b | . .  !.!+!@!#!$!%!&!*!=!%'K@. . . . . . . . . . . . . @ = x x ",
". + % @ @ ; . . . . . | > .@.@> | K@M%-!:*5&;!>!,!'!)!d=!!0 ~!1 p > | {!Q@]!^!/!(!A-~>_!:!O,K@. . . 6 {@p {@6 . . . . . + % @ @ ",
". . . . . . . . . . . > ) 2 c@E&> K@H%<!>![!>!~*~*R;}!J@|!> 0$<;<;U > 1!2!3!4!5!6!6!6!O%7!M%K@. . | p e@c@b@p | . . . . . . . . ",
"8!. . . . . . . . . . l e@9!>#2 .@. . . 0!a!b!c!c!d!. . . .@e!c&c&e!.@. . . f!g!g!g!g!h!. . . . . 6 B L@M@3 B | . . . . . . . . ",
"8!. . . . . . . . . . l d@>&i!2 .@. . . j!!'Q@%&%&k!. . . {@e@i!i!e@{@. . . l!;>h@h@h@m!. n!. . . 6 ) i c&o!) | . . v+. . . . . ",
"p!. . . . . . . . . . 6 y d@q!) > . . . r!x#M%M%M%s!. . . '#y d@d@y '#. . . t!Y#Y#Y#M%u!. . . . . | {@`-e@`-{@a#. . . . . . . . ",
"v!. . . . . . . . ; W._ |%'#l '#. . . . . . . . . . . % _ _ % '#l '#| '#{@.@> | . . . . . . . ; @ _ W.w!l > | . v+. . . . . . . ",
"x!6 . . . . . . ; - x h)x e ; . . . . . . . . . . . ; & : h)x - ; . 6 y e@e!U > . . . . . . . @ * v#v## w.. . . . . . . . . . . ",
"y!> . . . . . . ; = < g { = % . . . . . . . . . . . % * 7 g [ # ; . l d@i!c&<;.@. . . . . . . - i+l+~+v _ . . . . . . . . . . . "};
